; HEADER_BLOCK_START
; generated by AnycubicSlicerNext 1.1.1 on 2025-12-12 at 04:19:18
; total layer number: 139
; filament_density: 1.24
; filament_diameter: 1.75
; max_z_height: 27.84
; HEADER_BLOCK_END

; THUMBNAIL_BLOCK_START

;
; THUMBNAIL_BLOCK_END

; external perimeters extrusion width = 0.42mm
; perimeters extrusion width = 0.45mm
; infill extrusion width = 0.45mm
; solid infill extrusion width = 0.42mm
; top infill extrusion width = 0.42mm
; first layer extrusion width = 0.50mm

; external perimeters extrusion width = 0.42mm
; perimeters extrusion width = 0.45mm
; infill extrusion width = 0.45mm
; solid infill extrusion width = 0.42mm
; top infill extrusion width = 0.42mm
; first layer extrusion width = 0.50mm

; EXECUTABLE_BLOCK_START
;TYPE:Custom
G90 ; use absolute coordinates
M83 ; extruder relative mode
M140 S60 ; set bed temp
M190 S60 ; wait for bed temp
M104 S220 ; set extruder temp
M109 S220 ; wait for extruder temp
G28                                        ; move X/Y/Z to min endstops
G1 Z0.28                                   ; lift nozzle a bit 
G92 E0 
G1 Y3 F2400                                    ; zero the extruded length 
G1 X180  E40 F500                       ; Extrude 25mm of filament in a 5cm line. 
G92 E0                                     ; zero the extruded length again 
G1 E-2 F3000                                ; Retract a little 
G1 X181 F4000                              ; Quickly wipe away from the filament line
M117
M900 K0.07
G90
G21
M82 ; use absolute distances for extrusion
G92 E0
; filament start gcode
M106 S0
;LAYER_CHANGE
;Z:0.24
;HEIGHT:0.24
G1 E-1.5 F1800
G92 E0
; layer num/total_layer_count: 1/139
; update layer progress
M991 S0 P0 ;notify layer change
;_SET_FAN_SPEED_CHANGING_LAYER
SET_VELOCITY_LIMIT ACCEL=5000 ACCEL_TO_DECEL=2500
; printing object Frame 100% 2X.stl id:2 copy 0
G1 X217.899 Y220.48 F18000
G1 Z.24
G1 E1.5 F1800
;TYPE:Inner wall
;WIDTH:0.499999
G1 F3600
G1 X218.065 Y220.447 E1.50717
G1 X218.305 Y220.26 E1.52013
G1 X222.16 Y215.471 E1.78148
G1 X222.775 Y214.549 E1.82861
G1 X223.262 Y213.63 E1.87281
G1 X223.552 Y212.939 E1.90467
G1 X223.784 Y212.257 E1.9353
G1 X223.967 Y211.56 E1.96594
G1 X224.102 Y210.852 E1.99657
G1 X224.187 Y210.137 E2.0272
G1 X224.222 Y209.417 E2.05783
G1 X224.206 Y208.697 E2.08847
G1 X224.139 Y207.968 E2.11961
;WIDTH:0.537816
G1 X224.098 Y207.629 E2.13532
;WIDTH:0.575633
G1 X224.057 Y207.291 E2.15226
;WIDTH:0.613449
G1 X224.016 Y206.952 E2.17042
G1 X223.852 Y206.426 E2.19977
;WIDTH:0.587726
G1 X223.687 Y205.9 E2.22777
;WIDTH:0.562002
G1 X222.09 Y201.751 E2.44295
;WIDTH:0.557814
G1 X222.562 Y201.568 E2.46724
G1 X222.653 Y201.805 E2.47939
;WIDTH:0.560179
G1 X224.164 Y205.724 E2.68196
;WIDTH:0.606076
G1 X224.563 Y206.829 E2.74369
G1 X224.7 Y207.131 E2.76111
;WIDTH:0.570717
G1 X224.836 Y207.433 E2.77742
;WIDTH:0.535358
G1 X224.973 Y207.735 E2.79261
;WIDTH:0.499999
G1 X228.295 Y216.345 E3.18498
G1 X224.501 Y224.736 E3.5765
G1 X224.245 Y225.053 E3.59382
G1 X224.138 Y225.24 E3.60298
G1 X224.096 Y225.475 E3.61312
G1 X224.14 Y226.009 E3.6359
G1 X224.14 Y226.638 E3.66265
G1 X224.073 Y227.263 E3.68935
G1 X223.949 Y227.842 E3.71452
G1 X223.768 Y228.397 E3.73936
G1 X223.307 Y229.345 E3.78417
G1 X222.984 Y229.824 E3.80872
G1 X222.438 Y230.453 E3.84415
G1 X221.825 Y230.987 E3.8787
G1 X221.143 Y231.429 E3.91326
G1 X220.407 Y231.773 E3.94782
G1 X219.629 Y232.011 E3.98238
G1 X218.826 Y232.139 E4.01695
G1 X218.013 Y232.154 E4.05152
G1 X217.216 Y232.058 E4.08567
G1 X216.64 Y231.917 E4.11088
G1 X215.979 Y231.652 E4.14113
G1 X215.364 Y231.353 E4.17022
G1 X214.878 Y231.034 E4.19494
G1 X214.438 Y230.68 E4.21895
G1 X214.057 Y230.314 E4.24139
G1 X213.714 Y229.905 E4.26409
G1 X213.374 Y229.42 E4.28927
G1 X213.08 Y228.891 E4.31499
G1 X212.84 Y228.327 E4.34106
G1 X212.642 Y227.671 E4.37018
G1 X212.522 Y227.045 E4.39729
G1 X212.479 Y226.431 E4.42346
G1 X212.498 Y225.836 E4.44875
G1 X212.581 Y225.237 E4.47447
G1 X212.79 Y224.446 E4.50927
G1 X213.105 Y223.696 E4.54383
G1 X213.521 Y222.998 E4.57839
G1 X214.034 Y222.36 E4.61321
G1 X214.446 Y221.958 E4.63767
G1 X215.282 Y221.341 E4.68184
G1 X215.814 Y221.054 E4.70755
G1 X216.771 Y220.7 E4.75093
G1 X217.899 Y220.48 E4.79978
G1 X217.803 Y220.061 F18000
;TYPE:Outer wall
G1 F3600
G1 X217.955 Y219.978 E4.80715
G1 X221.798 Y215.206 E5.06764
G1 X222.379 Y214.339 E5.11199
G1 X222.856 Y213.438 E5.15533
G1 X223.128 Y212.794 E5.18506
G1 X223.35 Y212.142 E5.21436
G1 X223.527 Y211.476 E5.24366
G1 X223.657 Y210.799 E5.27297
G1 X223.739 Y210.114 E5.30227
G1 X223.773 Y209.426 E5.33157
G1 X223.76 Y208.737 E5.36087
G1 X223.697 Y208.046 E5.39035
G1 X223.518 Y207.04 E5.4338
G1 X223.232 Y206.049 E5.47763
G1 X221.473 Y201.477 E5.68592
G1 X222.835 Y200.951 E5.748
G1 X228.781 Y216.359 E6.45011
G1 X224.886 Y224.973 E6.85205
G1 X224.594 Y225.335 E6.8718
G1 X224.544 Y225.475 E6.87815
G1 X224.589 Y225.989 E6.90007
G1 X224.589 Y226.662 E6.92869
G1 X224.516 Y227.334 E6.95741
G1 X224.382 Y227.958 E6.98455
G1 X224.185 Y228.566 E7.0117
G1 X223.696 Y229.569 E7.05917
G1 X223.341 Y230.097 E7.08621
G1 X222.756 Y230.771 E7.12415
G1 X222.096 Y231.346 E7.16137
G1 X221.361 Y231.823 E7.1986
G1 X220.568 Y232.193 E7.23582
G1 X219.731 Y232.449 E7.27305
G1 X218.866 Y232.587 E7.31028
G1 X217.99 Y232.603 E7.3475
G1 X217.135 Y232.5 E7.38412
G1 X216.502 Y232.345 E7.41182
G1 X215.465 Y231.929 E7.45934
G1 X215.14 Y231.742 E7.47527
G1 X214.615 Y231.397 E7.50198
G1 X214.116 Y230.994 E7.52925
G1 X213.73 Y230.621 E7.55208
G1 X213.36 Y230.181 E7.5765
G1 X212.994 Y229.658 E7.60365
G1 X212.677 Y229.089 E7.63134
G1 X212.419 Y228.482 E7.6594
G1 X212.207 Y227.782 E7.69049
G1 X212.076 Y227.097 E7.72013
G1 X212.03 Y226.439 E7.74815
G1 X212.051 Y225.798 E7.77541
G1 X212.14 Y225.149 E7.80328
G1 X212.364 Y224.301 E7.84058
G1 X212.704 Y223.494 E7.8778
G1 X213.152 Y222.741 E7.91503
G1 X213.701 Y222.057 E7.95233
G1 X214.155 Y221.615 E7.97926
G1 X215.042 Y220.961 E8.02609
G1 X215.629 Y220.644 E8.05448
G1 X216.645 Y220.268 E8.10051
G1 X217.303 Y220.124 E8.12916
G1 X217.803 Y220.061 E8.15059
G1 E7.15059 F1800
;WIPE_START
G1 F3600
G1 X217.955 Y219.978 E7.06391
G1 X218.474 Y219.334 E6.65059
;WIPE_END
G92 E0
G1 X219.059 Y219.853 F18000
G1 E1.5 F1800
;TYPE:Bottom surface
;WIDTH:0.5
G1 F3600
G1 X219.468 Y220.262 E1.52456
G1 X219.151 Y220.579 E1.54363
G1 X218.833 Y220.262 E1.56269
G1 X218.516 Y220.579 E1.58176
G1 X218.833 Y220.896 E1.60083
G1 X218.516 Y221.213 E1.61989
G1 X218.099 Y220.796 E1.645
G1 X217.765 Y220.744 F18000
;TYPE:Gap infill
;WIDTH:0.16098
G1 F3600
G1 X217.812 Y220.773 E1.64558
;WIDTH:0.17722
G1 X217.86 Y220.803 E1.64625
;WIDTH:0.2133
G1 X217.88 Y220.821 E1.64666
;WIDTH:0.252978
G1 X217.9 Y220.838 E1.64716
;WIDTH:0.264953
G1 X218.225 Y220.669 E1.65458
G1 X218.228 Y220.635 F18000
;WIDTH:0.118161
G1 F3600
G1 X218.155 Y220.686 E1.65514
;WIDTH:0.151421
G1 X217.789 Y220.921 E1.65926
G1 X217.552 Y220.883 F18000
;TYPE:Bottom surface
;WIDTH:0.5
G1 F3600
G1 X217.565 Y220.896 E1.66002
G1 X217.248 Y221.213 E1.67908
G1 X217.023 Y220.989 E1.69259
G1 X216.767 Y221.06 F18000
G1 F3600
G1 X216.296 Y221.53 E1.72088
G1 X216.614 Y221.847 E1.73995
G1 X216.931 Y221.53 E1.75901
G1 X217.248 Y221.847 E1.77808
G1 X216.931 Y222.165 E1.79715
G1 X217.248 Y222.482 E1.81621
G1 X217.882 Y221.847 E1.85435
G1 X217.565 Y221.53 E1.87341
G1 X217.882 Y221.213 E1.89248
G1 X218.516 Y221.847 E1.93062
G1 X218.199 Y222.165 E1.94968
G1 X218.516 Y222.482 E1.96875
G1 X218.833 Y222.165 E1.98782
G1 X219.468 Y222.799 E2.02595
G1 X219.151 Y223.116 E2.04502
G1 X218.833 Y222.799 E2.06409
G1 X218.516 Y223.116 E2.08315
G1 X218.833 Y223.433 E2.10222
G1 X218.516 Y223.75 E2.12129
G1 X217.882 Y223.116 E2.15942
G1 X218.199 Y222.799 E2.17849
G1 X217.882 Y222.482 E2.19756
G1 X217.248 Y223.116 E2.23569
G1 X216.931 Y223.433 E2.25476
G1 X217.248 Y223.75 E2.27382
G1 X217.565 Y223.433 E2.29289
G1 X218.199 Y224.067 E2.33103
G1 X217.882 Y224.385 E2.35009
G1 X217.565 Y224.067 E2.36916
G1 X217.248 Y224.385 E2.38823
G1 X217.565 Y224.702 E2.40729
G1 X217.248 Y225.019 E2.42636
G1 X216.614 Y224.385 E2.4645
G1 X216.931 Y224.067 E2.48356
G1 X216.614 Y223.75 E2.50263
G1 X216.296 Y224.067 E2.5217
G1 X215.662 Y223.433 E2.55983
G1 X215.979 Y223.116 E2.5789
G1 X216.296 Y223.433 E2.59797
G1 X216.931 Y222.799 E2.6361
G1 X216.614 Y222.482 E2.65517
G1 X216.296 Y222.799 E2.67423
G1 X215.979 Y222.482 E2.6933
G1 X216.296 Y222.165 E2.71237
G1 X215.979 Y221.847 E2.73144
G1 X215.345 Y222.482 E2.76957
G1 X215.662 Y222.799 E2.78864
G1 X215.345 Y223.116 E2.8077
G1 X215.028 Y222.799 E2.82677
G1 X214.711 Y223.116 E2.84584
G1 X215.028 Y223.433 E2.86491
G1 X214.711 Y223.75 E2.88397
G1 X214.394 Y223.433 E2.90304
G1 X213.759 Y224.067 E2.94117
G1 X214.076 Y224.385 E2.96024
G1 X214.394 Y224.067 E2.97931
G1 X214.711 Y224.385 E2.99838
G1 X214.394 Y224.702 E3.01744
G1 X214.711 Y225.019 E3.03651
G1 X215.345 Y224.385 E3.07464
G1 X215.028 Y224.067 E3.09371
G1 X215.345 Y223.75 E3.11278
G1 X215.979 Y224.385 E3.15091
G1 X215.662 Y224.702 E3.16998
G1 X215.979 Y225.019 E3.18905
G1 X216.296 Y224.702 E3.20811
G1 X216.931 Y225.336 E3.24625
G1 X216.614 Y225.653 E3.26532
G1 X216.296 Y225.336 E3.28438
G1 X215.979 Y225.653 E3.30345
G1 X216.296 Y225.97 E3.32252
G1 X215.979 Y226.287 E3.34158
G1 X215.345 Y225.653 E3.37972
G1 X215.662 Y225.336 E3.39878
G1 X215.345 Y225.019 E3.41785
G1 X214.394 Y225.97 E3.47505
G1 X214.711 Y226.287 E3.49412
G1 X215.028 Y225.97 E3.51319
G1 X215.662 Y226.605 E3.55132
G1 X215.345 Y226.922 E3.57039
G1 X215.028 Y226.605 E3.58946
G1 X214.711 Y226.922 E3.60852
G1 X215.028 Y227.239 E3.62759
G1 X214.711 Y227.556 E3.64666
G1 X214.076 Y226.922 E3.68479
G1 X214.394 Y226.605 E3.70386
G1 X214.076 Y226.287 E3.72293
G1 X213.759 Y226.605 E3.74199
G1 X213.125 Y225.97 E3.78013
G1 X213.442 Y225.653 E3.79919
G1 X213.759 Y225.97 E3.81826
G1 X214.394 Y225.336 E3.8564
G1 X214.076 Y225.019 E3.87546
G1 X213.759 Y225.336 E3.89453
G1 X213.442 Y225.019 E3.9136
G1 X213.759 Y224.702 E3.93266
G1 X213.442 Y224.385 E3.95173
G1 X213.05 Y224.776 E3.97529
G1 X213.074 Y224.405 F18000
;TYPE:Gap infill
;WIDTH:0.149977
G1 F3600
G1 X213.144 Y224.301 E3.97645
;WIDTH:0.172303
G1 X213.213 Y224.198 E3.97789
;WIDTH:0.216955
G1 X213.283 Y224.094 E3.97984
;WIDTH:0.257495
G1 X213.316 Y224.062 E3.98074
;WIDTH:0.29392
G1 X213.349 Y224.03 E3.9818
;WIDTH:0.334268
G1 X213.383 Y224.008 E3.98288
;WIDTH:0.354479
G1 X213.432 Y223.872 E3.98704
G1 X213.526 Y223.75 E3.99144
G1 X213.55 Y223.75 E3.99213
;WIDTH:0.331035
G1 X213.574 Y223.75 E3.99276
;WIDTH:0.296065
G1 X213.648 Y223.737 E3.99451
;WIDTH:0.259794
G1 X213.723 Y223.725 E3.99601
;WIDTH:0.223523
G1 X213.798 Y223.712 E3.99725
G1 X213.366 Y224.16 F18000
;WIDTH:0.120367
G1 F3600
G1 X213.514 Y223.505 E4.00163
G1 X213.653 Y223.326 E4.00311
G1 X213.693 Y223.367 F18000
;TYPE:Bottom surface
;WIDTH:0.5
G1 F3600
G1 X213.759 Y223.433 E4.0071
G1 X214.394 Y222.799 E4.04524
G1 X214.238 Y222.643 E4.05461
G1 X214.24 Y222.641 F18000
;TYPE:Gap infill
;WIDTH:0.0949128
G1 F3600
G1 X214.23 Y222.623 E4.05469
;WIDTH:0.112738
G1 X214.221 Y222.606 E4.0548
;WIDTH:0.148388
G1 X214.212 Y222.588 E4.05499
;WIDTH:0.170255
G1 X214.341 Y222.456 E4.05706
;WIDTH:0.15857
G1 X214.778 Y222.041 E4.06318
;WIDTH:0.119353
G1 X214.929 Y221.911 E4.06447
G1 E2.66416 F1800
;WIPE_START
G1 F3600
G1 X214.778 Y222.041 E2.56447
;WIPE_END
G92 E0
G1 X213.842 Y222.998 F18000
G1 E1.5 F1800
;WIDTH:0.132708
G1 F3600
G1 X214.019 Y222.8 E1.50205
;WIDTH:0.1464
G1 X214.197 Y222.602 E1.50444
;WIDTH:0.163152
G1 X214.212 Y222.588 E1.50466
G1 X214.341 Y222.456 F18000
;WIDTH:0.151295
G1 F3600
G1 X214.359 Y222.466 E1.50485
;WIDTH:0.114025
G1 X214.377 Y222.476 E1.50497
;WIDTH:0.0953908
G1 X214.395 Y222.486 E1.50506
G1 X214.553 Y222.324 F18000
;TYPE:Bottom surface
;WIDTH:0.5
G1 F3600
G1 X214.711 Y222.482 E1.51457
G1 X215.345 Y221.847 E1.5527
G1 X215.267 Y221.77 E1.55737
G1 X215.228 Y221.73 F18000
;TYPE:Gap infill
;WIDTH:0.138582
G1 F3600
G1 X215.398 Y221.583 E1.55922
G1 X215.471 Y221.566 E1.55984
;WIDTH:0.196667
G1 X215.496 Y221.57 E1.56019
G1 X215.614 Y221.482 E1.56221
G1 X215.654 Y221.523 F18000
;TYPE:Bottom surface
;WIDTH:0.5
G1 F3600
G1 X215.688 Y221.504 E1.56384
G1 X215.835 Y221.651 F18000
;TYPE:Gap infill
;WIDTH:0.207453
G1 F3600
G1 X215.844 Y221.602 E1.56458
;WIDTH:0.229322
G1 X215.852 Y221.553 E1.56542
;WIDTH:0.273059
G1 X215.86 Y221.504 E1.56646
;WIDTH:0.304565
G1 X215.886 Y221.492 E1.56715
;WIDTH:0.331592
G1 X215.925 Y221.476 E1.56826
G1 X215.938 Y221.437 E1.56934
;WIDTH:0.299757
G1 X215.96 Y221.376 E1.57088
G1 X216.322 Y221.105 E1.58151
G1 E.34011 F1800
;WIPE_START
G1 F3600
G1 X215.96 Y221.376 E.11428
G1 X215.938 Y221.437 E.08151
;WIPE_END
G92 E0
G1 X218.818 Y220.038 F18000
G1 E1.5 F1800
;WIDTH:0.163386
G1 F3600
G1 X219.294 Y219.508 E1.50755
;WIDTH:0.176137
G1 X219.77 Y218.978 E1.51596
G1 X219.766 Y218.975 F18000
;WIDTH:0.198228
G1 F3600
G1 X219.648 Y219.042 E1.51785
;WIDTH:0.158463
G1 X219.436 Y219.279 E1.52107
;WIDTH:0.120805
G1 X219.224 Y219.515 E1.52316
G1 X218.978 Y219.935 E1.52636
G1 E.42837 F1800
;WIPE_START
G1 F3600
G1 X219.224 Y219.515 E.18515
G1 X219.436 Y219.279 E.02636
;WIPE_END
G92 E0
G1 X219.872 Y219.086 F18000
G1 E1.5 F1800
;WIDTH:0.204542
G1 F3600
G1 X219.693 Y219.01 E1.50282
;WIDTH:0.165286
G1 X219.718 Y218.927 E1.50376
G1 X220.018 Y218.593 E1.5086
;WIDTH:0.20278
G1 X220.265 Y218.441 E1.51275
;WIDTH:0.23224
G1 X220.512 Y218.29 E1.51771
G1 X220.402 Y218.452 F18000
;WIDTH:0.175249
G1 F3600
G1 X220.484 Y218.162 E1.52125
;WIDTH:0.157551
G1 X220.567 Y217.873 E1.52427
;WIDTH:0.16058
G1 X221.017 Y217.372 E1.53124
G1 X221.04 Y217.394 F18000
;TYPE:Bottom surface
;WIDTH:0.5
G1 F3600
G1 X221.053 Y217.408 E1.53205
G1 X221.371 Y217.09 E1.55111
G1 X221.323 Y217.043 E1.55398
G1 X221.889 Y216.34 F18000
G1 F3600
G1 X222.005 Y216.456 E1.56095
G1 X221.688 Y216.773 E1.58002
G1 X222.322 Y217.408 E1.61815
G1 X222.639 Y217.09 E1.63722
G1 X222.322 Y216.773 E1.65628
G1 X222.639 Y216.456 E1.67535
G1 X222.956 Y216.773 E1.69442
G1 X223.273 Y216.456 E1.71349
G1 X222.639 Y215.822 E1.75162
G1 X222.322 Y216.139 E1.77069
G1 X222.172 Y215.989 E1.77971
G1 X222.168 Y215.993 F18000
;TYPE:Gap infill
;WIDTH:0.117824
G1 F3600
G1 X222.139 Y215.984 E1.77991
;WIDTH:0.139062
G1 X222.109 Y215.974 E1.78016
;WIDTH:0.173759
G1 X222.416 Y215.624 E1.78555
;WIDTH:0.209052
G1 X222.487 Y215.538 E1.78722
;WIDTH:0.243214
G1 X222.942 Y215.173 E1.79782
G1 X222.856 Y215.087 F18000
;WIDTH:0.297901
G1 F3600
G1 X222.654 Y215.334 E1.80526
G1 X222.556 Y215.598 E1.81183
G1 X222.633 Y215.598 F18000
;WIDTH:0.148999
G1 F3600
G1 X222.778 Y215.01 E1.81743
G1 X223.018 Y214.717 E1.82093
G1 X223.015 Y214.682 E1.82126
;WIDTH:0.120353
G1 X223.029 Y214.593 E1.82184
G1 X222.961 Y214.875 F18000
;TYPE:Bottom surface
;WIDTH:0.5
G1 F3600
G1 X223.273 Y215.188 E1.84061
G1 X222.956 Y215.505 E1.85968
G1 X223.591 Y216.139 E1.89782
G1 X223.908 Y215.822 E1.91688
G1 X223.591 Y215.505 E1.93595
G1 X223.908 Y215.188 E1.95502
G1 X224.225 Y215.505 E1.97408
G1 X224.542 Y215.188 E1.99315
G1 X223.908 Y214.553 E2.03129
G1 X223.591 Y214.871 E2.05035
G1 X223.273 Y214.553 E2.06942
G1 X223.908 Y213.919 E2.10755
G1 X224.225 Y214.236 E2.12662
G1 X224.542 Y213.919 E2.14569
G1 X224.225 Y213.602 E2.16476
G1 X224.859 Y212.968 E2.20289
G1 X225.176 Y213.285 E2.22196
G1 X224.859 Y213.602 E2.24102
G1 X225.176 Y213.919 E2.26009
G1 X225.493 Y213.602 E2.27916
G1 X225.81 Y213.919 E2.29823
G1 X225.176 Y214.553 E2.33636
G1 X224.859 Y214.236 E2.35543
G1 X224.542 Y214.553 E2.37449
G1 X225.493 Y215.505 E2.43169
G1 X225.81 Y215.188 E2.45076
G1 X225.493 Y214.871 E2.46983
G1 X226.128 Y214.236 E2.50796
G1 X226.445 Y214.553 E2.52703
G1 X226.128 Y214.871 E2.5461
G1 X226.445 Y215.188 E2.56516
G1 X226.762 Y214.871 E2.58423
G1 X227.079 Y215.188 E2.6033
G1 X226.445 Y215.822 E2.64143
G1 X226.128 Y215.505 E2.6605
G1 X225.81 Y215.822 E2.67957
G1 X226.128 Y216.139 E2.69863
G1 X225.493 Y216.773 E2.73677
G1 X225.176 Y216.456 E2.75584
G1 X225.493 Y216.139 E2.7749
G1 X225.176 Y215.822 E2.79397
G1 X224.859 Y215.505 E2.81304
G1 X224.542 Y215.822 E2.8321
G1 X224.859 Y216.139 E2.85117
G1 X224.542 Y216.456 E2.87024
