; HEADER_BLOCK_START
; generated by AnycubicSlicerNext 1.1.1 on 2025-12-12 at 03:47:13
; total layer number: 10
; filament_density: 1.24
; filament_diameter: 1.75
; max_z_height: 2.04
; HEADER_BLOCK_END

; THUMBNAIL_BLOCK_START

;
; THUMBNAIL_BLOCK_END

; external perimeters extrusion width = 0.42mm
; perimeters extrusion width = 0.45mm
; infill extrusion width = 0.45mm
; solid infill extrusion width = 0.42mm
; top infill extrusion width = 0.42mm
; first layer extrusion width = 0.50mm

; external perimeters extrusion width = 0.42mm
; perimeters extrusion width = 0.45mm
; infill extrusion width = 0.45mm
; solid infill extrusion width = 0.42mm
; top infill extrusion width = 0.42mm
; first layer extrusion width = 0.50mm

; EXECUTABLE_BLOCK_START
;TYPE:Custom
G90 ; use absolute coordinates
M83 ; extruder relative mode
M140 S60 ; set bed temp
M190 S60 ; wait for bed temp
M104 S220 ; set extruder temp
M109 S220 ; wait for extruder temp
G28                                        ; move X/Y/Z to min endstops
G1 Z0.28                                   ; lift nozzle a bit 
G92 E0 
G1 Y3 F2400                                    ; zero the extruded length 
G1 X180  E40 F500                       ; Extrude 25mm of filament in a 5cm line. 
G92 E0                                     ; zero the extruded length again 
G1 E-2 F3000                                ; Retract a little 
G1 X181 F4000                              ; Quickly wipe away from the filament line
M117
M900 K0.07
G90
G21
M82 ; use absolute distances for extrusion
G92 E0
; filament start gcode
M106 S0
;LAYER_CHANGE
;Z:0.24
;HEIGHT:0.24
G1 E-1.5 F1800
G92 E0
; layer num/total_layer_count: 1/10
; update layer progress
M991 S0 P0 ;notify layer change
;_SET_FAN_SPEED_CHANGING_LAYER
SET_VELOCITY_LIMIT ACCEL=5000 ACCEL_TO_DECEL=2500
; printing object UnterlegscheibeV4.stl id:7003206972308717827 copy 0
G1 X237.354 Y160.574 F18000
G1 Z.24
G1 E1.5 F1800
;TYPE:Inner wall
;WIDTH:0.499999
G1 F3600
G1 X242.667 Y160.216 E1.72636
G1 X247.979 Y160.574 E1.95272
G1 X253.073 Y161.615 E2.17375
G1 X257.903 Y163.293 E2.39113
G1 X262.423 Y165.562 E2.60615
G1 X266.587 Y168.375 E2.81978
G1 X270.347 Y171.685 E3.03276
G1 X273.657 Y175.446 E3.24575
G1 X276.47 Y179.609 E3.45937
G1 X278.739 Y184.13 E3.67439
G1 X280.417 Y188.96 E3.89177
G1 X281.459 Y194.053 E4.1128
G1 X281.816 Y199.366 E4.33916
G1 X281.459 Y204.678 E4.56552
G1 X280.417 Y209.772 E4.78656
G1 X278.739 Y214.602 E5.00394
G1 X276.47 Y219.122 E5.21895
G1 X273.657 Y223.286 E5.43258
G1 X270.347 Y227.046 E5.64557
G1 X266.587 Y230.357 E5.85855
G1 X262.423 Y233.169 E6.07218
G1 X257.903 Y235.438 E6.28719
G1 X253.073 Y237.116 E6.50458
G1 X247.979 Y238.158 E6.72561
G1 X242.667 Y238.515 E6.95197
G1 X237.354 Y238.158 E7.17833
G1 X232.261 Y237.116 E7.39936
G1 X227.431 Y235.438 E7.61674
G1 X222.91 Y233.169 E7.83176
G1 X218.746 Y230.357 E8.04538
G1 X214.986 Y227.046 E8.25837
G1 X211.676 Y223.286 E8.47135
G1 X208.863 Y219.122 E8.68498
G1 X206.594 Y214.602 E8.9
G1 X204.916 Y209.772 E9.11738
G1 X203.875 Y204.678 E9.33841
G1 X203.517 Y199.366 E9.56477
G1 X203.875 Y194.053 E9.79113
G1 X204.916 Y188.96 E10.01216
G1 X206.594 Y184.13 E10.22954
G1 X208.863 Y179.609 E10.44456
G1 X211.676 Y175.446 E10.65819
G1 X214.986 Y171.685 E10.87117
G1 X218.746 Y168.375 E11.08416
G1 X222.91 Y165.562 E11.29778
G1 X227.431 Y163.293 E11.5128
G1 X232.261 Y161.615 E11.73018
G1 X237.354 Y160.574 E11.95121
G1 X237.294 Y160.128 F18000
;TYPE:Outer wall
G1 F3600
G1 X242.667 Y159.767 E12.18014
G1 X248.039 Y160.128 E12.40907
G1 X253.192 Y161.182 E12.63265
G1 X258.078 Y162.879 E12.85255
G1 X262.65 Y165.174 E13.07004
G1 X266.862 Y168.019 E13.28612
G1 X270.665 Y171.367 E13.50154
G1 X274.013 Y175.171 E13.71696
G1 X276.858 Y179.382 E13.93303
G1 X279.153 Y183.955 E14.15053
G1 X280.851 Y188.841 E14.37043
G1 X281.904 Y193.993 E14.59401
G1 X282.266 Y199.366 E14.82294
G1 X281.904 Y204.738 E15.05186
G1 X280.851 Y209.891 E15.27545
G1 X279.153 Y214.777 E15.49534
G1 X276.858 Y219.349 E15.71284
G1 X274.013 Y223.561 E15.92892
G1 X270.665 Y227.364 E16.14433
G1 X266.862 Y230.712 E16.35975
G1 X262.65 Y233.557 E16.57583
G1 X258.078 Y235.852 E16.79332
G1 X253.192 Y237.55 E17.01322
G1 X248.039 Y238.603 E17.2368
G1 X242.667 Y238.965 E17.46573
G1 X237.294 Y238.603 E17.69466
G1 X232.141 Y237.55 E17.91824
G1 X227.256 Y235.852 E18.13814
G1 X222.683 Y233.557 E18.35564
G1 X218.472 Y230.712 E18.57171
G1 X214.668 Y227.364 E18.78713
G1 X211.32 Y223.561 E19.00255
G1 X208.475 Y219.349 E19.21862
G1 X206.18 Y214.777 E19.43612
G1 X204.483 Y209.891 E19.65602
G1 X203.429 Y204.738 E19.8796
G1 X203.068 Y199.366 E20.10853
G1 X203.429 Y193.993 E20.33746
G1 X204.483 Y188.841 E20.56104
G1 X206.18 Y183.955 E20.78094
G1 X208.475 Y179.382 E20.99843
G1 X211.32 Y175.171 E21.21451
G1 X214.668 Y171.367 E21.42993
G1 X218.472 Y168.019 E21.64534
G1 X222.683 Y165.174 E21.86142
G1 X227.256 Y162.879 E22.07892
G1 X232.141 Y161.182 E22.29881
G1 X237.294 Y160.128 E22.5224
G1 E21.5224 F1800
;WIPE_START
G1 F3600
G1 X238.292 Y160.061 E21.0224
;WIPE_END
G92 E0
G1 X253.22 Y181.384 F18000
G1 E1.5 F1800
;TYPE:Inner wall
G1 F3600
G1 X255.407 Y182.861 E1.61219
G1 X257.409 Y184.624 E1.72559
G1 X259.171 Y186.626 E1.83898
G1 X260.669 Y188.843 E1.95275
G1 X261.878 Y191.251 E2.06729
G1 X262.772 Y193.825 E2.18312
G1 X263.327 Y196.539 E2.30088
G1 X263.517 Y199.366 E2.42134
G1 X263.327 Y202.193 E2.54181
G1 X262.772 Y204.907 E2.65956
G1 X261.878 Y207.48 E2.7754
G1 X260.669 Y209.888 E2.88994
G1 X259.171 Y212.106 E3.0037
G1 X257.409 Y214.108 E3.1171
G1 X255.407 Y215.87 E3.2305
G1 X253.189 Y217.368 E3.34426
G1 X250.781 Y218.577 E3.45881
G1 X248.208 Y219.471 E3.57464
G1 X245.494 Y220.026 E3.6924
G1 X242.667 Y220.216 E3.81286
G1 X239.839 Y220.026 E3.93333
G1 X237.126 Y219.471 E4.05108
G1 X234.552 Y218.577 E4.16691
G1 X232.144 Y217.368 E4.28146
G1 X229.927 Y215.87 E4.39522
G1 X227.925 Y214.108 E4.50862
G1 X226.162 Y212.106 E4.62202
G1 X224.664 Y209.888 E4.73578
G1 X223.456 Y207.48 E4.85033
G1 X222.561 Y204.907 E4.96616
G1 X222.007 Y202.193 E5.08391
G1 X221.816 Y199.366 E5.20438
G1 X222.007 Y196.539 E5.32484
G1 X222.561 Y193.825 E5.4426
G1 X223.456 Y191.251 E5.55843
G1 X224.664 Y188.843 E5.67297
G1 X226.162 Y186.626 E5.78674
G1 X227.925 Y184.624 E5.90014
G1 X229.927 Y182.861 E6.01353
G1 X232.144 Y181.363 E6.1273
G1 X234.552 Y180.155 E6.24184
G1 X237.126 Y179.26 E6.35767
G1 X239.839 Y178.706 E6.47543
G1 X242.667 Y178.515 E6.59589
G1 X245.494 Y178.706 E6.71636
G1 X248.208 Y179.26 E6.83411
G1 X250.781 Y180.155 E6.94995
G1 X253.189 Y181.363 E7.06449
G1 X253.22 Y181.384 E7.06607
G1 X252.969 Y181.756 F18000
;TYPE:Outer wall
G1 F3600
G1 X255.132 Y183.217 E7.17704
G1 X257.091 Y184.941 E7.288
G1 X258.816 Y186.901 E7.39897
G1 X260.281 Y189.07 E7.51028
G1 X261.464 Y191.426 E7.62235
G1 X262.339 Y193.944 E7.73566
G1 X262.881 Y196.599 E7.85086
G1 X263.068 Y199.366 E7.96876
G1 X262.881 Y202.133 E8.08666
G1 X262.339 Y204.788 E8.20186
G1 X261.464 Y207.305 E8.31518
G1 X260.281 Y209.661 E8.42724
G1 X258.816 Y211.831 E8.53856
G1 X257.091 Y213.79 E8.64952
G1 X255.132 Y215.515 E8.76049
G1 X252.962 Y216.98 E8.8718
G1 X250.606 Y218.163 E8.98387
G1 X248.089 Y219.038 E9.09718
G1 X245.434 Y219.58 E9.21239
G1 X242.667 Y219.767 E9.33029
G1 X239.9 Y219.58 E9.44818
G1 X237.245 Y219.038 E9.56339
G1 X234.727 Y218.163 E9.6767
G1 X232.371 Y216.98 E9.78877
G1 X230.202 Y215.515 E9.90008
G1 X228.242 Y213.79 E10.01105
G1 X226.518 Y211.831 E10.12201
G1 X225.052 Y209.661 E10.23333
G1 X223.87 Y207.305 E10.34539
G1 X222.995 Y204.788 E10.45871
G1 X222.452 Y202.133 E10.57391
G1 X222.266 Y199.366 E10.69181
G1 X222.452 Y196.599 E10.80971
G1 X222.995 Y193.944 E10.92491
G1 X223.87 Y191.426 E11.03823
G1 X225.052 Y189.07 E11.15029
G1 X226.518 Y186.901 E11.26161
G1 X228.242 Y184.941 E11.37257
G1 X230.202 Y183.217 E11.48354
G1 X232.371 Y181.751 E11.59485
G1 X234.727 Y180.569 E11.70692
G1 X237.245 Y179.694 E11.82023
G1 X239.9 Y179.151 E11.93543
G1 X242.667 Y178.965 E12.05333
G1 X245.434 Y179.151 E12.17123
G1 X248.089 Y179.694 E12.28643
G1 X250.606 Y180.569 E12.39975
G1 X252.962 Y181.751 E12.51181
G1 X252.969 Y181.756 E12.51216
G1 E11.51216 F1800
;WIPE_START
G1 F3600
G1 X253.798 Y182.315 E11.01216
;WIPE_END
G92 E0
G1 X254.133 Y181.66 F18000
G1 E1.5 F1800
;TYPE:Gap infill
;WIDTH:0.143675
G1 F3600
G1 X254.067 Y181.644 E1.5006
G1 X253.893 Y181.5 E1.50256
;WIDTH:0.186093
G1 X253.719 Y181.357 E1.50544
;WIDTH:0.217438
G1 X253.683 Y181.316 E1.5063
G1 X253.716 Y181.305 E1.50684
;WIDTH:0.161373
G1 X253.748 Y181.294 E1.50719
;WIDTH:0.11189
G1 X253.781 Y181.283 E1.50739
G1 X253.616 Y181.118 F18000
;WIDTH:0.176909
G1 F3600
G1 X253.378 Y181.149 E1.51025
;WIDTH:0.146035
G1 X253.336 Y181.155 E1.51062
;WIDTH:0.102273
G1 X253.295 Y181.147 E1.51083
G1 X253.121 Y181.021 E1.51186
G1 X253.162 Y180.981 F18000
;TYPE:Bottom surface
;WIDTH:0.5
G1 F3600
G1 X253.153 Y180.972 E1.51239
G1 X253.47 Y180.655 E1.53145
G1 X254.104 Y181.289 E1.56959
G1 X253.933 Y181.46 E1.57988
G1 X254.514 Y181.853 F18000
;TYPE:Gap infill
;WIDTH:0.127974
G1 F3600
G1 X254.474 Y181.914 E1.58041
G1 X254.445 Y181.9 E1.58064
;WIDTH:0.159013
G1 X254.153 Y181.658 E1.58451
G1 X254.133 Y181.66 E1.58471
G1 X254.311 Y181.716 F18000
;TYPE:Bottom surface
;WIDTH:0.5
G1 F3600
G1 X254.738 Y181.289 E1.61039
G1 X254.421 Y180.972 E1.62946
G1 X254.738 Y180.655 E1.64852
G1 X255.056 Y180.972 E1.66759
G1 X255.69 Y180.338 E1.70572
G1 X255.373 Y180.021 E1.72479
G1 X255.056 Y180.338 E1.74386
G1 X254.738 Y180.021 E1.76293
G1 X255.056 Y179.703 E1.78199
G1 X254.738 Y179.386 E1.80106
G1 X254.104 Y180.021 E1.83919
G1 X254.421 Y180.338 E1.85826
G1 X254.104 Y180.655 E1.87733
G1 X253.47 Y180.021 E1.91546
G1 X253.787 Y179.703 E1.93453
G1 X253.47 Y179.386 E1.9536
G1 X253.153 Y179.703 E1.97266
G1 X252.518 Y179.069 E2.0108
G1 X252.836 Y178.752 E2.02987
G1 X253.153 Y179.069 E2.04893
G1 X253.47 Y178.752 E2.068
G1 X253.153 Y178.435 E2.08707
G1 X253.47 Y178.118 E2.10613
G1 X254.104 Y178.752 E2.14427
G1 X253.787 Y179.069 E2.16334
G1 X254.104 Y179.386 E2.1824
G1 X255.056 Y178.435 E2.2396
G1 X254.738 Y178.118 E2.25867
G1 X254.421 Y178.435 E2.27774
G1 X253.787 Y177.801 E2.31587
G1 X254.104 Y177.483 E2.33494
G1 X254.421 Y177.801 E2.35401
G1 X254.738 Y177.483 E2.37307
G1 X254.421 Y177.166 E2.39214
G1 X254.738 Y176.849 E2.41121
G1 X255.373 Y177.483 E2.44934
G1 X255.056 Y177.801 E2.46841
G1 X255.373 Y178.118 E2.48748
G1 X255.69 Y177.801 E2.50654
G1 X256.324 Y178.435 E2.54468
G1 X256.007 Y178.752 E2.56375
G1 X255.69 Y178.435 E2.58281
G1 X255.056 Y179.069 E2.62095
G1 X255.373 Y179.386 E2.64001
G1 X255.69 Y179.069 E2.65908
G1 X256.007 Y179.386 E2.67815
G1 X255.69 Y179.703 E2.69722
G1 X256.007 Y180.021 E2.71628
G1 X256.641 Y179.386 E2.75442
G1 X256.324 Y179.069 E2.77348
G1 X256.641 Y178.752 E2.79255
G1 X256.958 Y179.069 E2.81162
G1 X257.275 Y178.752 E2.83069
G1 X256.958 Y178.435 E2.84975
G1 X257.275 Y178.118 E2.86882
G1 X257.593 Y178.435 E2.88789
G1 X258.227 Y177.801 E2.92602
G1 X257.91 Y177.483 E2.94509
G1 X257.593 Y177.801 E2.96415
G1 X257.275 Y177.483 E2.98322
G1 X257.593 Y177.166 E3.00229
G1 X257.275 Y176.849 E3.02136
G1 X256.641 Y177.483 E3.05949
G1 X256.958 Y177.801 E3.07856
G1 X256.641 Y178.118 E3.09762
G1 X256.007 Y177.483 E3.13576
G1 X256.324 Y177.166 E3.15483
G1 X256.007 Y176.849 E3.17389
G1 X255.69 Y177.166 E3.19296
G1 X255.056 Y176.532 E3.23109
G1 X255.373 Y176.215 E3.25016
G1 X255.69 Y176.532 E3.26923
G1 X256.007 Y176.215 E3.2883
G1 X255.69 Y175.898 E3.30736
G1 X256.007 Y175.581 E3.32643
G1 X256.641 Y176.215 E3.36456
G1 X256.324 Y176.532 E3.38363
G1 X256.641 Y176.849 E3.4027
G1 X257.593 Y175.898 E3.4599
G1 X257.275 Y175.581 E3.47897
G1 X256.958 Y175.898 E3.49803
G1 X256.324 Y175.264 E3.53617
G1 X256.641 Y174.946 E3.55524
G1 X256.958 Y175.264 E3.5743
G1 X257.275 Y174.946 E3.59337
G1 X256.958 Y174.629 E3.61244
G1 X257.275 Y174.312 E3.6315
G1 X257.91 Y174.946 E3.66964
G1 X257.593 Y175.264 E3.68871
G1 X257.91 Y175.581 E3.70777
G1 X258.227 Y175.264 E3.72684
G1 X258.861 Y175.898 E3.76497
G1 X258.544 Y176.215 E3.78404
G1 X258.227 Y175.898 E3.80311
G1 X257.593 Y176.532 E3.84124
G1 X257.91 Y176.849 E3.86031
G1 X258.227 Y176.532 E3.87938
G1 X258.544 Y176.849 E3.89844
G1 X258.227 Y177.166 E3.91751
G1 X258.544 Y177.483 E3.93658
G1 X259.178 Y176.849 E3.97471
G1 X258.861 Y176.532 E3.99378
G1 X259.178 Y176.215 E4.01285
G1 X259.495 Y176.532 E4.03191
G1 X260.13 Y175.898 E4.07005
G1 X259.813 Y175.581 E4.08911
G1 X259.495 Y175.898 E4.10818
G1 X258.861 Y175.264 E4.14632
G1 X259.178 Y174.946 E4.16538
G1 X259.495 Y175.264 E4.18445
G1 X259.813 Y174.946 E4.20352
G1 X259.495 Y174.629 E4.22258
G1 X259.813 Y174.312 E4.24165
G1 X260.447 Y174.946 E4.27979
G1 X260.13 Y175.264 E4.29885
G1 X260.447 Y175.581 E4.31792
G1 X261.081 Y174.946 E4.35605
G1 X260.764 Y174.629 E4.37512
G1 X261.081 Y174.312 E4.39419
G1 X261.398 Y174.629 E4.41326
G1 X262.032 Y173.995 E4.45139
G1 X261.715 Y173.678 E4.47046
G1 X261.398 Y173.995 E4.48952
G1 X261.081 Y173.678 E4.50859
G1 X261.398 Y173.361 E4.52766
G1 X261.081 Y173.044 E4.54673
G1 X260.447 Y173.678 E4.58486
G1 X260.764 Y173.995 E4.60393
G1 X260.447 Y174.312 E4.62299
G1 X259.813 Y173.678 E4.66113
G1 X259.495 Y173.361 E4.6802
G1 X259.813 Y173.044 E4.69926
G1 X260.13 Y173.361 E4.71833
G1 X260.764 Y172.726 E4.75646
G1 X260.447 Y172.409 E4.77553
G1 X260.13 Y172.726 E4.7946
G1 X259.813 Y172.409 E4.81367
G1 X260.13 Y172.092 E4.83273
G1 X259.813 Y171.775 E4.8518
G1 X259.178 Y172.409 E4.88993
G1 X259.495 Y172.726 E4.909
G1 X259.178 Y173.044 E4.92807
G1 X258.861 Y172.726 E4.94714
G1 X258.227 Y173.361 E4.98527
G1 X258.544 Y173.678 E5.00434
G1 X258.861 Y173.361 E5.0234
G1 X259.495 Y173.995 E5.06154
G1 X259.178 Y174.312 E5.08061
G1 X258.861 Y173.995 E5.09967
G1 X258.544 Y174.312 E5.11874
G1 X258.861 Y174.629 E5.13781
G1 X258.544 Y174.946 E5.15687
G1 X257.91 Y174.312 E5.19501
G1 X258.227 Y173.995 E5.21408
G1 X257.91 Y173.678 E5.23314
G1 X257.593 Y173.995 E5.25221
G1 X257.275 Y173.678 E5.27128
G1 X257.593 Y173.361 E5.29034
G1 X257.275 Y173.044 E5.30941
G1 X256.958 Y173.361 E5.32848
G1 X256.641 Y173.044 E5.34755
G1 X256.324 Y172.726 E5.36661
G1 X256.641 Y172.409 E5.38568
G1 X256.958 Y172.726 E5.40475
G1 X257.275 Y172.409 E5.42381
G1 X256.958 Y172.092 E5.44288
G1 X257.275 Y171.775 E5.46195
G1 X257.91 Y172.409 E5.50008
G1 X257.593 Y172.726 E5.51915
G1 X257.91 Y173.044 E5.53822
G1 X258.544 Y172.409 E5.57635
G1 X258.227 Y172.092 E5.59542
G1 X258.544 Y171.775 E5.61448
G1 X258.861 Y172.092 E5.63355
G1 X259.495 Y171.458 E5.67169
G1 X259.178 Y171.141 E5.69075
G1 X258.861 Y171.458 E5.70982
G1 X258.544 Y171.141 E5.72889
G1 X258.861 Y170.824 E5.74795
G1 X258.544 Y170.507 E5.76702
G1 X257.91 Y171.141 E5.80516
G1 X258.227 Y171.458 E5.82422
G1 X257.91 Y171.775 E5.84329
G1 X256.958 Y170.824 E5.90049
G1 X257.275 Y170.507 E5.91956
G1 X257.593 Y170.824 E5.93863
G1 X258.227 Y170.189 E5.97676
G1 X257.91 Y169.872 E5.99583
G1 X257.593 Y170.189 E6.01489
G1 X257.275 Y169.872 E6.03396
G1 X257.593 Y169.555 E6.05303
G1 X257.275 Y169.238 E6.0721
G1 X256.641 Y169.872 E6.11023
G1 X256.958 Y170.189 E6.1293
G1 X256.641 Y170.507 E6.14836
G1 X256.324 Y170.189 E6.16743
G1 X255.69 Y170.824 E6.20557
G1 X256.007 Y171.141 E6.22463
G1 X256.324 Y170.824 E6.2437
G1 X256.958 Y171.458 E6.28183
G1 X256.641 Y171.775 E6.3009
G1 X256.324 Y171.458 E6.31997
G1 X256.007 Y171.775 E6.33904
G1 X256.324 Y172.092 E6.3581
G1 X256.007 Y172.409 E6.37717
G1 X255.69 Y172.092 E6.39624
G1 X255.373 Y171.775 E6.4153
G1 X255.69 Y171.458 E6.43437
G1 X255.373 Y171.141 E6.45344
G1 X254.738 Y171.775 E6.49157
G1 X255.056 Y172.092 E6.51064
G1 X254.738 Y172.409 E6.52971
G1 X254.421 Y172.092 E6.54877
G1 X253.787 Y172.726 E6.58691
G1 X254.104 Y173.044 E6.60598
G1 X254.421 Y172.726 E6.62504
G1 X254.738 Y173.044 E6.64411
G1 X254.421 Y173.361 E6.66318
G1 X254.738 Y173.678 E6.68224
G1 X255.373 Y173.044 E6.72038
G1 X255.056 Y172.726 E6.73945
G1 X255.373 Y172.409 E6.75851
G1 X256.007 Y173.044 E6.79665
G1 X255.69 Y173.361 E6.81571
G1 X256.007 Y173.678 E6.83478
G1 X256.324 Y173.361 E6.85385
G1 X256.958 Y173.995 E6.89198
G1 X256.641 Y174.312 E6.91105
G1 X256.324 Y173.995 E6.93012
