; HEADER_BLOCK_START
; generated by AnycubicSlicerNext 1.1.1 on 2026-01-01 at 18:18:41
; total layer number: 50
; filament_density: 1.24
; filament_diameter: 1.75
; max_z_height: 10.04
; HEADER_BLOCK_END

; THUMBNAIL_BLOCK_START

;
; THUMBNAIL_BLOCK_END

; external perimeters extrusion width = 0.42mm
; perimeters extrusion width = 0.45mm
; infill extrusion width = 0.45mm
; solid infill extrusion width = 0.42mm
; top infill extrusion width = 0.42mm
; first layer extrusion width = 0.50mm

; EXECUTABLE_BLOCK_START
;TYPE:Custom
G90 ; use absolute coordinates
M83 ; extruder relative mode
M140 S60 ; set bed temp
M190 S60 ; wait for bed temp
M104 S220 ; set extruder temp
M109 S220 ; wait for extruder temp
G28                                        ; move X/Y/Z to min endstops
G1 Z0.28                                   ; lift nozzle a bit 
G92 E0 
G1 Y3 F2400                                    ; zero the extruded length 
G1 X180  E40 F500                       ; Extrude 25mm of filament in a 5cm line. 
G92 E0                                     ; zero the extruded length again 
G1 E-2 F3000                                ; Retract a little 
G1 X181 F4000                              ; Quickly wipe away from the filament line
M117
M900 K0.07
G90
G21
M82 ; use absolute distances for extrusion
G92 E0
; filament start gcode
M106 S0
;LAYER_CHANGE
;Z:0.24
;HEIGHT:0.24
G1 E-1.5 F1800
G92 E0
; layer num/total_layer_count: 1/50
; update layer progress
M991 S0 P0 ;notify layer change
;_SET_FAN_SPEED_CHANGING_LAYER
SET_VELOCITY_LIMIT ACCEL=5000 ACCEL_TO_DECEL=2500
; printing object Außenring - Vorlage.stl id:2467261349788793141 copy 0
G1 X265.237 Y274.036 F18000
G1 Z.24
G1 E1.5 F1800
;TYPE:Inner wall
;WIDTH:0.5
G1 F3000
G1 X263.66 Y275.385 E1.58821
G1 X262.024 Y276.672 E1.67671
G1 X260.367 Y277.912 E1.7647
G1 X258.7 Y279.138 E1.85267
G1 X256.993 Y280.33 E1.94118
G1 X255.238 Y281.45 E2.02968
G1 X253.468 Y282.522 E2.11765
G1 X251.688 Y283.578 E2.20565
G1 X249.873 Y284.597 E2.29415
G1 X248.017 Y285.541 E2.38265
G1 X246.15 Y286.433 E2.47063
G1 X244.276 Y287.31 E2.55861
G1 X242.369 Y288.146 E2.64712
G1 X240.43 Y288.903 E2.73561
G1 X238.484 Y289.608 E2.8236
G1 X236.533 Y290.298 E2.91158
G1 X234.554 Y290.942 E3.00008
G1 X232.55 Y291.506 E3.08858
G1 X230.544 Y292.017 E3.17657
G1 X228.535 Y292.512 E3.26455
G1 X226.502 Y292.959 E3.35305
G1 X224.452 Y293.324 E3.44155
G1 X222.406 Y293.636 E3.52952
G1 X220.358 Y293.931 E3.61752
G1 X218.291 Y294.177 E3.70602
G1 X216.215 Y294.339 E3.79452
G1 X214.149 Y294.449 E3.88251
G1 X212.081 Y294.542 E3.97048
G1 X210 Y294.585 E4.05899
G1 X207.919 Y294.542 E4.14749
G1 X205.851 Y294.449 E4.23547
G1 X203.785 Y294.339 E4.32345
G1 X201.709 Y294.177 E4.41195
G1 X199.642 Y293.931 E4.50046
G1 X197.594 Y293.636 E4.58844
G1 X195.548 Y293.324 E4.67642
G1 X193.498 Y292.959 E4.76492
G1 X191.465 Y292.512 E4.85342
G1 X189.456 Y292.017 E4.9414
G1 X187.45 Y291.506 E5.02939
G1 X185.446 Y290.942 E5.11789
G1 X183.467 Y290.298 E5.20639
G1 X181.516 Y289.608 E5.29437
G1 X179.57 Y288.903 E5.38236
G1 X177.631 Y288.146 E5.47085
G1 X175.724 Y287.31 E5.55936
G1 X173.85 Y286.433 E5.64734
G1 X171.983 Y285.541 E5.73532
G1 X170.127 Y284.597 E5.82383
G1 X168.312 Y283.578 E5.91232
G1 X166.532 Y282.522 E6.00031
G1 X164.762 Y281.45 E6.08829
G1 X163.007 Y280.33 E6.17679
G1 X161.3 Y279.138 E6.26529
G1 X159.633 Y277.912 E6.35327
G1 X157.976 Y276.672 E6.44126
G1 X156.34 Y275.385 E6.52976
G1 X154.758 Y274.032 E6.61826
G1 X153.219 Y272.648 E6.70625
G1 X151.692 Y271.252 E6.79422
G1 X150.19 Y269.81 E6.88273
G1 X148.748 Y268.309 E6.97123
G1 X147.352 Y266.781 E7.05921
G1 X145.969 Y265.242 E7.14719
G1 X144.615 Y263.66 E7.2357
G1 X143.328 Y262.024 E7.3242
G1 X142.088 Y260.367 E7.41219
G1 X140.862 Y258.7 E7.50016
G1 X139.67 Y256.993 E7.58866
G1 X138.55 Y255.238 E7.67717
G1 X137.478 Y253.468 E7.76514
G1 X136.422 Y251.688 E7.85313
G1 X135.403 Y249.873 E7.94163
G1 X134.459 Y248.017 E8.03013
G1 X133.567 Y246.15 E8.11812
G1 X132.69 Y244.276 E8.2061
G1 X131.854 Y242.369 E8.2946
G1 X131.097 Y240.43 E8.3831
G1 X130.392 Y238.484 E8.47108
G1 X129.702 Y236.533 E8.55906
G1 X129.058 Y234.554 E8.64757
G1 X128.494 Y232.55 E8.73606
G1 X127.983 Y230.544 E8.82406
G1 X127.488 Y228.535 E8.91203
G1 X127.041 Y226.502 E9.00053
G1 X126.676 Y224.452 E9.08904
G1 X126.364 Y222.406 E9.17701
G1 X126.069 Y220.358 E9.265
G1 X125.823 Y218.291 E9.3535
G1 X125.661 Y216.215 E9.44201
G1 X125.551 Y214.149 E9.52999
G1 X125.458 Y212.081 E9.61797
G1 X125.415 Y210 E9.70647
G1 X125.458 Y207.919 E9.79497
G1 X125.551 Y205.851 E9.88295
G1 X125.661 Y203.785 E9.97093
G1 X125.823 Y201.709 E10.05944
G1 X126.069 Y199.642 E10.14794
G1 X126.364 Y197.594 E10.23593
G1 X126.676 Y195.548 E10.3239
G1 X127.041 Y193.498 E10.41241
G1 X127.488 Y191.465 E10.5009
G1 X127.983 Y189.456 E10.58889
G1 X128.494 Y187.45 E10.67687
G1 X129.058 Y185.446 E10.76537
G1 X129.702 Y183.467 E10.85387
G1 X130.392 Y181.516 E10.94186
G1 X131.097 Y179.57 E11.02984
G1 X131.854 Y177.631 E11.11834
G1 X132.69 Y175.724 E11.20684
G1 X133.567 Y173.85 E11.29482
G1 X134.459 Y171.983 E11.3828
G1 X135.403 Y170.127 E11.47131
G1 X136.422 Y168.312 E11.55981
G1 X137.478 Y166.532 E11.64779
G1 X138.55 Y164.762 E11.73577
G1 X139.67 Y163.007 E11.82428
G1 X140.862 Y161.3 E11.91278
G1 X142.088 Y159.633 E12.00075
G1 X143.328 Y157.976 E12.08874
G1 X144.615 Y156.34 E12.17724
G1 X145.968 Y154.758 E12.26574
G1 X147.352 Y153.219 E12.35373
G1 X148.748 Y151.692 E12.44171
G1 X150.19 Y150.19 E12.53021
G1 X151.691 Y148.748 E12.61871
G1 X153.219 Y147.352 E12.7067
G1 X154.758 Y145.969 E12.79468
G1 X156.34 Y144.615 E12.88318
G1 X157.976 Y143.328 E12.97168
G1 X159.633 Y142.088 E13.05967
G1 X161.3 Y140.862 E13.14764
G1 X163.007 Y139.67 E13.23615
G1 X164.762 Y138.55 E13.32465
G1 X166.532 Y137.479 E13.41262
G1 X168.312 Y136.422 E13.50061
G1 X170.127 Y135.403 E13.58911
G1 X171.983 Y134.459 E13.67761
G1 X173.85 Y133.567 E13.7656
G1 X175.724 Y132.69 E13.85358
G1 X177.631 Y131.854 E13.94208
G1 X179.57 Y131.097 E14.03058
G1 X181.516 Y130.392 E14.11857
G1 X183.467 Y129.702 E14.20654
G1 X185.446 Y129.058 E14.29505
G1 X187.45 Y128.494 E14.38355
G1 X189.456 Y127.983 E14.47154
G1 X191.465 Y127.488 E14.55951
G1 X193.498 Y127.041 E14.64802
G1 X195.548 Y126.676 E14.73652
G1 X197.594 Y126.364 E14.82449
G1 X199.642 Y126.069 E14.91248
G1 X201.709 Y125.823 E15.00098
G1 X203.785 Y125.661 E15.08949
G1 X205.851 Y125.551 E15.17747
G1 X207.919 Y125.458 E15.26545
G1 X209.558 Y125.424 E15.33514
G1 X210 Y125.415 E15.35395
G1 X212.081 Y125.458 E15.44246
G1 X214.149 Y125.551 E15.53043
G1 X216.215 Y125.661 E15.61842
G1 X218.291 Y125.823 E15.70692
G1 X220.358 Y126.069 E15.79542
G1 X222.406 Y126.364 E15.88341
G1 X224.452 Y126.676 E15.97138
G1 X226.502 Y127.041 E16.05989
G1 X228.535 Y127.488 E16.14839
G1 X230.544 Y127.983 E16.23637
G1 X232.55 Y128.494 E16.32436
G1 X234.554 Y129.058 E16.41285
G1 X236.533 Y129.702 E16.50136
G1 X238.484 Y130.392 E16.58934
G1 X240.43 Y131.097 E16.67732
G1 X242.369 Y131.854 E16.76582
G1 X244.276 Y132.69 E16.85433
G1 X246.15 Y133.567 E16.9423
G1 X248.017 Y134.459 E17.03029
G1 X249.873 Y135.403 E17.11879
G1 X251.688 Y136.422 E17.20729
G1 X253.468 Y137.478 E17.29527
G1 X255.238 Y138.55 E17.38325
G1 X256.993 Y139.67 E17.47176
G1 X258.7 Y140.862 E17.56026
G1 X260.367 Y142.088 E17.64824
G1 X262.024 Y143.328 E17.73622
G1 X263.66 Y144.615 E17.82473
G1 X265.242 Y145.968 E17.91323
G1 X266.781 Y147.352 E18.00122
G1 X268.308 Y148.748 E18.08919
G1 X269.81 Y150.19 E18.17769
G1 X271.252 Y151.691 E18.26619
G1 X272.648 Y153.219 E18.35418
G1 X274.031 Y154.758 E18.44216
G1 X275.385 Y156.34 E18.53066
G1 X276.672 Y157.976 E18.61916
G1 X277.912 Y159.633 E18.70715
G1 X279.138 Y161.3 E18.79512
G1 X280.33 Y163.007 E18.88363
G1 X281.45 Y164.762 E18.97213
G1 X282.521 Y166.532 E19.0601
G1 X283.578 Y168.312 E19.1481
G1 X284.597 Y170.127 E19.2366
G1 X285.541 Y171.983 E19.3251
G1 X286.433 Y173.85 E19.41308
G1 X287.31 Y175.724 E19.50106
G1 X288.146 Y177.631 E19.58957
G1 X288.903 Y179.57 E19.67806
G1 X289.608 Y181.516 E19.76605
G1 X290.298 Y183.467 E19.85403
G1 X290.942 Y185.446 E19.94253
G1 X291.506 Y187.45 E20.03103
G1 X292.017 Y189.456 E20.11902
G1 X292.512 Y191.465 E20.207
G1 X292.959 Y193.498 E20.2955
G1 X293.324 Y195.548 E20.384
G1 X293.636 Y197.594 E20.47197
G1 X293.931 Y199.642 E20.55996
G1 X294.177 Y201.709 E20.64847
G1 X294.339 Y203.785 E20.73697
G1 X294.449 Y205.851 E20.82496
G1 X294.542 Y207.919 E20.91293
G1 X294.585 Y210 E21.00144
G1 X294.542 Y212.081 E21.08994
G1 X294.449 Y214.149 E21.17792
G1 X294.339 Y216.215 E21.2659
G1 X294.177 Y218.291 E21.3544
G1 X293.931 Y220.358 E21.44291
G1 X293.636 Y222.406 E21.53089
G1 X293.324 Y224.452 E21.61887
G1 X292.959 Y226.502 E21.70737
G1 X292.512 Y228.535 E21.79587
G1 X292.017 Y230.544 E21.88385
G1 X291.506 Y232.55 E21.97184
G1 X290.942 Y234.554 E22.06034
G1 X290.298 Y236.533 E22.14884
G1 X289.608 Y238.484 E22.23682
G1 X288.903 Y240.43 E22.32481
G1 X288.146 Y242.369 E22.4133
G1 X287.31 Y244.276 E22.50181
G1 X286.433 Y246.15 E22.58978
G1 X285.541 Y248.017 E22.67777
G1 X284.597 Y249.873 E22.76628
G1 X283.578 Y251.688 E22.85477
G1 X282.522 Y253.468 E22.94276
G1 X281.45 Y255.238 E23.03074
G1 X280.33 Y256.993 E23.11924
G1 X279.138 Y258.7 E23.20775
G1 X277.912 Y260.367 E23.29572
G1 X276.672 Y262.024 E23.38371
G1 X275.385 Y263.66 E23.47221
G1 X274.032 Y265.242 E23.56071
G1 X272.648 Y266.781 E23.6487
G1 X271.252 Y268.308 E23.73667
G1 X269.81 Y269.81 E23.82518
G1 X268.309 Y271.252 E23.91368
G1 X266.781 Y272.648 E24.00166
G1 X265.242 Y274.031 E24.08964
G1 X265.237 Y274.036 E24.08993
G1 X264.945 Y273.695 F18000
;TYPE:Outer wall
G1 F3000
G1 X263.375 Y275.038 E24.17775
G1 X261.751 Y276.316 E24.26563
G1 X260.1 Y277.552 E24.35331
G1 X258.438 Y278.773 E24.44097
G1 X256.743 Y279.957 E24.52885
G1 X255.002 Y281.07 E24.61673
G1 X253.237 Y282.137 E24.70439
G1 X251.464 Y283.19 E24.79207
G1 X249.661 Y284.201 E24.87994
G1 X247.819 Y285.138 E24.96782
G1 X245.958 Y286.028 E25.05549
G1 X244.091 Y286.902 E25.14316
G1 X242.197 Y287.732 E25.23104
G1 X240.272 Y288.483 E25.31892
G1 X238.333 Y289.186 E25.40659
G1 X236.389 Y289.873 E25.49426
G1 X234.423 Y290.513 E25.58214
G1 X232.434 Y291.073 E25.67001
G1 X230.435 Y291.582 E25.75769
G1 X228.433 Y292.075 E25.84535
G1 X226.414 Y292.519 E25.93323
G1 X224.379 Y292.881 E26.02111
G1 X222.34 Y293.192 E26.10877
G1 X220.299 Y293.486 E26.19645
G1 X218.247 Y293.731 E26.28433
G1 X216.186 Y293.891 E26.37221
G1 X214.127 Y294.001 E26.45988
G1 X212.067 Y294.094 E26.54754
G1 X210 Y294.136 E26.63542
G1 X207.933 Y294.094 E26.7233
G1 X205.873 Y294.001 E26.81097
G1 X203.814 Y293.891 E26.89864
G1 X201.753 Y293.731 E26.98652
G1 X199.701 Y293.486 E27.0744
G1 X197.66 Y293.192 E27.16207
G1 X195.621 Y292.881 E27.24974
G1 X193.586 Y292.519 E27.33762
G1 X191.567 Y292.075 E27.42549
G1 X189.565 Y291.582 E27.51316
G1 X187.566 Y291.073 E27.60083
G1 X185.577 Y290.513 E27.68871
G1 X183.611 Y289.873 E27.77659
G1 X181.667 Y289.186 E27.86426
G1 X179.728 Y288.483 E27.95193
G1 X177.803 Y287.732 E28.03981
G1 X175.909 Y286.902 E28.12768
G1 X174.042 Y286.028 E28.21535
G1 X172.181 Y285.138 E28.30302
G1 X170.339 Y284.201 E28.3909
G1 X168.536 Y283.19 E28.47878
G1 X166.763 Y282.137 E28.56645
G1 X164.998 Y281.07 E28.65412
G1 X163.256 Y279.957 E28.742
G1 X161.562 Y278.773 E28.82988
G1 X159.9 Y277.552 E28.91754
G1 X158.249 Y276.316 E29.00521
G1 X156.625 Y275.038 E29.09309
G1 X155.054 Y273.694 E29.18097
G1 X153.52 Y272.316 E29.26864
G1 X151.998 Y270.925 E29.35631
G1 X150.507 Y269.493 E29.44419
G1 X149.075 Y268.002 E29.53207
G1 X147.684 Y266.48 E29.61974
G1 X146.306 Y264.946 E29.70741
G1 X144.962 Y263.375 E29.79528
G1 X143.684 Y261.751 E29.88316
G1 X142.448 Y260.1 E29.97084
G1 X141.227 Y258.438 E30.0585
G1 X140.043 Y256.743 E30.14638
G1 X138.93 Y255.002 E30.23426
G1 X137.863 Y253.237 E30.32192
G1 X136.81 Y251.464 E30.4096
G1 X135.799 Y249.661 E30.49747
G1 X134.862 Y247.819 E30.58535
G1 X133.972 Y245.958 E30.67302
G1 X133.098 Y244.091 E30.76069
G1 X132.268 Y242.197 E30.84857
G1 X131.517 Y240.272 E30.93645
G1 X130.814 Y238.333 E31.02412
G1 X130.127 Y236.389 E31.11179
G1 X129.487 Y234.423 E31.19967
G1 X128.927 Y232.434 E31.28754
G1 X128.418 Y230.435 E31.37522
G1 X127.925 Y228.433 E31.46288
G1 X127.481 Y226.414 E31.55076
G1 X127.119 Y224.379 E31.63864
G1 X126.808 Y222.34 E31.7263
G1 X126.514 Y220.299 E31.81398
G1 X126.269 Y218.247 E31.90186
G1 X126.109 Y216.186 E31.98974
G1 X125.999 Y214.127 E32.07741
G1 X125.906 Y212.067 E32.16507
G1 X125.864 Y210 E32.25295
G1 X125.906 Y207.933 E32.34083
G1 X125.999 Y205.873 E32.4285
G1 X126.109 Y203.814 E32.51617
G1 X126.269 Y201.753 E32.60405
G1 X126.514 Y199.701 E32.69193
G1 X126.808 Y197.66 E32.7796
G1 X127.119 Y195.621 E32.86727
G1 X127.481 Y193.586 E32.95515
G1 X127.925 Y191.567 E33.04302
G1 X128.418 Y189.565 E33.13069
G1 X128.927 Y187.566 E33.21836
G1 X129.487 Y185.577 E33.30624
G1 X130.127 Y183.611 E33.39412
G1 X130.814 Y181.667 E33.48179
G1 X131.517 Y179.728 E33.56946
G1 X132.268 Y177.803 E33.65734
G1 X133.098 Y175.909 E33.74521
G1 X133.972 Y174.042 E33.83288
G1 X134.862 Y172.181 E33.92055
G1 X135.799 Y170.339 E34.00843
G1 X136.81 Y168.536 E34.09631
G1 X137.863 Y166.763 E34.18398
G1 X138.93 Y164.998 E34.27165
G1 X140.043 Y163.256 E34.35953
G1 X141.227 Y161.562 E34.44741
G1 X142.448 Y159.9 E34.53507
G1 X143.684 Y158.249 E34.62274
G1 X144.962 Y156.625 E34.71062
G1 X146.306 Y155.054 E34.7985
G1 X147.684 Y153.52 E34.88618
G1 X149.075 Y151.998 E34.97384
G1 X150.507 Y150.507 E35.06172
G1 X151.998 Y149.075 E35.1496
G1 X153.52 Y147.684 E35.23727
G1 X155.054 Y146.306 E35.32494
G1 X156.625 Y144.962 E35.41281
G1 X158.249 Y143.684 E35.50069
G1 X159.9 Y142.448 E35.58837
G1 X161.562 Y141.227 E35.67603
G1 X163.257 Y140.043 E35.76391
G1 X164.998 Y138.93 E35.85179
G1 X166.763 Y137.863 E35.93945
G1 X168.536 Y136.81 E36.02713
G1 X170.339 Y135.799 E36.115
G1 X172.181 Y134.862 E36.20288
G1 X174.042 Y133.972 E36.29056
G1 X175.909 Y133.098 E36.37822
G1 X177.803 Y132.268 E36.4661
G1 X179.728 Y131.517 E36.55398
G1 X181.667 Y130.814 E36.64165
G1 X183.611 Y130.127 E36.72932
G1 X185.577 Y129.487 E36.8172
G1 X187.566 Y128.927 E36.90507
G1 X189.565 Y128.418 E36.99275
G1 X191.567 Y127.925 E37.08041
G1 X193.586 Y127.481 E37.16829
G1 X195.621 Y127.119 E37.25617
G1 X197.66 Y126.808 E37.34383
G1 X199.701 Y126.514 E37.43151
G1 X201.753 Y126.269 E37.51939
G1 X203.814 Y126.109 E37.60727
G1 X205.873 Y125.999 E37.69494
G1 X207.933 Y125.906 E37.7826
G1 X209.567 Y125.873 E37.85206
G1 X210 Y125.864 E37.87048
G1 X212.067 Y125.906 E37.95836
G1 X214.127 Y125.999 E38.04603
G1 X216.186 Y126.109 E38.1337
G1 X218.247 Y126.269 E38.22158
G1 X220.299 Y126.514 E38.30946
G1 X222.34 Y126.808 E38.39713
G1 X224.379 Y127.119 E38.4848
G1 X226.414 Y127.481 E38.57268
G1 X228.433 Y127.925 E38.66055
G1 X230.435 Y128.418 E38.74822
G1 X232.434 Y128.927 E38.83589
G1 X234.423 Y129.487 E38.92377
G1 X236.389 Y130.127 E39.01165
G1 X238.333 Y130.814 E39.09932
G1 X240.272 Y131.517 E39.18699
G1 X242.197 Y132.268 E39.27487
G1 X244.091 Y133.098 E39.36275
G1 X245.958 Y133.972 E39.45041
G1 X247.819 Y134.862 E39.53808
G1 X249.661 Y135.799 E39.62596
G1 X251.464 Y136.81 E39.71384
G1 X253.237 Y137.863 E39.80151
G1 X255.002 Y138.93 E39.88918
G1 X256.743 Y140.043 E39.97706
G1 X258.438 Y141.227 E40.06494
G1 X260.1 Y142.448 E40.1526
G1 X261.751 Y143.684 E40.24027
G1 X263.375 Y144.962 E40.32815
G1 X264.946 Y146.306 E40.41603
G1 X266.48 Y147.684 E40.50371
G1 X268.002 Y149.075 E40.59137
G1 X269.493 Y150.507 E40.67925
G1 X270.925 Y151.998 E40.76713
G1 X272.316 Y153.52 E40.8548
G1 X273.694 Y155.054 E40.94247
G1 X275.038 Y156.625 E41.03034
G1 X276.316 Y158.249 E41.11822
G1 X277.552 Y159.9 E41.2059
G1 X278.773 Y161.562 E41.29356
G1 X279.957 Y163.257 E41.38144
G1 X281.07 Y164.998 E41.46932
G1 X282.137 Y166.763 E41.55698
G1 X283.19 Y168.536 E41.64466
G1 X284.201 Y170.339 E41.73253
G1 X285.138 Y172.181 E41.82041
G1 X286.028 Y174.042 E41.90809
G1 X286.902 Y175.909 E41.99575
G1 X287.732 Y177.803 E42.08363
G1 X288.483 Y179.728 E42.17151
G1 X289.186 Y181.667 E42.25918
G1 X289.873 Y183.611 E42.34685
G1 X290.513 Y185.577 E42.43473
