; HEADER_BLOCK_START
; generated by AnycubicSlicerNext 1.1.1 on 2026-01-01 at 18:34:27
; total layer number: 7
; filament_density: 1.24
; filament_diameter: 1.75
; max_z_height: 1.44
; HEADER_BLOCK_END

; THUMBNAIL_BLOCK_START

;
; THUMBNAIL_BLOCK_END

; external perimeters extrusion width = 0.42mm
; perimeters extrusion width = 0.45mm
; infill extrusion width = 0.45mm
; solid infill extrusion width = 0.42mm
; top infill extrusion width = 0.42mm
; first layer extrusion width = 0.50mm

; EXECUTABLE_BLOCK_START
;TYPE:Custom
G90 ; use absolute coordinates
M83 ; extruder relative mode
M140 S60 ; set bed temp
M190 S60 ; wait for bed temp
M104 S220 ; set extruder temp
M109 S220 ; wait for extruder temp
G28                                        ; move X/Y/Z to min endstops
G1 Z0.28                                   ; lift nozzle a bit 
G92 E0 
G1 Y3 F2400                                    ; zero the extruded length 
G1 X180  E40 F500                       ; Extrude 25mm of filament in a 5cm line. 
G92 E0                                     ; zero the extruded length again 
G1 E-2 F3000                                ; Retract a little 
G1 X181 F4000                              ; Quickly wipe away from the filament line
M117
M900 K0.07
G90
G21
M82 ; use absolute distances for extrusion
G92 E0
; filament start gcode
M106 S0
;LAYER_CHANGE
;Z:0.24
;HEIGHT:0.24
G1 E-1.5 F1800
G92 E0
; layer num/total_layer_count: 1/7
; update layer progress
M991 S0 P0 ;notify layer change
;_SET_FAN_SPEED_CHANGING_LAYER
SET_VELOCITY_LIMIT ACCEL=5000 ACCEL_TO_DECEL=2500
; printing object Einschub - Balken.stl id:18126922855907082409 copy 0
G1 X194.86 Y271.851 F18000
G1 Z.24
G1 E1.5 F1800
;TYPE:Inner wall
;WIDTH:0.5
G1 F3000
G1 X194.412 Y271.851 E1.51907
G1 X194.412 Y148.149 E6.77808
G1 X225.588 Y148.149 E8.10352
G1 X225.588 Y271.851 E13.36253
G1 X194.86 Y271.851 E14.6689
G1 X194.86 Y271.403 F18000
;TYPE:Outer wall
G1 F3000
G1 X194.86 Y148.597 E19.88978
G1 X225.14 Y148.597 E21.17708
G1 X225.14 Y271.403 E26.39796
G1 X194.86 Y271.403 E27.68526
G1 E26.78526 F1800
;WIPE_START
G1 F3000
G1 X194.86 Y270.403 E26.18526
;WIPE_END
G92 E0
G1 X226.319 Y292.043 F18000
G1 E1.5 F1800
;TYPE:Inner wall
G1 F3000
G1 X218.199 Y293.248 E1.849
G1 X210 Y293.65 E2.19799
G1 X201.801 Y293.248 E2.54699
G1 X193.681 Y292.043 E2.89599
G1 X185.718 Y290.049 E3.24498
G1 X177.988 Y287.283 E3.59398
G1 X170.567 Y283.773 E3.94297
G1 X163.526 Y279.553 E4.29197
G1 X156.933 Y274.663 E4.64097
G1 X150.85 Y269.15 E4.98996
G1 X145.337 Y263.067 E5.33896
G1 X140.447 Y256.474 E5.68796
G1 X136.227 Y249.433 E6.03695
G1 X132.717 Y242.012 E6.38595
G1 X129.951 Y234.282 E6.73495
G1 X127.957 Y226.319 E7.08394
G1 X126.752 Y218.199 E7.43294
G1 X126.35 Y210 E7.78193
G1 X126.752 Y201.801 E8.13093
G1 X127.957 Y193.681 E8.47993
G1 X129.951 Y185.718 E8.82892
G1 X132.717 Y177.988 E9.17792
G1 X136.227 Y170.567 E9.52692
G1 X140.447 Y163.526 E9.87591
G1 X145.337 Y156.933 E10.22491
G1 X150.85 Y150.85 E10.57391
G1 X156.933 Y145.337 E10.9229
G1 X163.526 Y140.447 E11.2719
G1 X170.567 Y136.227 E11.6209
G1 X177.988 Y132.717 E11.96989
G1 X185.718 Y129.951 E12.31889
G1 X193.681 Y127.957 E12.66788
G1 X201.801 Y126.752 E13.01688
G1 X210 Y126.35 E13.36588
G1 X211.449 Y126.421 E13.42756
G1 X218.199 Y126.752 E13.71487
G1 X226.319 Y127.957 E14.06387
G1 X234.282 Y129.951 E14.41287
G1 X242.012 Y132.717 E14.76186
G1 X249.433 Y136.227 E15.11086
G1 X256.474 Y140.447 E15.45986
G1 X263.067 Y145.337 E15.80885
G1 X269.15 Y150.85 E16.15785
G1 X274.663 Y156.933 E16.50684
G1 X279.553 Y163.526 E16.85584
G1 X283.773 Y170.567 E17.20484
G1 X287.283 Y177.988 E17.55383
G1 X290.049 Y185.718 E17.90283
G1 X292.043 Y193.681 E18.25183
G1 X293.248 Y201.801 E18.60082
G1 X293.65 Y210 E18.94982
G1 X293.248 Y218.199 E19.29882
G1 X292.043 Y226.319 E19.64781
G1 X290.049 Y234.282 E19.99681
G1 X287.283 Y242.012 E20.34581
G1 X283.773 Y249.433 E20.6948
G1 X279.553 Y256.474 E21.0438
G1 X274.663 Y263.067 E21.39279
G1 X269.15 Y269.15 E21.74179
G1 X263.067 Y274.663 E22.09079
G1 X256.474 Y279.553 E22.43978
G1 X249.433 Y283.773 E22.78878
G1 X242.012 Y287.283 E23.13778
G1 X234.282 Y290.049 E23.48677
G1 X226.319 Y292.043 E23.83577
G1 X226.407 Y292.484 F18000
;TYPE:Outer wall
G1 F3000
G1 X218.243 Y293.695 E24.18664
G1 X210 Y294.1 E24.53751
G1 X201.757 Y293.695 E24.88838
G1 X193.593 Y292.484 E25.23925
G1 X185.587 Y290.478 E25.59012
G1 X177.816 Y287.698 E25.94099
G1 X170.356 Y284.169 E26.29186
G1 X163.277 Y279.926 E26.64273
G1 X156.648 Y275.01 E26.9936
G1 X150.533 Y269.467 E27.34447
G1 X144.99 Y263.352 E27.69534
G1 X140.074 Y256.723 E28.04621
G1 X135.831 Y249.644 E28.39708
G1 X132.302 Y242.184 E28.74794
G1 X129.522 Y234.413 E29.09882
G1 X127.516 Y226.407 E29.44969
G1 X126.305 Y218.243 E29.80055
G1 X125.9 Y210 E30.15142
G1 X126.305 Y201.757 E30.50229
G1 X127.516 Y193.593 E30.85316
G1 X129.522 Y185.587 E31.20403
G1 X132.302 Y177.816 E31.5549
G1 X135.831 Y170.356 E31.90577
G1 X140.074 Y163.277 E32.25664
G1 X144.99 Y156.648 E32.60751
G1 X150.533 Y150.533 E32.95838
G1 X156.648 Y144.99 E33.30925
G1 X163.277 Y140.074 E33.66012
G1 X170.356 Y135.831 E34.01099
G1 X177.816 Y132.302 E34.36186
G1 X185.587 Y129.522 E34.71273
G1 X193.593 Y127.516 E35.0636
G1 X201.757 Y126.305 E35.41447
G1 X210 Y125.9 E35.76534
G1 X211.471 Y125.973 E35.82796
G1 X218.243 Y126.305 E36.11621
G1 X226.407 Y127.516 E36.46708
G1 X234.413 Y129.522 E36.81795
G1 X242.184 Y132.302 E37.16882
G1 X249.644 Y135.831 E37.51969
G1 X256.723 Y140.074 E37.87056
G1 X263.352 Y144.99 E38.22143
G1 X269.467 Y150.533 E38.5723
G1 X275.01 Y156.648 E38.92317
G1 X279.926 Y163.277 E39.27404
G1 X284.169 Y170.356 E39.62491
G1 X287.698 Y177.816 E39.97578
G1 X290.478 Y185.587 E40.32665
G1 X292.484 Y193.593 E40.67752
G1 X293.695 Y201.757 E41.02839
G1 X294.1 Y210 E41.37926
G1 X293.695 Y218.243 E41.73013
G1 X292.484 Y226.407 E42.081
G1 X290.478 Y234.413 E42.43187
G1 X287.698 Y242.184 E42.78274
G1 X284.169 Y249.644 E43.13361
G1 X279.926 Y256.723 E43.48448
G1 X275.01 Y263.352 E43.83535
G1 X269.467 Y269.467 E44.18622
G1 X263.352 Y275.01 E44.53709
G1 X256.723 Y279.926 E44.88796
G1 X249.644 Y284.169 E45.23883
G1 X242.184 Y287.698 E45.5897
G1 X234.413 Y290.478 E45.94057
G1 X226.407 Y292.484 E46.29144
G1 E45.39144 F1800
;WIPE_START
G1 F3000
G1 X225.418 Y292.63 E44.79144
;WIPE_END
G92 E0
G1 X225.974 Y291.723 F18000
G1 E1.5 F1800
;TYPE:Gap infill
;WIDTH:0.317037
G1 F3000
G1 X224.573 Y291.952 E1.53573
;WIDTH:0.275119
G1 X223.177 Y292.18 E1.56571
;WIDTH:0.260436
G1 X220.371 Y292.59 E1.62187
;WIDTH:0.314934
G1 X218.162 Y292.874 E1.67749
G1 X217.562 Y292.922 E1.69253
;WIDTH:0.298248
G1 X216.146 Y293.01 E1.72571
;WIDTH:0.261878
G1 X214.734 Y293.097 E1.75392
;WIDTH:0.255449
G1 X211.909 Y293.224 E1.8086
;WIDTH:0.287419
G1 X210.952 Y293.251 E1.82999
;WIDTH:0.327833
G1 X210 Y293.278 E1.85495
;WIDTH:0.335103
G1 X209.538 Y293.268 E1.86737
;WIDTH:0.309308
G1 X209.076 Y293.258 E1.87866
;WIDTH:0.280864
G1 X207.657 Y293.204 E1.90954
;WIDTH:0.249957
G1 X206.241 Y293.15 E1.93619
;WIDTH:0.251803
G1 X203.413 Y292.993 E1.98996
;WIDTH:0.311491
G1 X201.837 Y292.879 E2.02891
G1 X201.217 Y292.804 E2.0443
;WIDTH:0.293617
G1 X200.597 Y292.728 E2.05864
;WIDTH:0.264635
G1 X199.192 Y292.533 E2.0873
;WIDTH:0.23927
G1 X197.791 Y292.338 E2.11247
;WIDTH:0.249409
G1 X194.989 Y291.899 E2.16567
;WIDTH:0.308654
G1 X193.752 Y291.684 E2.19628
G1 X192.984 Y291.511 E2.21547
;WIDTH:0.278581
G1 X192.216 Y291.338 E2.23241
;WIDTH:0.237884
G1 X189.464 Y290.669 E2.28246
G1 X188.09 Y290.31 E2.30754
;WIDTH:0.262518
G1 X186.72 Y289.952 E2.33587
;WIDTH:0.276782
G1 X186.716 Y289.951 E2.33595
;WIDTH:0.304008
G1 X185.823 Y289.702 E2.35815
G1 X184.92 Y289.401 E2.38092
;WIDTH:0.264096
G1 X184.018 Y289.1 E2.40009
;WIDTH:0.22969
G1 X181.346 Y288.16 E2.44794
G1 X180.019 Y287.667 E2.47185
;WIDTH:0.265288
G1 X178.694 Y287.175 E2.50048
;WIDTH:0.296806
G1 X178.125 Y286.952 E2.51469
G1 X177.109 Y286.497 E2.54058
;WIDTH:0.250363
G1 X176.093 Y286.041 E2.56156
;WIDTH:0.222802
G1 X173.529 Y284.838 E2.60756
G1 X172.258 Y284.215 E2.63054
;WIDTH:0.269408
G1 X170.989 Y283.593 E2.65973
;WIDTH:0.286222
G1 X169.63 Y282.828 E2.69444
;WIDTH:0.237299
G1 X168.526 Y282.193 E2.71687
;WIDTH:0.21702
G1 X166.095 Y280.74 E2.76131
G1 X164.906 Y280.001 E2.78327
;WIDTH:0.273948
G1 X163.719 Y279.264 E2.81272
;WIDTH:0.271035
G1 X162.534 Y278.416 E2.84304
;WIDTH:0.224442
G1 X161.386 Y277.593 E2.86621
;WIDTH:0.211003
G1 X159.112 Y275.904 E2.90903
G1 X158.131 Y275.149 E2.92775
;WIDTH:0.27182
G1 X157.152 Y274.395 E2.95355
;WIDTH:0.282426
G1 X156.875 Y274.16 E2.9615
;WIDTH:0.25074
G1 X155.811 Y273.222 E2.98829
;WIDTH:0.210287
G1 X154.749 Y272.287 E3.00959
;WIDTH:0.197792
G1 X152.653 Y270.378 E3.0489
;WIDTH:0.253259
G1 X151.093 Y268.907 E3.08991
G1 X150.62 Y268.415 E3.10296
;WIDTH:0.232517
G1 X149.654 Y267.374 E3.12733
;WIDTH:0.197475
G1 X148.689 Y266.336 E3.14694
;WIDTH:0.193158
G1 X146.797 Y264.229 E3.18497
;WIDTH:0.226136
G1 X146.198 Y263.539 E3.20009
;WIDTH:0.265681
G1 X145.601 Y262.851 E3.21858
;WIDTH:0.271598
G1 X145.29 Y262.454 E3.22911
;WIDTH:0.243947
G1 X144.978 Y262.057 E3.23831
;WIDTH:0.215315
G1 X144.122 Y260.927 E3.26033
;WIDTH:0.185838
G1 X143.267 Y259.799 E3.27835
;WIDTH:0.189739
G1 X141.596 Y257.514 E3.31544
;WIDTH:0.249582
G1 X140.729 Y256.286 E3.34368
G1 X140.373 Y255.725 E3.35614
;WIDTH:0.228603
G1 X140.018 Y255.165 E3.36728
;WIDTH:0.187613
G1 X138.541 Y252.748 E3.40383
G1 X137.102 Y250.3 E3.44045
;WIDTH:0.246353
G1 X136.522 Y249.275 E3.46221
G1 X136.152 Y248.538 E3.47744
;WIDTH:0.213774
G1 X135.782 Y247.801 E3.49012
;WIDTH:0.174444
G1 X134.554 Y245.248 E3.52314
G1 X133.961 Y243.959 E3.53967
;WIDTH:0.201555
G1 X133.369 Y242.672 E3.55983
;WIDTH:0.24114
G1 X133.023 Y241.885 E3.57528
G1 X132.67 Y240.963 E3.59302
;WIDTH:0.199516
G1 X132.317 Y240.041 E3.60687
;WIDTH:0.166535
G1 X131.351 Y237.379 E3.63776
G1 X130.891 Y236.04 E3.65319
;WIDTH:0.204487
G1 X130.431 Y234.704 E3.67369
;WIDTH:0.233346
G1 X130.263 Y234.188 E3.68304
G1 X129.963 Y233.082 E3.70279
;WIDTH:0.186032
G1 X129.663 Y231.976 E3.7174
;WIDTH:0.159947
G1 X128.966 Y229.227 E3.74655
G1 X128.642 Y227.848 E3.76112
;WIDTH:0.208892
G1 X128.317 Y226.47 E3.78224
;WIDTH:0.221875
G1 X128.056 Y224.969 E3.80685
;WIDTH:0.173083
G1 X127.842 Y223.68 E3.8219
;WIDTH:0.154087
G1 X127.424 Y220.879 E3.84944
G1 X127.245 Y219.523 E3.86274
;WIDTH:0.211886
G1 X127.067 Y218.168 E3.88351
;WIDTH:0.230689
G1 X127.058 Y218.066 E3.88525
;WIDTH:0.204812
G1 X126.966 Y216.653 E3.90584
;WIDTH:0.15993
G1 X126.875 Y215.242 E3.92037
;WIDTH:0.140733
G1 X126.739 Y212.409 E3.94435
;WIDTH:0.165847
G1 X126.701 Y211.204 E3.95742
;WIDTH:0.20961
G1 X126.664 Y210 E3.97547
;WIDTH:0.21841
G1 X126.672 Y209.578 E3.98216
;WIDTH:0.185557
G1 X126.722 Y208.162 E4.00016
;WIDTH:0.146109
G1 X126.771 Y206.749 E4.01283
;WIDTH:0.135027
G1 X126.919 Y203.919 E4.03527
;WIDTH:0.19102
G1 X127.064 Y201.831 E4.06295
G1 X127.151 Y201.098 E4.07272
;WIDTH:0.167644
G1 X127.342 Y199.691 E4.08835
;WIDTH:0.133536
G1 X127.533 Y198.287 E4.09937
;WIDTH:0.130567
G1 X127.962 Y195.49 E4.12058
;WIDTH:0.189306
G1 X128.261 Y193.741 E4.14375
G1 X128.376 Y193.225 E4.15066
;WIDTH:0.179581
G1 X128.49 Y192.708 E4.15708
;WIDTH:0.150857
G1 X128.821 Y191.328 E4.17045
;WIDTH:0.122184
G1 X129.152 Y189.949 E4.17994
;WIDTH:0.127408
G1 X129.859 Y187.205 E4.20033
;WIDTH:0.187243
G1 X130.245 Y185.807 E4.219
G1 X130.461 Y185.153 E4.22786
;WIDTH:0.164298
G1 X130.676 Y184.499 E4.23522
;WIDTH:0.126125
G1 X131.52 Y182.08 E4.25334
G1 X131.697 Y181.584 F18000
;WIDTH:0.150372
G1 F3000
G1 X132.588 Y179.161 E4.27755
;WIDTH:0.183711
G1 X132.997 Y178.104 E4.29174
G1 X133.342 Y177.33 E4.30237
;WIDTH:0.149654
G1 X133.686 Y176.555 E4.31025
;WIDTH:0.117608
G1 X134.52 Y174.763 E4.32264
G1 E3.42264 F1800
;WIPE_START
G1 F3000
G1 X134.098 Y175.669 E2.82264
;WIPE_END
G92 E0
G1 X135.098 Y173.542 F18000
G1 E1.5 F1800
;WIDTH:0.154993
G1 F3000
G1 X136.121 Y171.436 E1.52297
;WIDTH:0.178172
G1 X136.491 Y170.708 E1.53277
G1 X136.99 Y169.834 E1.54486
;WIDTH:0.135615
G1 X137.489 Y168.959 E1.55289
;WIDTH:0.1097
G1 X138.009 Y168.082 E1.55851
G1 E.65851 F1800
;WIPE_START
G1 F3000
G1 X137.499 Y168.942 E.05851
;WIPE_END
G92 E0
G1 X139.256 Y166.001 F18000
G1 E1.5 F1800
;WIDTH:0.13307
G1 F3000
G1 X139.84 Y165.055 E1.50859
;WIDTH:0.146942
G1 X140.423 Y164.109 E1.51864
;WIDTH:0.171064
G1 X140.692 Y163.69 E1.52429
G1 X141.332 Y162.79 E1.53681
;WIDTH:0.126565
G1 X141.973 Y161.89 E1.54467
G1 E.64467 F1800
;WIPE_START
G1 F3000
G1 X141.393 Y162.704 E.04467
;WIPE_END
G92 E0
G1 X144.127 Y158.986 F18000
G1 E1.5 F1800
;WIDTH:0.13658
G1 F3000
G1 X144.787 Y158.122 E1.50877
;WIDTH:0.152207
G1 X145.448 Y157.257 E1.51916
;WIDTH:0.16257
G1 X146.261 Y156.314 E1.53227
;WIDTH:0.123789
G1 X146.963 Y155.513 E1.53957
G1 E.63957 F1800
;WIPE_START
G1 F3000
G1 X146.304 Y156.265 E.03957
;WIPE_END
G92 E0
G1 X149.656 Y152.541 F18000
G1 E1.5 F1800
;WIDTH:0.138409
G1 F3000
G1 X150.354 Y151.796 E1.5084
;WIDTH:0.154951
G1 X151.051 Y151.051 E1.51841
;WIDTH:0.150744
G1 X151.827 Y150.323 E1.52841
;WIDTH:0.119673
G1 X152.505 Y149.689 E1.53442
G1 E.59169 F1800
;WIPE_START
G1 F3000
G1 X151.827 Y150.323 E.03442
;WIPE_END
G92 E0
G1 X155.789 Y146.712 F18000
G1 E1.5 F1800
;WIDTH:0.16311
G1 F3000
G1 X157.112 Y145.556 E1.51859
G1 X157.465 Y145.277 E1.52335
;WIDTH:0.123187
G1 X158.517 Y144.475 E1.53234
G1 E.63234 F1800
;WIPE_START
G1 F3000
G1 X157.722 Y145.081 E.03234
;WIPE_END
G92 E0
G1 X162.462 Y141.548 F18000
G1 E1.5 F1800
;WIDTH:0.149825
G1 F3000
G1 X163.683 Y140.681 E1.51395
G1 X164.329 Y140.268 E1.5211
;WIDTH:0.112934
G1 X164.896 Y139.919 E1.52498
G1 E.42446 F1800
;WIPE_START
G1 F3000
G1 X164.329 Y140.268 E.02498
;WIPE_END
G92 E0
G1 X169.609 Y137.094 F18000
G1 E1.5 F1800
;WIDTH:0.151727
G1 F3000
G1 X170.699 Y136.473 E1.51192
G1 X171.16 Y136.239 E1.51684
;WIDTH:0.118909
G1 X171.622 Y136.005 E1.52014
G1 E.33057 F1800
;WIPE_START
G1 F3000
G1 X171.16 Y136.239 E.02014
;WIPE_END
G92 E0
G1 X177.156 Y133.388 F18000
G1 E1.5 F1800
;WIDTH:0.129817
G1 F3000
G1 X178.094 Y132.972 E1.50762
G1 X179.012 Y132.617 E1.51492
G1 E.61492 F1800
;WIPE_START
G1 F3000
G1 X178.094 Y132.972 E.02429
G1 X178.079 Y132.978 E.01492
;WIPE_END
G92 E0
G1 X185.029 Y130.464 F18000
G1 E1.5 F1800
;WIDTH:0.124454
G1 F3000
G1 X185.796 Y130.211 E1.50558
G1 X186.664 Y129.973 E1.5118
G1 E.6118 F1800
;WIPE_START
G1 F3000
G1 X185.796 Y130.211 E.07202
G1 X185.701 Y130.243 E.0118
;WIPE_END
G92 E0
G1 X193.149 Y128.348 F18000
G1 E1.5 F1800
;WIDTH:0.11916
G1 F3000
G1 X193.733 Y128.219 E1.50383
G1 X194.494 Y128.09 E1.50878
G1 E.60878 F1800
;WIPE_START
G1 F3000
G1 X193.733 Y128.219 E.14553
G1 X193.51 Y128.268 E.00878
;WIPE_END
G92 E0
G1 X201.435 Y127.06 F18000
G1 E1.5 F1800
;WIDTH:0.11406
G1 F3000
G1 X202.414 Y126.973 E1.50583
G1 E.59534 F1800
;WIPE_START
G1 F3000
G1 X201.435 Y127.06 E.00583
;WIPE_END
G92 E0
G1 X209.804 Y126.61 F18000
G1 E1.5 F1800
;WIDTH:0.109297
G1 F3000
G1 X210.332 Y126.617 E1.5029
G1 E.32008 F1800
;WIPE_START
G1 F3000
G1 X209.804 Y126.61 E.0029
;WIPE_END
G92 E0
G1 X218.05 Y126.996 F18000
G1 E1.5 F1800
;WIDTH:0.107325
G1 F3000
G1 X218.25 Y127.013 E1.50106
G1 E.12176 F1800
;WIPE_START
G1 F3000
G1 X218.05 Y126.996 E.00106
;WIPE_END
G92 E0
G1 X225.925 Y184.285 F18000
G1 E1.5 F1800
;TYPE:Bottom surface
;WIDTH:0.5
G1 F3000
G1 X226.902 Y184.901 E1.54912
G1 X228.291 Y185.889 E1.62158
G1 X229.622 Y186.954 E1.69404
G1 X230.891 Y188.092 E1.76651
G1 X232.094 Y189.3 E1.83898
G1 X233.227 Y190.574 E1.91145
G1 X234.287 Y191.909 E1.98394
G1 X235.269 Y193.303 E2.05642
G1 X236.173 Y194.749 E2.12891
G1 X236.993 Y196.244 E2.20141
G1 X237.728 Y197.783 E2.27391
G1 X238.375 Y199.361 E2.34641
G1 X238.932 Y200.973 E2.41892
G1 X239.398 Y202.613 E2.49144
G1 X239.771 Y204.278 E2.56396
G1 X240.05 Y205.961 E2.63648
G1 X240.233 Y207.657 E2.70901
G1 X240.321 Y209.361 E2.78155
G1 X240.313 Y211.067 E2.85409
G1 X240.209 Y212.77 E2.92663
G1 X240.01 Y214.465 E2.99918
G1 X239.715 Y216.146 E3.07173
G1 X239.326 Y217.808 E3.14429
G1 X238.845 Y219.446 E3.21685
G1 X238.272 Y221.053 E3.28942
G1 X237.61 Y222.627 E3.36199
G1 X236.86 Y224.16 E3.43457
G1 X236.025 Y225.65 E3.50715
