; HEADER_BLOCK_START
; generated by AnycubicSlicerNext 1.1.1 on 2025-12-16 at 04:21:18
; total layer number: 25
; filament_density: 1.24
; filament_diameter: 1.75
; max_z_height: 5.04
; HEADER_BLOCK_END

; THUMBNAIL_BLOCK_START

;
; THUMBNAIL_BLOCK_END

; external perimeters extrusion width = 0.42mm
; perimeters extrusion width = 0.45mm
; infill extrusion width = 0.45mm
; solid infill extrusion width = 0.42mm
; top infill extrusion width = 0.42mm
; support material extrusion width = 0.40mm
; first layer extrusion width = 0.50mm

; external perimeters extrusion width = 0.42mm
; perimeters extrusion width = 0.45mm
; infill extrusion width = 0.45mm
; solid infill extrusion width = 0.42mm
; top infill extrusion width = 0.42mm
; support material extrusion width = 0.40mm
; first layer extrusion width = 0.50mm

; external perimeters extrusion width = 0.42mm
; perimeters extrusion width = 0.45mm
; infill extrusion width = 0.45mm
; solid infill extrusion width = 0.42mm
; top infill extrusion width = 0.42mm
; support material extrusion width = 0.40mm
; first layer extrusion width = 0.50mm

; EXECUTABLE_BLOCK_START
;TYPE:Custom
G90 ; use absolute coordinates
M83 ; extruder relative mode
M140 S60 ; set bed temp
M190 S60 ; wait for bed temp
M104 S220 ; set extruder temp
M109 S220 ; wait for extruder temp
G28                                        ; move X/Y/Z to min endstops
G1 Z0.28                                   ; lift nozzle a bit 
G92 E0 
G1 Y3 F2400                                    ; zero the extruded length 
G1 X180  E40 F500                       ; Extrude 25mm of filament in a 5cm line. 
G92 E0                                     ; zero the extruded length again 
G1 E-2 F3000                                ; Retract a little 
G1 X181 F4000                              ; Quickly wipe away from the filament line
M117
M900 K0.07
G90
G21
M82 ; use absolute distances for extrusion
G92 E0
; filament start gcode
M106 S0
;LAYER_CHANGE
;Z:0.24
;HEIGHT:0.24
G1 E-1.5 F1800
G92 E0
; layer num/total_layer_count: 1/25
; update layer progress
M991 S0 P0 ;notify layer change
;_SET_FAN_SPEED_CHANGING_LAYER
SET_VELOCITY_LIMIT ACCEL=5000 ACCEL_TO_DECEL=2500
; printing object DesertEagle 9.stl id:3240388140312 copy 0
G1 X212.328 Y203.16 F18000
G1 Z.24
G1 E1.5 F1800
;TYPE:Inner wall
;WIDTH:0.5
G1 F3600
G1 X210.625 Y203.16 E1.5724
G1 X210.625 Y194.657 E1.93389
G1 X212.328 Y194.657 E2.0063
G1 X212.328 Y203.16 E2.36779
G1 X212.586 Y203.609 F18000
;TYPE:Outer wall
G1 F3600
G1 X210.368 Y203.609 E2.46211
G1 X210.177 Y203.418 E2.47357
G1 X210.177 Y194.4 E2.85699
G1 X210.368 Y194.209 E2.86845
G1 X212.586 Y194.209 E2.96277
G1 X212.777 Y194.4 E2.97424
G1 X212.777 Y203.418 E3.35765
G1 X212.586 Y203.609 E3.36912
G1 E2.36912 F1800
;WIPE_START
G1 F3600
G1 X211.586 Y203.609 E1.86912
;WIPE_END
G92 E0
G1 X211.297 Y202.936 F18000
G1 E1.5 F1800
;TYPE:Gap infill
;WIDTH:0.220132
G1 F3600
G1 X211.236 Y202.893 E1.50119
;WIDTH:0.255688
G1 X211.175 Y202.85 E1.50263
;WIDTH:0.291244
G1 X211.114 Y202.807 E1.50432
;WIDTH:0.323274
G1 X211.1 Y202.793 E1.50484
;WIDTH:0.364759
G1 X211.01 Y202.775 E1.50755
;WIDTH:0.353519
G1 X210.93 Y202.636 E1.51216
;WIDTH:0.333986
G1 X210.85 Y202.497 E1.51646
G1 X210.962 Y202.209 F18000
;TYPE:Bottom surface
;WIDTH:0.5
G1 F3600
G1 X211.15 Y202.397 E1.5278
G1 X211.467 Y202.08 E1.54687
G1 X210.962 Y201.575 E1.57727
G1 E.57727 F1800
;WIPE_START
G1 F3600
G1 X211.467 Y202.08 E.21971
G1 X211.266 Y202.282 E.07727
;WIPE_END
G92 E0
G1 X211.992 Y201.336 F18000
G1 E1.5 F1800
G1 F3600
G1 X211.785 Y201.129 E1.51247
G1 X211.467 Y201.446 E1.53154
G1 X211.992 Y201.971 E1.56308
G1 X212.104 Y202.098 F18000
;TYPE:Gap infill
;WIDTH:0.163022
G1 F3600
G1 X211.991 Y202.117 E1.5643
;WIDTH:0.138472
G1 X211.79 Y202.173 E1.56602
G1 X211.992 Y202.605 F18000
;TYPE:Bottom surface
;WIDTH:0.5
G1 F3600
G1 X211.785 Y202.397 E1.57849
G1 X211.467 Y202.714 E1.59756
G1 X211.577 Y202.824 E1.60415
G1 X211.531 Y202.87 F18000
;TYPE:Gap infill
;WIDTH:0.1254
G1 F3600
G1 X211.6 Y202.899 E1.60467
G1 X212.104 Y202.899 E1.6082
G1 X212.104 Y202.821 F18000
;WIDTH:0.245388
G1 F3600
G1 X211.787 Y202.843 E1.61405
;WIDTH:0.236895
G1 X211.778 Y202.721 E1.61621
G1 E.17767 F1800
;WIPE_START
G1 F3600
G1 X211.787 Y202.843 E.11621
;WIPE_END
G92 E0
G1 X211.192 Y200.136 F18000
G1 E1.5 F1800
;WIDTH:0.229208
G1 F3600
G1 X211.083 Y200.157 E1.50186
;WIDTH:0.288289
G1 X210.974 Y200.177 E1.50435
G1 X210.85 Y199.888 E1.51142
G1 X210.971 Y199.998 F18000
;WIDTH:0.133537
G1 F3600
G1 X210.888 Y200.402 E1.51463
G1 X210.888 Y200.587 E1.51607
G1 X210.961 Y200.941 E1.51888
G1 X210.962 Y200.94 F18000
;TYPE:Bottom surface
;WIDTH:0.5
G1 F3600
G1 X211.15 Y201.129 E1.53021
G1 X211.467 Y200.812 E1.54928
G1 X211.15 Y200.495 E1.56835
G1 X211.467 Y200.177 E1.58741
G1 X211.785 Y200.495 E1.60648
G1 X211.992 Y200.287 E1.61895
G1 X211.992 Y200.068 F18000
G1 F3600
G1 X211.467 Y199.543 E1.6505
G1 X211.15 Y199.86 E1.66956
G1 X210.962 Y199.672 E1.6809
G1 X210.962 Y199.415 F18000
G1 F3600
G1 X211.15 Y199.226 E1.69223
G1 X210.962 Y199.037 E1.70357
G1 E.4702 F1800
;WIPE_START
G1 F3600
G1 X211.15 Y199.226 E.33688
G1 X210.962 Y199.415 E.20357
;WIPE_END
G92 E0
G1 X211.992 Y198.799 F18000
G1 E1.5 F1800
G1 F3600
G1 X211.785 Y198.592 E1.51247
G1 X211.467 Y198.909 E1.53154
G1 X211.992 Y199.433 E1.56308
G1 E.56308 F1800
;WIPE_START
G1 F3600
G1 X211.467 Y198.909 E.19213
G1 X211.65 Y198.726 E.06308
;WIPE_END
G92 E0
G1 X211.192 Y197.599 F18000
G1 E1.5 F1800
;TYPE:Gap infill
;WIDTH:0.229208
G1 F3600
G1 X211.083 Y197.62 E1.50186
;WIDTH:0.288289
G1 X210.974 Y197.64 E1.50435
G1 X210.85 Y197.351 E1.51142
G1 X210.971 Y197.461 F18000
;WIDTH:0.133536
G1 F3600
G1 X210.888 Y197.865 E1.51462
G1 X210.888 Y198.05 E1.51607
G1 X210.961 Y198.404 E1.51888
G1 X210.962 Y198.403 F18000
;TYPE:Bottom surface
;WIDTH:0.5
G1 F3600
G1 X211.15 Y198.592 E1.53021
G1 X211.467 Y198.275 E1.54928
G1 X211.15 Y197.957 E1.56835
G1 X211.467 Y197.64 E1.58741
G1 X211.785 Y197.957 E1.60648
G1 X211.992 Y197.75 E1.61895
G1 X211.992 Y197.531 F18000
G1 F3600
G1 X211.467 Y197.006 E1.6505
G1 X211.15 Y197.323 E1.66956
G1 X210.962 Y197.135 E1.6809
G1 X210.962 Y196.877 F18000
G1 F3600
G1 X211.785 Y196.055 E1.73037
G1 X211.992 Y196.262 E1.74284
G1 X211.992 Y196.481 F18000
G1 F3600
G1 X211.785 Y196.689 E1.75531
G1 X211.992 Y196.896 E1.76779
G1 X211.971 Y195.924 F18000
;TYPE:Gap infill
;WIDTH:0.153312
G1 F3600
G1 X212.057 Y195.513 E1.77184
G1 X212.057 Y195.327 E1.77363
G1 X211.964 Y194.882 E1.77803
G1 X212.104 Y194.919 F18000
;WIDTH:0.125403
G1 F3600
G1 X211.6 Y194.919 E1.78156
G1 X211.531 Y194.947 E1.78208
G1 X211.577 Y194.994 F18000
;TYPE:Bottom surface
;WIDTH:0.5
G1 F3600
G1 X211.467 Y195.103 E1.78867
G1 X211.785 Y195.42 E1.80774
G1 X211.15 Y196.055 E1.84587
G1 X210.962 Y195.866 E1.85721
G1 X210.85 Y196.082 F18000
;TYPE:Gap infill
;WIDTH:0.288293
G1 F3600
G1 X210.974 Y196.372 E1.86428
G1 X211.083 Y196.351 E1.86677
;WIDTH:0.22921
G1 X211.192 Y196.33 E1.86863
G1 X210.962 Y195.609 F18000
;TYPE:Bottom surface
;WIDTH:0.5
G1 F3600
G1 X211.15 Y195.42 E1.87997
G1 X210.962 Y195.232 E1.8913
; stop printing object DesertEagle 9.stl id:3240388140312 copy 0
; printing object DesertEagle 1.stl id:0 copy 0
G1 E.65793 F1800
;WIPE_START
G1 F3600
G1 X211.15 Y195.42 E.52462
G1 X210.962 Y195.609 E.3913
;WIPE_END
G92 E0
G1 X214.255 Y216.915 F18000
G1 E1.5 F1800
;TYPE:Inner wall
G1 F3600
G1 X214.373 Y216.847 E1.50581
G1 X214.907 Y216.84 E1.52849
G1 X220.827 Y216.848 E1.7802
G1 X220.89 Y216.874 E1.7831
G1 X220.966 Y216.95 E1.78766
G1 X221.001 Y217.104 E1.79438
G1 X221.001 Y225.078 E2.13341
G1 X220.987 Y225.183 E2.13788
G1 X220.931 Y225.278 E2.14258
G1 X220.841 Y225.329 E2.14698
G1 X220.736 Y225.343 E2.15146
G1 X214.463 Y225.343 E2.41814
G1 X214.354 Y225.328 E2.42283
G1 X214.266 Y225.277 E2.42716
G1 X214.211 Y225.183 E2.43176
G1 X214.198 Y225.079 E2.43624
G1 X214.206 Y217.026 E2.77858
G1 X214.255 Y216.915 E2.78377
G1 X213.892 Y216.644 F18000
;TYPE:Outer wall
G1 F3600
G1 X214.082 Y216.482 E2.79435
G1 X214.319 Y216.399 E2.80504
G1 X220.881 Y216.399 E3.08402
G1 X221.117 Y216.482 E3.09464
G1 X221.253 Y216.587 E3.10197
G1 X221.358 Y216.723 E3.10927
G1 X221.424 Y216.883 E3.11661
G1 X221.449 Y217.075 E3.12484
G1 X221.449 Y225.108 E3.46634
G1 X221.424 Y225.3 E3.47458
G1 X221.358 Y225.458 E3.48187
G1 X221.25 Y225.599 E3.48943
G1 X221.117 Y225.7 E3.49654
G1 X220.958 Y225.766 E3.50386
G1 X220.765 Y225.791 E3.5121
G1 X214.433 Y225.791 E3.7813
G1 X214.236 Y225.765 E3.78977
G1 X214.082 Y225.7 E3.79687
G1 X213.945 Y225.596 E3.80418
G1 X213.838 Y225.454 E3.81175
G1 X213.774 Y225.3 E3.81883
G1 X213.749 Y225.108 E3.82707
G1 X213.757 Y216.967 E4.17314
G1 X213.8 Y216.806 E4.18024
G1 X213.892 Y216.644 E4.18816
G1 E3.18816 F1800
;WIPE_START
G1 F3600
G1 X214.082 Y216.482 E3.06362
G1 X214.319 Y216.399 E2.93795
G1 X214.818 Y216.399 E2.68816
;WIPE_END
G92 E0
G1 X214.948 Y217.176 F18000
G1 E1.5 F1800
;TYPE:Bottom surface
G1 F3600
G1 X215.062 Y217.289 E1.50681
G1 X215.175 Y217.176 E1.51361
G1 X215.583 Y217.177 F18000
G1 F3600
G1 X215.696 Y217.289 E1.52037
G1 X215.062 Y217.924 E1.55851
G1 X214.744 Y217.607 E1.57757
G1 X214.541 Y217.81 E1.58979
G1 X214.541 Y218.037 F18000
G1 F3600
G1 X215.379 Y218.875 E1.64016
G1 X215.696 Y218.558 E1.65923
G1 X215.379 Y218.241 E1.67829
G1 X216.013 Y217.607 E1.71643
G1 X216.33 Y217.924 E1.73549
G1 X216.013 Y218.241 E1.75456
G1 X216.33 Y218.558 E1.77363
G1 X216.647 Y218.241 E1.79269
G1 X216.964 Y218.558 E1.81176
G1 X216.33 Y219.192 E1.8499
G1 X216.013 Y218.875 E1.86896
G1 X215.696 Y219.192 E1.88803
G1 X216.013 Y219.509 E1.9071
G1 X215.379 Y220.144 E1.94523
G1 X215.062 Y219.827 E1.9643
G1 X215.379 Y219.509 E1.98337
G1 X214.744 Y218.875 E2.0215
G1 X214.54 Y219.08 E2.03379
G1 X214.54 Y219.305 F18000
G1 F3600
G1 X214.744 Y219.509 E2.0461
G1 X214.539 Y219.715 E2.05843
G1 X214.427 Y219.842 F18000
;TYPE:Gap infill
;WIDTH:0.155417
G1 F3600
G1 X214.539 Y219.862 E2.05956
;WIDTH:0.141846
G1 X214.652 Y219.881 E2.06053
;WIDTH:0.107533
G1 X214.837 Y219.892 E2.06152
G1 X214.539 Y220.349 F18000
;TYPE:Bottom surface
;WIDTH:0.5
G1 F3600
G1 X214.744 Y220.144 E2.07389
G1 X215.062 Y220.461 E2.09296
G1 X214.538 Y220.984 E2.12443
G1 X214.426 Y221.112 F18000
;TYPE:Gap infill
;WIDTH:0.152594
G1 F3600
G1 X214.539 Y221.131 E2.12553
;WIDTH:0.139391
G1 X214.652 Y221.151 E2.12648
;WIDTH:0.115242
G1 X214.742 Y221.188 E2.12707
G1 E.67586 F1800
;WIPE_START
G1 F3600
G1 X214.652 Y221.151 E.62707
;WIPE_END
G92 E0
G1 X214.557 Y222.551 F18000
G1 E1.5 F1800
;WIDTH:0.152619
G1 F3600
G1 X214.472 Y222.139 E1.50402
G1 X214.473 Y221.954 E1.50581
G1 X214.541 Y221.623 E1.50904
G1 X214.537 Y221.619 F18000
;TYPE:Bottom surface
;WIDTH:0.5
G1 F3600
G1 X214.744 Y221.412 E1.52149
G1 X215.062 Y221.729 E1.54055
G1 X214.744 Y222.046 E1.55962
G1 X215.062 Y222.364 E1.57869
G1 X215.379 Y222.046 E1.59776
G1 X215.696 Y222.364 E1.61682
G1 X215.062 Y222.998 E1.65496
G1 X214.744 Y222.681 E1.67402
G1 X214.536 Y222.889 E1.68655
G1 X214.536 Y223.107 F18000
G1 F3600
G1 X215.379 Y223.949 E1.73721
G1 X215.696 Y223.632 E1.75628
G1 X215.379 Y223.315 E1.77535
G1 X216.013 Y222.681 E1.81348
G1 X216.33 Y222.998 E1.83255
G1 X216.013 Y223.315 E1.85162
G1 X216.33 Y223.632 E1.87068
G1 X216.647 Y223.315 E1.88975
G1 X216.964 Y223.632 E1.90882
G1 X216.33 Y224.266 E1.94695
G1 X216.013 Y223.949 E1.96602
G1 X215.696 Y224.266 E1.98509
G1 X216.013 Y224.584 E2.00415
G1 X215.59 Y225.006 E2.02957
G1 X215.668 Y225.084 F18000
;TYPE:Gap infill
;WIDTH:0.120828
G1 F3600
G1 X215.196 Y225.084 E2.03267
G1 X215.121 Y225.053 E2.03321
G1 X215.167 Y225.006 F18000
;TYPE:Bottom surface
;WIDTH:0.5
G1 F3600
G1 X215.062 Y224.901 E2.03956
G1 X215.379 Y224.584 E2.05862
G1 X214.744 Y223.949 E2.09676
G1 X214.535 Y224.159 E2.10936
G1 X214.535 Y224.374 F18000
G1 F3600
G1 X214.744 Y224.584 E2.12197
G1 X214.534 Y224.794 E2.1346
G1 X214.422 Y225.014 F18000
;TYPE:Gap infill
;WIDTH:0.237346
G1 F3600
G1 X214.874 Y225.03 E2.14256
G1 X214.917 Y225.118 F18000
;WIDTH:0.211627
G1 F3600
G1 X214.75 Y225.025 E2.14546
G1 X214.818 Y224.827 E2.14865
G1 E.84915 F1800
;WIPE_START
G1 F3600
G1 X214.75 Y225.025 E.74418
G1 X214.917 Y225.118 E.64865
;WIPE_END
G92 E0
G1 X216.224 Y225.006 F18000
G1 E1.5 F1800
;TYPE:Bottom surface
;WIDTH:0.5
G1 F3600
G1 X216.33 Y224.901 E1.50635
G1 X216.436 Y225.006 E1.5127
G1 X217.217 Y224.836 F18000
;TYPE:Gap infill
;WIDTH:0.220803
G1 F3600
G1 X217.276 Y225.026 E1.51589
G1 X217.109 Y225.118 E1.51895
G1 X216.859 Y225.006 F18000
;TYPE:Bottom surface
;WIDTH:0.5
G1 F3600
G1 X216.964 Y224.901 E1.5253
G1 X216.647 Y224.584 E1.54437
G1 X217.281 Y223.949 E1.5825
G1 X217.599 Y224.266 E1.60157
G1 X217.281 Y224.584 E1.62064
G1 X217.599 Y224.901 E1.6397
G1 X217.916 Y224.584 E1.65877
G1 X218.233 Y224.901 E1.67784
G1 X218.127 Y225.006 E1.68419
G1 X218.174 Y225.053 F18000
;TYPE:Gap infill
;WIDTH:0.125099
G1 F3600
G1 X218.099 Y225.084 E1.68475
G1 X217.733 Y225.084 E1.68731
G1 X218.55 Y224.808 F18000
;WIDTH:0.219056
G1 F3600
G1 X218.55 Y225.021 E1.6907
G1 X218.717 Y225.118 E1.69378
G1 X218.973 Y225.006 F18000
;TYPE:Bottom surface
;WIDTH:0.5
G1 F3600
G1 X218.867 Y224.901 E1.70013
G1 X219.501 Y224.266 E1.73826
G1 X219.819 Y224.584 E1.75733
G1 X220.136 Y224.266 E1.77639
G1 X219.184 Y223.315 E1.8336
G1 X218.867 Y223.632 E1.85266
G1 X219.184 Y223.949 E1.87173
G1 X218.55 Y224.584 E1.90986
G1 X218.233 Y224.266 E1.92893
G1 X218.55 Y223.949 E1.948
G1 X218.233 Y223.632 E1.96707
G1 X217.916 Y223.949 E1.98613
G1 X217.599 Y223.632 E2.0052
G1 X218.233 Y222.998 E2.04333
G1 X218.55 Y223.315 E2.0624
G1 X218.867 Y222.998 E2.08147
G1 X218.55 Y222.681 E2.10054
G1 X219.184 Y222.046 E2.13867
G1 X219.501 Y222.364 E2.15774
G1 X219.184 Y222.681 E2.1768
G1 X219.819 Y223.315 E2.21494
G1 X220.136 Y222.998 E2.23401
G1 X219.819 Y222.681 E2.25307
G1 X220.136 Y222.364 E2.27214
G1 X220.453 Y222.681 E2.29121
G1 X220.664 Y222.469 E2.30392
G1 X220.664 Y222.258 F18000
G1 F3600
G1 X220.136 Y221.729 E2.33569
G1 X219.819 Y222.046 E2.35476
G1 X219.501 Y221.729 E2.37382
G1 X219.819 Y221.412 E2.39289
G1 X219.501 Y221.095 E2.41196
G1 X219.184 Y221.412 E2.43103
G1 X218.867 Y221.095 E2.45009
G1 X219.184 Y220.778 E2.46916
G1 X218.55 Y220.144 E2.50729
G1 X218.233 Y220.461 E2.52636
G1 X218.55 Y220.778 E2.54543
G1 X218.233 Y221.095 E2.5645
G1 X217.916 Y220.778 E2.58356
G1 X217.599 Y221.095 E2.60263
G1 X218.233 Y221.729 E2.64076
G1 X218.55 Y221.412 E2.65983
G1 X218.867 Y221.729 E2.6789
G1 X218.233 Y222.364 E2.71703
G1 X217.916 Y222.046 E2.7361
G1 X217.599 Y222.364 E2.75517
G1 X217.916 Y222.681 E2.77423
G1 X217.281 Y223.315 E2.81237
G1 X216.964 Y222.998 E2.83144
G1 X217.281 Y222.681 E2.8505
G1 X216.964 Y222.364 E2.86957
G1 X216.647 Y222.681 E2.88864
G1 X216.33 Y222.364 E2.9077
G1 X216.964 Y221.729 E2.94584
G1 X217.281 Y222.046 E2.96491
G1 X217.599 Y221.729 E2.98397
G1 X216.647 Y220.778 E3.04117
G1 X216.33 Y221.095 E3.06024
G1 X216.647 Y221.412 E3.07931
G1 X216.013 Y222.046 E3.11744
G1 X215.696 Y221.729 E3.13651
G1 X216.013 Y221.412 E3.15558
G1 X215.696 Y221.095 E3.17464
G1 X215.379 Y221.412 E3.19371
G1 X215.062 Y221.095 E3.21278
G1 X215.696 Y220.461 E3.25091
G1 X216.013 Y220.778 E3.26998
G1 X216.33 Y220.461 E3.28905
G1 X216.013 Y220.144 E3.30811
G1 X216.647 Y219.509 E3.34625
G1 X216.964 Y219.827 E3.36531
G1 X216.647 Y220.144 E3.38438
G1 X217.281 Y220.778 E3.42252
G1 X217.599 Y220.461 E3.44158
G1 X217.281 Y220.144 E3.46065
G1 X217.599 Y219.827 E3.47972
G1 X217.916 Y220.144 E3.49878
G1 X218.233 Y219.827 E3.51785
G1 X217.599 Y219.192 E3.55599
G1 X217.281 Y219.509 E3.57505
G1 X216.964 Y219.192 E3.59412
G1 X217.599 Y218.558 E3.63225
G1 X217.916 Y218.875 E3.65132
G1 X218.233 Y218.558 E3.67039
G1 X217.916 Y218.241 E3.68946
G1 X218.55 Y217.607 E3.72759
G1 X218.867 Y217.924 E3.74666
G1 X218.55 Y218.241 E3.76572
G1 X218.867 Y218.558 E3.78479
G1 X219.184 Y218.241 E3.80386
G1 X219.501 Y218.558 E3.82293
G1 X218.867 Y219.192 E3.86106
G1 X218.55 Y218.875 E3.88013
G1 X218.233 Y219.192 E3.89919
G1 X218.867 Y219.827 E3.93733
G1 X219.184 Y219.509 E3.9564
G1 X219.501 Y219.827 E3.97546
G1 X219.184 Y220.144 E3.99453
G1 X219.819 Y220.778 E4.03266
G1 X220.136 Y220.461 E4.05173
