; HEADER_BLOCK_START
; generated by AnycubicSlicerNext 1.1.1 on 2025-12-16 at 04:16:39
; total layer number: 170
; filament_density: 1.24
; filament_diameter: 1.75
; max_z_height: 34.04
; HEADER_BLOCK_END

; THUMBNAIL_BLOCK_START

;
; THUMBNAIL_BLOCK_END

; external perimeters extrusion width = 0.42mm
; perimeters extrusion width = 0.45mm
; infill extrusion width = 0.45mm
; solid infill extrusion width = 0.42mm
; top infill extrusion width = 0.42mm
; support material extrusion width = 0.40mm
; first layer extrusion width = 0.50mm

; external perimeters extrusion width = 0.42mm
; perimeters extrusion width = 0.45mm
; infill extrusion width = 0.45mm
; solid infill extrusion width = 0.42mm
; top infill extrusion width = 0.42mm
; support material extrusion width = 0.40mm
; first layer extrusion width = 0.50mm

; external perimeters extrusion width = 0.42mm
; perimeters extrusion width = 0.45mm
; infill extrusion width = 0.45mm
; solid infill extrusion width = 0.42mm
; top infill extrusion width = 0.42mm
; support material extrusion width = 0.40mm
; first layer extrusion width = 0.50mm

; external perimeters extrusion width = 0.42mm
; perimeters extrusion width = 0.45mm
; infill extrusion width = 0.45mm
; solid infill extrusion width = 0.42mm
; top infill extrusion width = 0.42mm
; support material extrusion width = 0.40mm
; first layer extrusion width = 0.50mm

; EXECUTABLE_BLOCK_START
;TYPE:Custom
G90 ; use absolute coordinates
M83 ; extruder relative mode
M140 S60 ; set bed temp
M190 S60 ; wait for bed temp
M104 S220 ; set extruder temp
M109 S220 ; wait for extruder temp
G28                                        ; move X/Y/Z to min endstops
G1 Z0.28                                   ; lift nozzle a bit 
G92 E0 
G1 Y3 F2400                                    ; zero the extruded length 
G1 X180  E40 F500                       ; Extrude 25mm of filament in a 5cm line. 
G92 E0                                     ; zero the extruded length again 
G1 E-2 F3000                                ; Retract a little 
G1 X181 F4000                              ; Quickly wipe away from the filament line
M117
M900 K0.07
G90
G21
M82 ; use absolute distances for extrusion
G92 E0
; filament start gcode
M106 S0
;LAYER_CHANGE
;Z:0.24
;HEIGHT:0.24
G1 E-1.5 F1800
G92 E0
; layer num/total_layer_count: 1/170
; update layer progress
M991 S0 P0 ;notify layer change
;_SET_FAN_SPEED_CHANGING_LAYER
SET_VELOCITY_LIMIT ACCEL=5000 ACCEL_TO_DECEL=2500
; printing object DesertEagle 4.stl id:4524921358008139776 copy 0
G1 X206.988 Y189.003 F18000
G1 Z.24
G1 E1.5 F1800
;TYPE:Outer wall
;WIDTH:0.5
G1 F3600
G1 X206.988 Y197.78 E1.87317
G1 X206.088 Y197.78 E1.91144
G1 X206.088 Y188.042 E2.32546
G1 X212.088 Y188.042 E2.58054
G1 X212.088 Y197.78 E2.99457
G1 X211.188 Y197.78 E3.03283
G1 X211.188 Y189.003 E3.40601
G1 X206.988 Y189.003 E3.58456
G1 E2.58456 F1800
;WIPE_START
G1 F3600
G1 X206.988 Y190.003 E2.08456
;WIPE_END
G92 E0
G1 X206.557 Y188.702 F18000
G1 E1.5 F1800
;TYPE:Gap infill
;WIDTH:0.503354
G1 F3600
G1 X206.538 Y188.778 E1.50337
G1 X206.538 Y197.556 E1.87933
G1 E.87933 F1800
;WIPE_START
G1 F3600
G1 X206.538 Y196.556 E.37933
;WIPE_END
G92 E0
G1 X211.638 Y197.556 F18000
G1 E1.5 F1800
;WIDTH:0.503009
G1 F3600
G1 X211.638 Y188.778 E1.87568
;WIDTH:0.52233
G1 X211.618 Y188.702 E1.87919
;WIDTH:0.560969
G1 X211.599 Y188.626 E1.88299
;WIDTH:0.594038
G1 X211.58 Y188.55 E1.88703
G1 X211.412 Y188.522 E1.89578
;WIDTH:0.563992
G1 X206.763 Y188.522 E2.1216
;WIDTH:0.577726
G1 X206.679 Y188.536 E2.12584
;WIDTH:0.605194
G1 X206.595 Y188.55 E2.1303
;WIDTH:0.59961
G1 X206.576 Y188.626 E2.13439
;WIDTH:0.560969
G1 X206.557 Y188.702 E2.13819
; stop printing object DesertEagle 4.stl id:4524921358008139776 copy 0
; printing object DesertEagle 3.stl id:0 copy 0
G1 E.67752 F1800
;WIPE_START
G1 F3600
G1 X206.576 Y188.626 E.63819
;WIPE_END
G92 E0
G1 X227.356 Y221.68 F18000
G1 E1.5 F1800
;TYPE:Inner wall
;WIDTH:0.5
G1 F3600
G1 X227.977 Y221.799 E1.52689
G1 X227.977 Y222.178 E1.543
G1 X227.342 Y222.3 E1.57049
G1 X227.356 Y221.68 E1.59684
G1 E.59684 F1800
;WIPE_START
G1 F3600
G1 X227.977 Y221.799 E.28055
G1 X227.977 Y222.167 E.09684
;WIPE_END
G92 E0
G1 X242.573 Y222.196 F18000
G1 E1.5 F1800
G1 F3600
G1 X242.573 Y221.781 E1.51766
G1 X242.994 Y221.679 E1.5361
G1 X243.008 Y222.301 E1.56252
G1 X242.573 Y222.196 E1.58157
G1 E.58157 F1800
;WIPE_START
G1 F3600
G1 X242.573 Y221.781 E.37382
G1 X242.994 Y221.679 E.15699
G1 X242.998 Y221.83 E.08157
;WIPE_END
G92 E0
G1 X227.264 Y221.206 F18000
G1 E1.5 F1800
;TYPE:Outer wall
G1 F3600
G1 X227.966 Y221.341 E1.53039
G1 X228.294 Y221.367 E1.54435
G1 X228.425 Y221.505 E1.55247
G1 X228.425 Y222.472 E1.59356
G1 X228.294 Y222.61 E1.60168
G1 X227.966 Y222.637 E1.61564
G1 X227.264 Y222.771 E1.64605
G1 X227.269 Y224.46 E1.71783
G1 X227.241 Y224.603 E1.72405
G1 X226.967 Y224.596 E1.73571
G1 X226.818 Y224.387 E1.74659
G1 X226.816 Y224.281 E1.75109
G1 X226.824 Y222.823 E1.81309
G1 X226.892 Y222.332 E1.83415
G1 X226.904 Y221.807 E1.85648
G1 X226.843 Y221.304 E1.87801
G1 X226.816 Y220.826 E1.89836
G1 X226.816 Y209.506 E2.37962
G1 X226.859 Y209.087 E2.39756
G1 X226.987 Y208.691 E2.41524
G1 X227.139 Y208.407 E2.42894
G1 X227.365 Y208.118 E2.44453
G1 X227.772 Y207.742 E2.46806
G1 X228.432 Y207.211 E2.5041
G1 X228.772 Y206.967 E2.52189
G1 X229.372 Y206.579 E2.55224
G1 X229.993 Y206.232 E2.58251
G1 X230.634 Y205.924 E2.61276
G1 X231.294 Y205.658 E2.64298
G1 X231.966 Y205.434 E2.67311
G1 X233.004 Y205.178 E2.71856
G1 X233.703 Y205.063 E2.74869
G1 X234.335 Y204.998 E2.77569
G1 X234.895 Y204.97 E2.7995
G1 X235.453 Y204.97 E2.82326
G1 X236.294 Y205.022 E2.85906
G1 X237.106 Y205.133 E2.89391
G1 X237.505 Y205.21 E2.91119
G1 X237.901 Y205.302 E2.92847
G1 X238.691 Y205.531 E2.96343
G1 X239.127 Y205.685 E2.9831
G1 X239.834 Y205.977 E3.01563
G1 X240.251 Y206.178 E3.03531
G1 X240.923 Y206.546 E3.06787
G1 X241.316 Y206.791 E3.08755
G1 X241.943 Y207.23 E3.1201
G1 X242.585 Y207.748 E3.15517
G1 X242.984 Y208.118 E3.17831
G1 X243.21 Y208.407 E3.1939
G1 X243.363 Y208.691 E3.2076
G1 X243.488 Y209.08 E3.22498
G1 X243.534 Y209.514 E3.24352
G1 X243.534 Y220.826 E3.72447
G1 X243.507 Y221.304 E3.74482
G1 X243.446 Y221.807 E3.76635
G1 X243.458 Y222.332 E3.78868
G1 X243.526 Y222.822 E3.80972
G1 X243.53 Y224.39 E3.87635
G1 X243.383 Y224.595 E3.88708
G1 X243.109 Y224.603 E3.89875
G1 X243.082 Y224.459 E3.90497
G1 X243.086 Y222.781 E3.97633
G1 X242.492 Y222.638 E4.00234
G1 X242.259 Y222.615 E4.01228
G1 X242.124 Y222.473 E4.02061
G1 X242.124 Y221.504 E4.0618
G1 X242.259 Y221.362 E4.07013
G1 X242.491 Y221.339 E4.08007
G1 X243.086 Y221.196 E4.10606
G1 X243.085 Y209.485 E4.60396
G1 X243.045 Y209.141 E4.61868
G1 X242.922 Y208.801 E4.63402
G1 X242.725 Y208.498 E4.6494
G1 X242.264 Y208.063 E4.67636
G1 X241.909 Y207.769 E4.69594
G1 X241.175 Y207.235 E4.73453
G1 X240.4 Y206.763 E4.77309
G1 X239.993 Y206.55 E4.79265
G1 X239.152 Y206.175 E4.8318
G1 X238.311 Y205.881 E4.86969
G1 X237.868 Y205.756 E4.88923
G1 X236.983 Y205.567 E4.92773
G1 X236.085 Y205.453 E4.96621
G1 X235.626 Y205.424 E4.98574
G1 X234.721 Y205.424 E5.02423
G1 X233.819 Y205.5 E5.06272
G1 X233.364 Y205.568 E5.08225
G1 X232.479 Y205.757 E5.12074
G1 X231.609 Y206.021 E5.15937
G1 X230.765 Y206.357 E5.198
G1 X229.954 Y206.761 E5.23654
G1 X229.556 Y206.992 E5.2561
G1 X228.801 Y207.495 E5.29467
G1 X228.09 Y208.06 E5.33327
G1 X227.741 Y208.376 E5.35329
G1 X227.517 Y208.644 E5.36814
G1 X227.356 Y208.967 E5.3835
G1 X227.275 Y209.312 E5.39855
G1 X227.264 Y209.492 E5.40623
G1 X227.264 Y221.206 E5.90422
; stop printing object DesertEagle 3.stl id:0 copy 0
; printing object DesertEagle 5.stl id:4524921358007689216 copy 0
G1 E4.90422 F1800
;WIPE_START
G1 F3600
G1 X227.966 Y221.341 E4.54685
G1 X228.251 Y221.364 E4.40422
;WIPE_END
G92 E0
G1 X201.025 Y229.177 F18000
G1 E1.5 F1800
;TYPE:Inner wall
G1 F3600
G1 X200.961 Y228.987 E1.50852
G1 X200.953 Y211.925 E2.23388
G1 X200.972 Y211.763 E2.2408
G1 X201.028 Y211.617 E2.24746
G1 X201.092 Y211.526 E2.25219
G1 X201.209 Y211.425 E2.25875
G1 X201.336 Y211.362 E2.26479
G1 X201.502 Y211.336 E2.27195
G1 X212.547 Y211.336 E2.7415
G1 X212.684 Y211.354 E2.74735
G1 X212.861 Y211.437 E2.75568
G1 X212.955 Y211.521 E2.76101
G1 X213.055 Y211.682 E2.76909
G1 X213.096 Y211.905 E2.77874
G1 X213.096 Y228.868 E3.49991
G1 X213.078 Y229.029 E3.5068
G1 X213.022 Y229.181 E3.51367
G1 X212.925 Y229.302 E3.52027
G1 X212.59 Y229.542 E3.53777
G1 X211.905 Y229.95 E3.5717
G1 X211.5 Y230.16 E3.59106
G1 X210.783 Y230.478 E3.62443
G1 X210.051 Y230.739 E3.65744
G1 X209.305 Y230.942 E3.69033
G1 X208.547 Y231.088 E3.72316
G1 X207.785 Y231.175 E3.75576
G1 X207.025 Y231.204 E3.78808
G1 X206.266 Y231.175 E3.82039
G1 X205.503 Y231.088 E3.85302
G1 X204.745 Y230.942 E3.88584
G1 X203.999 Y230.739 E3.91874
G1 X203.267 Y230.478 E3.95174
G1 X202.549 Y230.16 E3.98514
G1 X202.144 Y229.95 E4.00456
G1 X201.584 Y229.622 E4.03214
G1 X201.138 Y229.317 E4.05511
G1 X201.025 Y229.177 E4.06276
G1 X200.623 Y229.379 F18000
;TYPE:Outer wall
G1 F3600
G1 X200.622 Y229.378 E4.06282
G1 X200.537 Y229.158 E4.07282
G1 X200.513 Y229.028 E4.07844
G1 X200.505 Y211.899 E4.80667
G1 X200.533 Y211.656 E4.81708
G1 X200.629 Y211.405 E4.8285
G1 X200.757 Y211.222 E4.83801
G1 X200.959 Y211.049 E4.84932
G1 X201.17 Y210.943 E4.85936
G1 X201.474 Y210.888 E4.87248
G1 X212.576 Y210.888 E5.34445
G1 X212.78 Y210.914 E5.35322
G1 X212.913 Y210.956 E5.35914
G1 X213.12 Y211.067 E5.36913
G1 X213.292 Y211.22 E5.37892
G1 X213.425 Y211.411 E5.3888
G1 X213.482 Y211.537 E5.39468
G1 X213.538 Y211.774 E5.40502
G1 X213.545 Y211.892 E5.41006
G1 X213.545 Y228.894 E6.13287
G1 X213.517 Y229.134 E6.14315
G1 X213.427 Y229.379 E6.15427
G1 X213.357 Y229.491 E6.15988
G1 X213.227 Y229.638 E6.16818
G1 X212.836 Y229.917 E6.18864
G1 X212.123 Y230.342 E6.22393
G1 X211.695 Y230.564 E6.24443
G1 X210.949 Y230.895 E6.2791
G1 X210.186 Y231.167 E6.31355
G1 X209.407 Y231.379 E6.34789
G1 X208.615 Y231.532 E6.38217
G1 X207.819 Y231.623 E6.41623
G1 X207.025 Y231.653 E6.44999
G1 X206.232 Y231.623 E6.48375
G1 X205.435 Y231.532 E6.51783
G1 X204.644 Y231.38 E6.55211
G1 X203.864 Y231.167 E6.58646
G1 X203.101 Y230.895 E6.62091
G1 X202.355 Y230.564 E6.65559
G1 X201.927 Y230.342 E6.67609
G1 X201.347 Y230.003 E6.70466
G1 X200.826 Y229.642 E6.73158
G1 X200.692 Y229.49 E6.7402
G1 X200.623 Y229.379 E6.74577
G1 X201.298 Y228.885 F18000
;TYPE:Bottom surface
G1 F3600
G1 X201.372 Y228.959 E6.75023
G1 X201.689 Y228.642 E6.7693
G1 X202.323 Y229.276 E6.80743
G1 X202.078 Y229.521 E6.82218
G1 X201.683 Y229.282 F18000
G1 F3600
G1 X201.721 Y229.308 E6.82413
G1 X201.943 Y229.213 F18000
;TYPE:Gap infill
;WIDTH:0.230683
G1 F3600
G1 X201.848 Y229.308 E6.82641
;WIDTH:0.21183
G1 X201.866 Y229.353 E6.82715
;WIDTH:0.17641
G1 X201.916 Y229.468 E6.82863
;WIDTH:0.180341
G1 X202.067 Y229.584 E6.83095
;WIDTH:0.130769
G1 X202.217 Y229.7 E6.83238
G1 X202.276 Y229.71 E6.83283
;WIDTH:0.164942
G1 X202.301 Y229.706 E6.83311
;WIDTH:0.205662
G1 X202.327 Y229.702 E6.83349
G1 X202.425 Y229.773 E6.83525
G1 X202.486 Y229.748 F18000
;TYPE:Bottom surface
;WIDTH:0.5
G1 F3600
G1 X202.64 Y229.593 E6.84456
G1 X203.07 Y230.023 E6.87039
G1 X203.111 Y229.982 F18000
;TYPE:Gap infill
;WIDTH:0.296244
G1 F3600
G1 X203.25 Y230.077 E6.87431
;WIDTH:0.278433
G1 X203.389 Y230.173 E6.87794
;WIDTH:0.24752
G1 X203.499 Y230.226 E6.8802
G1 X203.774 Y230.273 E6.88539
G1 X203.819 Y230.318 F18000
;TYPE:Bottom surface
;WIDTH:0.5
G1 F3600
G1 X204.226 Y229.91 E6.90989
G1 X203.909 Y229.593 E6.92896
G1 X203.592 Y229.91 E6.94802
G1 X202.958 Y229.276 E6.98616
G1 X203.275 Y228.959 E7.00523
G1 X203.592 Y229.276 E7.02429
G1 X203.909 Y228.959 E7.04336
G1 X203.592 Y228.642 E7.06243
G1 X203.909 Y228.324 E7.08149
G1 X204.543 Y228.959 E7.11963
G1 X204.226 Y229.276 E7.1387
G1 X204.543 Y229.593 E7.15776
G1 X204.86 Y229.276 E7.17683
G1 X205.495 Y229.91 E7.21496
G1 X205.177 Y230.227 E7.23403
G1 X204.86 Y229.91 E7.2531
G1 X204.299 Y230.472 E7.28688
G1 X204.797 Y230.608 F18000
G1 F3600
G1 X204.86 Y230.544 E7.29069
G1 X204.956 Y230.64 E7.29647
G1 E5.90924 F1800
;WIPE_START
G1 F3600
G1 X204.86 Y230.544 E5.84132
G1 X204.797 Y230.608 E5.79647
;WIPE_END
G92 E0
G1 X206.624 Y230.723 F18000
G1 E1.5 F1800
;TYPE:Gap infill
;WIDTH:0.260283
G1 F3600
G1 X206.291 Y230.847 E1.50705
G1 X206.222 Y230.856 E1.50842
;WIDTH:0.21363
G1 X206.036 Y230.846 E1.51128
G1 X205.734 Y230.766 E1.51608
G1 X205.725 Y230.775 F18000
;TYPE:Bottom surface
;WIDTH:0.5
G1 F3600
G1 X205.495 Y230.544 E1.52994
G1 X205.812 Y230.227 E1.54901
G1 X206.129 Y230.544 E1.56808
G1 X206.446 Y230.227 E1.58714
G1 X206.129 Y229.91 E1.60621
G1 X206.446 Y229.593 E1.62528
G1 X206.763 Y229.91 E1.64434
G1 X207.397 Y229.276 E1.68248
G1 X207.08 Y228.959 E1.70155
G1 X206.763 Y229.276 E1.72061
G1 X206.446 Y228.959 E1.73968
G1 X206.763 Y228.642 E1.75875
G1 X206.446 Y228.324 E1.77781
G1 X205.812 Y228.959 E1.81595
G1 X206.129 Y229.276 E1.83502
G1 X205.812 Y229.593 E1.85408
G1 X205.177 Y228.959 E1.89222
G1 X205.495 Y228.642 E1.91128
G1 X205.177 Y228.324 E1.93035
G1 X204.86 Y228.642 E1.94942
G1 X204.226 Y228.007 E1.98755
G1 X204.543 Y227.69 E2.00662
G1 X204.86 Y228.007 E2.02569
G1 X205.177 Y227.69 E2.04475
G1 X204.86 Y227.373 E2.06382
G1 X205.177 Y227.056 E2.08289
G1 X205.812 Y227.69 E2.12102
G1 X205.495 Y228.007 E2.14009
G1 X205.812 Y228.324 E2.15916
G1 X206.446 Y227.69 E2.19729
G1 X206.763 Y227.373 E2.21636
G1 X206.446 Y227.056 E2.23543
G1 X206.129 Y227.373 E2.25449
G1 X205.495 Y226.739 E2.29263
G1 X205.812 Y226.422 E2.31169
G1 X206.129 Y226.739 E2.33076
G1 X206.446 Y226.422 E2.34983
G1 X206.129 Y226.105 E2.3689
G1 X206.446 Y225.787 E2.38796
G1 X207.08 Y226.422 E2.4261
G1 X206.763 Y226.739 E2.44516
G1 X207.08 Y227.056 E2.46423
G1 X207.397 Y226.739 E2.4833
G1 X208.032 Y227.373 E2.52143
G1 X207.715 Y227.69 E2.5405
G1 X207.397 Y227.373 E2.55957
G1 X206.763 Y228.007 E2.5977
G1 X207.08 Y228.324 E2.61677
G1 X207.397 Y228.007 E2.63584
G1 X207.715 Y228.324 E2.6549
G1 X207.397 Y228.642 E2.67397
G1 X207.715 Y228.959 E2.69304
G1 X208.349 Y228.324 E2.73117
G1 X208.032 Y228.007 E2.75024
G1 X208.349 Y227.69 E2.76931
G1 X208.983 Y228.324 E2.80744
G1 X208.666 Y228.642 E2.82651
G1 X208.983 Y228.959 E2.84557
G1 X209.3 Y228.642 E2.86464
G1 X209.935 Y229.276 E2.90278
G1 X209.617 Y229.593 E2.92184
G1 X209.3 Y229.276 E2.94091
G1 X208.983 Y229.593 E2.95998
G1 X209.3 Y229.91 E2.97904
G1 X208.983 Y230.227 E2.99811
G1 X208.349 Y229.593 E3.03624
G1 X208.666 Y229.276 E3.05531
G1 X208.349 Y228.959 E3.07438
G1 X207.715 Y229.593 E3.11251
G1 X208.032 Y229.91 E3.13158
G1 X207.715 Y230.227 E3.15065
G1 X207.397 Y229.91 E3.16971
G1 X206.763 Y230.544 E3.20785
G1 X207.08 Y230.862 E3.22692
G1 X207.397 Y230.544 E3.24598
G1 X207.695 Y230.842 E3.26388
G1 X208.269 Y230.781 F18000
G1 F3600
G1 X208.032 Y230.544 E3.27813
G1 X208.349 Y230.227 E3.29719
G1 X208.815 Y230.694 E3.32525
G1 X209.049 Y230.452 F18000
;TYPE:Gap infill
;WIDTH:0.247808
G1 F3600
G1 X208.981 Y230.673 E3.32956
G1 X209.063 Y230.709 E3.33123
;WIDTH:0.216253
G1 X209.145 Y230.745 E3.33263
G1 X209.34 Y230.584 F18000
;TYPE:Bottom surface
;WIDTH:0.5
G1 F3600
G1 X209.3 Y230.544 E3.33501
G1 X209.617 Y230.227 E3.35408
G1 X209.838 Y230.448 E3.36736
G1 X209.751 Y230.577 F18000
;TYPE:Gap infill
;WIDTH:0.235509
G1 F3600
G1 X209.997 Y230.421 E3.37244
G1 X210.022 Y230.427 E3.37289
;WIDTH:0.196917
G1 X210.046 Y230.432 E3.37324
;WIDTH:0.154525
G1 X210.122 Y230.424 E3.37398
G1 X210.125 Y230.358 E3.37463
G1 X210.123 Y230.356 F18000
;TYPE:Bottom surface
;WIDTH:0.5
G1 F3600
G1 X210.252 Y230.227 E3.38238
G1 X209.935 Y229.91 E3.40145
G1 X210.252 Y229.593 E3.42051
G1 X210.773 Y230.114 E3.45186
G1 X210.653 Y230.264 F18000
;TYPE:Gap infill
;WIDTH:0.137047
G1 F3600
G1 X210.769 Y230.186 E3.45299
;WIDTH:0.165712
G1 X210.851 Y230.13 E3.45406
;WIDTH:0.20165
G1 X210.932 Y230.075 E3.45546
;WIDTH:0.202344
G1 X210.932 Y230.05 E3.45581
;WIDTH:0.171237
G1 X210.936 Y230.027 E3.45608
;WIDTH:0.143575
G1 X210.94 Y230.003 E3.45629
;WIDTH:0.108639
G1 X210.951 Y229.817 E3.4573
G1 X211.091 Y230.072 F18000
;WIDTH:0.149318
G1 F3600
G1 X211.253 Y229.96 E3.45912
G1 X211.212 Y229.919 F18000
