; HEADER_BLOCK_START
; generated by AnycubicSlicerNext 1.1.1 on 2025-12-12 at 04:16:38
; total layer number: 44
; filament_density: 1.24
; filament_diameter: 1.75
; max_z_height: 8.84
; HEADER_BLOCK_END

; THUMBNAIL_BLOCK_START

;
; THUMBNAIL_BLOCK_END

; external perimeters extrusion width = 0.42mm
; perimeters extrusion width = 0.45mm
; infill extrusion width = 0.45mm
; solid infill extrusion width = 0.42mm
; top infill extrusion width = 0.42mm
; first layer extrusion width = 0.50mm

; external perimeters extrusion width = 0.42mm
; perimeters extrusion width = 0.45mm
; infill extrusion width = 0.45mm
; solid infill extrusion width = 0.42mm
; top infill extrusion width = 0.42mm
; first layer extrusion width = 0.50mm

; external perimeters extrusion width = 0.42mm
; perimeters extrusion width = 0.45mm
; infill extrusion width = 0.45mm
; solid infill extrusion width = 0.42mm
; top infill extrusion width = 0.42mm
; first layer extrusion width = 0.50mm

; external perimeters extrusion width = 0.42mm
; perimeters extrusion width = 0.45mm
; infill extrusion width = 0.45mm
; solid infill extrusion width = 0.42mm
; top infill extrusion width = 0.42mm
; first layer extrusion width = 0.50mm

; external perimeters extrusion width = 0.42mm
; perimeters extrusion width = 0.45mm
; infill extrusion width = 0.45mm
; solid infill extrusion width = 0.42mm
; top infill extrusion width = 0.42mm
; first layer extrusion width = 0.50mm

; EXECUTABLE_BLOCK_START
;TYPE:Custom
G90 ; use absolute coordinates
M83 ; extruder relative mode
M140 S60 ; set bed temp
M190 S60 ; wait for bed temp
M104 S220 ; set extruder temp
M109 S220 ; wait for extruder temp
G28                                        ; move X/Y/Z to min endstops
G1 Z0.28                                   ; lift nozzle a bit 
G92 E0 
G1 Y3 F2400                                    ; zero the extruded length 
G1 X180  E40 F500                       ; Extrude 25mm of filament in a 5cm line. 
G92 E0                                     ; zero the extruded length again 
G1 E-2 F3000                                ; Retract a little 
G1 X181 F4000                              ; Quickly wipe away from the filament line
M117
M900 K0.07
G90
G21
M82 ; use absolute distances for extrusion
G92 E0
; filament start gcode
M106 S0
;LAYER_CHANGE
;Z:0.24
;HEIGHT:0.24
G1 E-1.5 F1800
G92 E0
; layer num/total_layer_count: 1/44
; update layer progress
M991 S0 P0 ;notify layer change
;_SET_FAN_SPEED_CHANGING_LAYER
SET_VELOCITY_LIMIT ACCEL=5000 ACCEL_TO_DECEL=2500
; printing object FidgetSwitch-Case.stl id:72057598332895232 copy 0
G1 X206.781 Y206.306 F18000
G1 Z.24
G1 E1.5 F1800
;TYPE:Inner wall
;WIDTH:0.499999
G1 F3600
G1 X206.728 Y205.969 E1.51448
G1 X206.729 Y182.141 E2.52749
G1 X206.776 Y181.742 E2.54457
G1 X206.918 Y181.347 E2.56242
G1 X207.178 Y181.041 E2.57948
G1 X207.523 Y180.83 E2.59667
G1 X207.997 Y180.729 E2.6173
G1 X231.944 Y180.739 E3.63537
G1 X232.275 Y180.781 E3.64955
G1 X232.658 Y180.916 E3.6668
G1 X232.939 Y181.159 E3.68258
G1 X233.207 Y181.625 E3.70545
G1 X233.266 Y182.061 E3.72414
G1 X233.271 Y205.859 E4.73587
G1 X233.224 Y206.258 E4.75296
G1 X233.082 Y206.653 E4.7708
G1 X232.822 Y206.959 E4.78786
G1 X232.631 Y207.076 E4.79741
G1 X232.306 Y207.219 E4.81251
G1 X231.969 Y207.271 E4.82699
G1 X208.141 Y207.271 E5.83999
G1 X207.742 Y207.224 E5.85708
G1 X207.347 Y207.082 E5.87492
G1 X207.041 Y206.822 E5.89199
G1 X206.924 Y206.631 E5.90153
G1 X206.781 Y206.306 E5.91663
G1 X206.368 Y206.491 F18000
;TYPE:Outer wall
G1 F3600
G1 X206.35 Y206.429 E5.9194
G1 X206.28 Y205.986 E5.93844
G1 X206.281 Y181.988 E6.95871
G1 X206.367 Y181.472 E6.98094
G1 X206.536 Y181.103 E6.99819
G1 X206.883 Y180.696 E7.02092
G1 X207.34 Y180.416 E7.04374
G1 X207.572 Y180.349 E7.05397
G1 X207.978 Y180.281 E7.0715
G1 X232.171 Y180.291 E8.10001
G1 X232.671 Y180.42 E8.12197
G1 X233.041 Y180.645 E8.14038
G1 X233.39 Y180.997 E8.16144
G1 X233.636 Y181.479 E8.18445
G1 X233.714 Y182.061 E8.20942
G1 X233.719 Y206.012 E9.22768
G1 X233.633 Y206.528 E9.24991
G1 X233.464 Y206.897 E9.26716
G1 X233.117 Y207.304 E9.28989
G1 X232.66 Y207.584 E9.31271
G1 X232.429 Y207.65 E9.32291
G1 X231.986 Y207.72 E9.34195
G1 X207.988 Y207.719 E10.36222
G1 X207.472 Y207.633 E10.38445
G1 X207.103 Y207.464 E10.40171
G1 X206.696 Y207.117 E10.42444
G1 X206.416 Y206.66 E10.44725
G1 X206.368 Y206.491 E10.45469
G1 E9.45469 F1800
;WIPE_START
G1 F3600
G1 X206.35 Y206.429 E9.42211
G1 X206.28 Y205.986 E9.19817
G1 X206.28 Y205.499 E8.95469
;WIPE_END
G92 E0
G1 X207.065 Y205.596 F18000
G1 E1.5 F1800
;TYPE:Bottom surface
;WIDTH:0.5
G1 F3600
G1 X207.251 Y205.411 E1.51117
G1 X207.065 Y205.225 E1.52234
G1 X207.064 Y205.226 F18000
;TYPE:Gap infill
;WIDTH:0.130155
G1 F3600
G1 X206.99 Y204.869 E1.52506
G1 X206.99 Y204.683 E1.52644
G1 X207.064 Y204.326 E1.52916
G1 X207.065 Y204.328 F18000
;TYPE:Bottom surface
;WIDTH:0.5
G1 F3600
G1 X207.251 Y204.142 E1.54033
G1 X207.065 Y203.956 E1.55149
G1 X207.064 Y203.958 F18000
;TYPE:Gap infill
;WIDTH:0.13011
G1 F3600
G1 X206.99 Y203.601 E1.55421
G1 X206.99 Y203.415 E1.55559
G1 X207.064 Y203.058 E1.55831
G1 X207.065 Y203.059 F18000
;TYPE:Bottom surface
;WIDTH:0.5
G1 F3600
G1 X207.251 Y202.873 E1.56948
G1 X207.568 Y203.191 E1.58854
G1 X207.251 Y203.508 E1.60761
G1 X207.568 Y203.825 E1.62668
G1 X208.202 Y203.191 E1.66481
G1 X207.885 Y202.873 E1.68388
G1 X208.202 Y202.556 E1.70295
G1 X208.836 Y203.191 E1.74108
G1 X208.519 Y203.508 E1.76015
G1 X208.836 Y203.825 E1.77921
G1 X209.153 Y203.508 E1.79828
G1 X209.788 Y204.142 E1.83642
G1 X209.471 Y204.459 E1.85548
G1 X209.153 Y204.142 E1.87455
G1 X208.836 Y204.459 E1.89362
G1 X209.153 Y204.776 E1.91268
G1 X208.836 Y205.093 E1.93175
G1 X208.202 Y204.459 E1.96989
G1 X208.519 Y204.142 E1.98895
G1 X208.202 Y203.825 E2.00802
G1 X207.251 Y204.776 E2.06522
G1 X207.568 Y205.093 E2.08429
G1 X207.885 Y204.776 E2.10336
G1 X208.519 Y205.411 E2.14149
G1 X208.202 Y205.728 E2.16056
G1 X207.885 Y205.411 E2.17962
G1 X207.568 Y205.728 E2.19869
G1 X207.885 Y206.045 E2.21776
G1 X207.568 Y206.362 E2.23683
G1 X207.065 Y205.859 E2.26706
G1 X206.976 Y206.172 F18000
;TYPE:Gap infill
;WIDTH:0.260972
G1 F3600
G1 X207.142 Y206.383 E2.27239
;WIDTH:0.279084
G1 X207.308 Y206.594 E2.27818
;WIDTH:0.298063
G1 X207.475 Y206.721 E2.28308
;WIDTH:0.332159
G1 X207.513 Y206.734 E2.28414
G1 X207.53 Y206.772 E2.28525
;WIDTH:0.293007
G1 X207.564 Y206.813 E2.28647
;WIDTH:0.260197
G1 X207.592 Y206.841 E2.28725
;WIDTH:0.224688
G1 X207.838 Y207.012 E2.29217
G1 E.94222 F1800
;WIPE_START
G1 F3600
G1 X207.592 Y206.841 E.79217
;WIPE_END
G92 E0
G1 X209.043 Y206.886 F18000
G1 E1.5 F1800
;WIDTH:0.206591
G1 F3600
G1 X208.612 Y206.975 E1.50647
G1 X208.426 Y206.975 E1.5092
G1 X208.156 Y206.919 E1.51326
G1 X208.14 Y206.934 F18000
;TYPE:Bottom surface
;WIDTH:0.5
G1 F3600
G1 X207.885 Y206.679 E1.52861
G1 X208.202 Y206.362 E1.54767
G1 X208.519 Y206.679 E1.56674
G1 X208.836 Y206.362 E1.58581
G1 X208.519 Y206.045 E1.60488
G1 X208.836 Y205.728 E1.62394
G1 X209.471 Y206.362 E1.66208
G1 X209.153 Y206.679 E1.68114
G1 X209.409 Y206.934 E1.69649
G1 X209.532 Y206.934 F18000
G1 F3600
G1 X210.422 Y206.045 E1.74997
G1 X210.105 Y205.728 E1.76904
G1 X209.788 Y206.045 E1.78811
G1 X209.153 Y205.411 E1.82624
G1 X209.471 Y205.093 E1.84531
G1 X209.788 Y205.411 E1.86438
G1 X210.105 Y205.093 E1.88344
G1 X209.788 Y204.776 E1.90251
G1 X210.105 Y204.459 E1.92158
G1 X210.739 Y205.093 E1.95971
G1 X210.422 Y205.411 E1.97878
G1 X210.739 Y205.728 E1.99785
G1 X211.056 Y205.411 E2.01691
G1 X211.691 Y206.045 E2.05505
G1 X211.373 Y206.362 E2.07412
G1 X211.056 Y206.045 E2.09318
G1 X210.422 Y206.679 E2.13132
G1 X210.677 Y206.934 E2.14667
G1 X210.801 Y206.934 F18000
G1 F3600
G1 X211.056 Y206.679 E2.16202
G1 X211.312 Y206.934 E2.17737
G1 E1.03845 F1800
;WIPE_START
G1 F3600
G1 X211.056 Y206.679 E.85791
G1 X210.801 Y206.934 E.67737
;WIPE_END
G92 E0
G1 X216.241 Y206.886 F18000
G1 E1.5 F1800
;TYPE:Gap infill
;WIDTH:0.202418
G1 F3600
G1 X216.672 Y206.975 E1.5063
G1 X216.858 Y206.975 E1.50895
G1 X217.128 Y206.919 E1.5129
G1 X217.143 Y206.935 F18000
;TYPE:Bottom surface
;WIDTH:0.5
G1 F3600
G1 X217.399 Y206.679 E1.52826
G1 X217.082 Y206.362 E1.54733
G1 X216.765 Y206.679 E1.5664
G1 X216.448 Y206.362 E1.58547
G1 X216.765 Y206.045 E1.60453
G1 X216.448 Y205.728 E1.6236
G1 X215.813 Y206.362 E1.66173
G1 X216.13 Y206.679 E1.6808
G1 X215.875 Y206.935 E1.69616
G1 X215.752 Y206.935 F18000
G1 F3600
G1 X214.862 Y206.045 E1.74966
G1 X215.179 Y205.728 E1.76872
G1 X215.496 Y206.045 E1.78779
G1 X216.13 Y205.411 E1.82593
G1 X215.813 Y205.093 E1.84499
G1 X215.496 Y205.411 E1.86406
G1 X215.179 Y205.093 E1.88313
G1 X215.496 Y204.776 E1.90219
G1 X215.179 Y204.459 E1.92126
G1 X214.545 Y205.093 E1.9594
G1 X214.862 Y205.411 E1.97846
G1 X214.545 Y205.728 E1.99753
G1 X214.228 Y205.411 E2.0166
G1 X213.593 Y206.045 E2.05473
G1 X213.91 Y206.362 E2.0738
G1 X214.228 Y206.045 E2.09287
G1 X214.862 Y206.679 E2.131
G1 X214.606 Y206.935 E2.14636
G1 X214.483 Y206.935 F18000
G1 F3600
G1 X214.228 Y206.679 E2.16172
G1 X213.972 Y206.935 E2.17707
G1 X213.338 Y206.935 F18000
G1 F3600
G1 X213.593 Y206.679 E2.19243
G1 X213.276 Y206.362 E2.21149
G1 X212.704 Y206.934 E2.24592
G1 X212.688 Y206.919 F18000
;TYPE:Gap infill
;WIDTH:0.203935
G1 F3600
G1 X212.418 Y206.975 E2.24991
G1 X212.232 Y206.975 E2.25259
G1 X211.961 Y206.919 E2.25658
G1 X211.946 Y206.934 F18000
;TYPE:Bottom surface
;WIDTH:0.5
G1 F3600
G1 X211.691 Y206.679 E2.27194
G1 X212.008 Y206.362 E2.291
G1 X212.325 Y206.679 E2.31007
G1 X212.959 Y206.045 E2.3482
G1 X212.642 Y205.728 E2.36727
G1 X212.325 Y206.045 E2.38634
G1 X211.691 Y205.411 E2.42447
G1 X212.008 Y205.093 E2.44354
G1 X212.325 Y205.411 E2.46261
G1 X212.642 Y205.093 E2.48167
G1 X212.325 Y204.776 E2.50074
G1 X212.642 Y204.459 E2.51981
G1 X213.276 Y205.093 E2.55794
G1 X212.959 Y205.411 E2.57701
G1 X213.276 Y205.728 E2.59608
G1 X213.91 Y205.093 E2.63421
G1 X213.593 Y204.776 E2.65328
G1 X213.91 Y204.459 E2.67235
G1 X214.228 Y204.776 E2.69141
G1 X214.862 Y204.142 E2.72955
G1 X214.545 Y203.825 E2.74861
G1 X214.228 Y204.142 E2.76768
G1 X213.91 Y203.825 E2.78675
G1 X214.228 Y203.508 E2.80582
G1 X213.91 Y203.191 E2.82488
G1 X213.276 Y203.825 E2.86302
G1 X213.593 Y204.142 E2.88208
G1 X213.276 Y204.459 E2.90115
G1 X212.325 Y203.508 E2.95835
G1 X212.642 Y203.191 E2.97742
G1 X212.959 Y203.508 E2.99649
G1 X213.593 Y202.873 E3.03462
G1 X213.276 Y202.556 E3.05369
G1 X212.959 Y202.873 E3.07276
G1 X212.642 Y202.556 E3.09182
G1 X212.959 Y202.239 E3.11089
G1 X212.642 Y201.922 E3.12996
G1 X212.008 Y202.556 E3.16809
G1 X212.325 Y202.873 E3.18716
G1 X212.008 Y203.191 E3.20623
G1 X211.691 Y202.873 E3.22529
G1 X211.056 Y203.508 E3.26343
G1 X211.373 Y203.825 E3.28249
G1 X211.691 Y203.508 E3.30156
G1 X212.325 Y204.142 E3.3397
G1 X212.008 Y204.459 E3.35876
G1 X211.691 Y204.142 E3.37783
G1 X211.373 Y204.459 E3.3969
G1 X211.691 Y204.776 E3.41596
G1 X211.373 Y205.093 E3.43503
G1 X210.739 Y204.459 E3.47317
G1 X211.056 Y204.142 E3.49223
G1 X210.739 Y203.825 E3.5113
G1 X210.422 Y204.142 E3.53037
G1 X210.105 Y203.825 E3.54943
G1 X210.422 Y203.508 E3.5685
G1 X210.105 Y203.191 E3.58757
G1 X209.788 Y203.508 E3.60663
G1 X209.153 Y202.873 E3.64477
G1 X209.471 Y202.556 E3.66384
G1 X209.788 Y202.873 E3.6829
G1 X210.105 Y202.556 E3.70197
G1 X209.788 Y202.239 E3.72104
G1 X210.105 Y201.922 E3.7401
G1 X210.739 Y202.556 E3.77824
G1 X210.422 Y202.873 E3.79731
G1 X210.739 Y203.191 E3.81637
G1 X211.373 Y202.556 E3.85451
G1 X211.056 Y202.239 E3.87357
G1 X211.373 Y201.922 E3.89264
G1 X211.691 Y202.239 E3.91171
G1 X212.325 Y201.605 E3.94984
G1 X212.008 Y201.288 E3.96891
G1 X211.691 Y201.605 E3.98798
G1 X211.373 Y201.288 E4.00704
G1 X211.691 Y200.971 E4.02611
G1 X211.373 Y200.654 E4.04518
G1 X210.739 Y201.288 E4.08331
G1 X211.056 Y201.605 E4.10238
G1 X210.739 Y201.922 E4.12145
G1 X210.105 Y201.288 E4.15958
G1 X209.788 Y200.971 E4.17865
G1 X210.105 Y200.654 E4.19772
G1 X210.422 Y200.971 E4.21678
G1 X211.056 Y200.336 E4.25492
G1 X210.739 Y200.019 E4.27398
G1 X210.422 Y200.336 E4.29305
G1 X210.105 Y200.019 E4.31212
G1 X210.422 Y199.702 E4.33119
G1 X210.105 Y199.385 E4.35025
G1 X209.471 Y200.019 E4.38839
G1 X209.788 Y200.336 E4.40745
G1 X209.471 Y200.654 E4.42652
G1 X209.153 Y200.336 E4.44559
G1 X208.519 Y200.971 E4.48372
G1 X208.836 Y201.288 E4.50279
G1 X209.153 Y200.971 E4.52186
G1 X209.788 Y201.605 E4.55999
G1 X209.471 Y201.922 E4.57906
G1 X209.153 Y201.605 E4.59813
G1 X208.836 Y201.922 E4.61719
G1 X209.153 Y202.239 E4.63626
G1 X208.836 Y202.556 E4.65533
G1 X208.202 Y201.922 E4.69346
G1 X208.519 Y201.605 E4.71253
G1 X208.202 Y201.288 E4.7316
G1 X207.568 Y201.922 E4.76973
G1 X207.885 Y202.239 E4.7888
G1 X207.568 Y202.556 E4.80786
G1 X207.251 Y202.239 E4.82693
G1 X207.065 Y202.425 E4.83809
G1 X206.953 Y202.207 F18000
;TYPE:Gap infill
;WIDTH:0.294947
G1 F3600
G1 X207.076 Y201.922 E4.84526
G1 X207.117 Y201.922 E4.84619
;WIDTH:0.252568
G1 X207.158 Y201.922 E4.84697
;WIDTH:0.237258
G1 X207.344 Y201.922 E4.85024
G1 X207.065 Y201.419 F18000
;TYPE:Bottom surface
;WIDTH:0.5
G1 F3600
G1 X207.251 Y201.605 E4.8614
G1 X207.885 Y200.971 E4.89954
G1 X207.568 Y200.654 E4.9186
G1 X207.251 Y200.971 E4.93767
G1 X207.065 Y200.785 E4.94883
G1 E3.94883 F1800
;WIPE_START
G1 F3600
G1 X207.251 Y200.971 E3.81758
G1 X207.568 Y200.654 E3.59333
G1 X207.772 Y200.858 E3.44883
;WIPE_END
G92 E0
G1 X207.065 Y197.614 F18000
G1 E1.5 F1800
G1 F3600
G1 X207.251 Y197.799 E1.51115
G1 X207.065 Y197.985 E1.52231
G1 X207.064 Y197.983 F18000
;TYPE:Gap infill
;WIDTH:0.129931
G1 F3600
G1 X206.99 Y198.341 E1.52502
G1 X206.99 Y198.527 E1.5264
G1 X207.064 Y198.884 E1.52911
G1 X207.065 Y198.882 F18000
;TYPE:Bottom surface
;WIDTH:0.5
G1 F3600
G1 X207.251 Y199.068 E1.54027
G1 X207.065 Y199.253 E1.55143
G1 X207.064 Y199.252 F18000
;TYPE:Gap infill
;WIDTH:0.129975
G1 F3600
G1 X206.99 Y199.609 E1.55414
G1 X206.99 Y199.795 E1.55552
G1 X207.064 Y200.152 E1.55824
G1 X207.065 Y200.151 F18000
;TYPE:Bottom surface
;WIDTH:0.5
G1 F3600
G1 X207.251 Y200.336 E1.56939
G1 X207.568 Y200.019 E1.58846
G1 X207.251 Y199.702 E1.60753
G1 X207.568 Y199.385 E1.6266
G1 X208.202 Y200.019 E1.66473
G1 X207.885 Y200.336 E1.6838
G1 X208.202 Y200.654 E1.70286
G1 X208.836 Y200.019 E1.741
G1 X208.519 Y199.702 E1.76007
G1 X208.836 Y199.385 E1.77913
G1 X209.153 Y199.702 E1.7982
G1 X209.788 Y199.068 E1.83633
G1 X209.471 Y198.751 E1.8554
G1 X209.153 Y199.068 E1.87447
G1 X208.836 Y198.751 E1.89354
G1 X209.153 Y198.434 E1.9126
G1 X208.836 Y198.116 E1.93167
G1 X208.202 Y198.751 E1.9698
G1 X208.519 Y199.068 E1.98887
G1 X208.202 Y199.385 E2.00794
G1 X207.251 Y198.434 E2.06514
G1 X207.568 Y198.116 E2.08421
G1 X207.885 Y198.434 E2.10327
G1 X208.519 Y197.799 E2.14141
G1 X208.202 Y197.482 E2.16048
G1 X207.885 Y197.799 E2.17954
G1 X207.568 Y197.482 E2.19861
G1 X207.885 Y197.165 E2.21768
G1 X207.568 Y196.848 E2.23674
G1 X207.065 Y197.351 E2.26696
G1 X207.065 Y196.716 F18000
G1 F3600
G1 X207.251 Y196.531 E2.27812
G1 X207.065 Y196.345 E2.28927
G1 X207.064 Y196.347 F18000
;TYPE:Gap infill
;WIDTH:0.12984
G1 F3600
G1 X206.99 Y195.989 E2.29198
G1 X206.99 Y195.804 E2.29336
G1 X207.064 Y195.446 E2.29607
G1 X207.065 Y195.448 F18000
;TYPE:Bottom surface
;WIDTH:0.5
G1 F3600
G1 X207.251 Y195.262 E2.30722
G1 X207.568 Y195.579 E2.32628
G1 X207.251 Y195.897 E2.34535
G1 X207.568 Y196.214 E2.36442
G1 X208.202 Y195.579 E2.40255
G1 X207.885 Y195.262 E2.42162
G1 X208.202 Y194.945 E2.44069
G1 X208.519 Y195.262 E2.45975
G1 X209.153 Y194.628 E2.49789
G1 X208.836 Y194.311 E2.51695
G1 X208.519 Y194.628 E2.53602
G1 X207.885 Y193.994 E2.57416
G1 X208.202 Y193.677 E2.59322
G1 X208.519 Y193.994 E2.61229
G1 X208.836 Y193.677 E2.63136
G1 X208.519 Y193.359 E2.65042
G1 X208.836 Y193.042 E2.66949
G1 X209.471 Y193.677 E2.70763
G1 X209.153 Y193.994 E2.72669
G1 X209.471 Y194.311 E2.74576
G1 X209.788 Y193.994 E2.76483
G1 X210.105 Y194.311 E2.78389
G1 X209.788 Y194.628 E2.80296
G1 X210.105 Y194.945 E2.82203
G1 X210.422 Y194.628 E2.8411
G1 X211.056 Y195.262 E2.87923
G1 X210.739 Y195.579 E2.8983
G1 X210.422 Y195.262 E2.91736
G1 X210.105 Y195.579 E2.93643
G1 X210.422 Y195.897 E2.9555
