; HEADER_BLOCK_START
; generated by AnycubicSlicerNext 1.1.1 on 2025-12-12 at 13:57:46
; total layer number: 115
; filament_density: 1.24
; filament_diameter: 1.75
; max_z_height: 23.04
; HEADER_BLOCK_END

; THUMBNAIL_BLOCK_START

;
; THUMBNAIL_BLOCK_END

; external perimeters extrusion width = 0.42mm
; perimeters extrusion width = 0.45mm
; infill extrusion width = 0.45mm
; solid infill extrusion width = 0.42mm
; top infill extrusion width = 0.42mm
; first layer extrusion width = 0.50mm

; EXECUTABLE_BLOCK_START
;TYPE:Custom
G90 ; use absolute coordinates
M83 ; extruder relative mode
M140 S60 ; set bed temp
M190 S60 ; wait for bed temp
M104 S220 ; set extruder temp
M109 S220 ; wait for extruder temp
G28                                        ; move X/Y/Z to min endstops
G1 Z0.28                                   ; lift nozzle a bit 
G92 E0 
G1 Y3 F2400                                    ; zero the extruded length 
G1 X180  E40 F500                       ; Extrude 25mm of filament in a 5cm line. 
G92 E0                                     ; zero the extruded length again 
G1 E-2 F3000                                ; Retract a little 
G1 X181 F4000                              ; Quickly wipe away from the filament line
M117
M900 K0.07
G90
G21
M82 ; use absolute distances for extrusion
G92 E0
; filament start gcode
M106 S0
;LAYER_CHANGE
;Z:0.24
;HEIGHT:0.24
G1 E-1.5 F1800
G92 E0
; layer num/total_layer_count: 1/115
; update layer progress
M991 S0 P0 ;notify layer change
;_SET_FAN_SPEED_CHANGING_LAYER
SET_VELOCITY_LIMIT ACCEL=5000 ACCEL_TO_DECEL=2500
; printing object hemisphere.stl id:1769956378368 copy 0
G1 X210.567 Y231.289 F18000
G1 Z.24
G1 E1.5 F1800
;TYPE:Outer wall
;WIDTH:0.497198
G1 F3600
G1 X210.587 Y230.22 E1.54518
;WIDTH:0.480658
G1 X211.005 Y230.22 E1.56219
G1 X211.011 Y230.429 E1.57069
;WIDTH:0.497198
G1 X211.025 Y231.289 E1.60705
G1 X210.567 Y231.289 E1.62638
G1 E.62638 F1800
;WIPE_START
G1 F3600
G1 X210.586 Y230.289 E.12638
;WIPE_END
G92 E0
G1 X189.507 Y209.771 F18000
G1 E1.5 F1800
G1 F3600
G1 X190.576 Y209.791 E1.54518
;WIDTH:0.480659
G1 X190.576 Y210.209 E1.56219
G1 X190.368 Y210.215 E1.57069
;WIDTH:0.497198
G1 X189.507 Y210.229 E1.60705
G1 X189.507 Y209.771 E1.62638
G1 E.62638 F1800
;WIPE_START
G1 F3600
G1 X190.507 Y209.79 E.12638
;WIPE_END
G92 E0
G1 X211.025 Y188.711 F18000
G1 E1.5 F1800
;WIDTH:0.497207
G1 F3600
G1 X211.019 Y188.939 E1.50967
G1 X211.005 Y189.78 E1.5452
;WIDTH:0.480658
G1 X210.587 Y189.78 E1.56221
G1 X210.582 Y189.571 E1.57071
;WIDTH:0.497207
G1 X210.567 Y188.711 E1.60708
G1 X211.025 Y188.711 E1.62641
G1 E.62641 F1800
;WIPE_START
G1 F3600
G1 X211.019 Y188.939 E.51197
G1 X211.006 Y189.71 E.12641
;WIPE_END
G92 E0
G1 X232.495 Y200.442 F18000
G1 E1.5 F1800
;TYPE:Inner wall
;WIDTH:0.431212
G1 F3600
G1 X231.994 Y199.369 E1.54265
;WIDTH:0.430898
G1 X231.601 Y198.619 E1.57309
;WIDTH:0.430601
G1 X231.181 Y197.884 E1.60351
;WIDTH:0.430341
G1 X230.736 Y197.164 E1.6339
;WIDTH:0.430101
G1 X230.265 Y196.461 E1.66428
;WIDTH:0.429962
G1 X229.769 Y195.774 E1.69464
G1 X229.249 Y195.107 E1.72501
;WIDTH:0.42945
G1 X228.706 Y194.458 E1.75533
G1 X228.14 Y193.828 E1.78566
;WIDTH:0.432738
G1 X227.217 Y192.894 E1.83312
G1 X226.623 Y192.344 E1.86236
G1 X226.012 Y191.814 E1.89159
G1 X225.383 Y191.306 E1.92083
G1 X224.736 Y190.819 E1.95007
;WIDTH:0.432592
G1 X224.074 Y190.354 E1.97929
G1 X223.396 Y189.913 E2.00852
;WIDTH:0.432475
G1 X222.704 Y189.494 E2.03774
;WIDTH:0.432329
G1 X221.996 Y189.099 E2.06698
;WIDTH:0.432169
G1 X221.384 Y188.781 E2.09187
;WIDTH:0.431713
G1 X220.545 Y188.384 E2.12534
G1 X219.803 Y188.064 E2.15446
;WIDTH:0.431451
G1 X219.05 Y187.769 E2.1836
;WIDTH:0.431158
G1 X218.261 Y187.492 E2.21367
;WIDTH:0.436362
G1 X216.732 Y187.047 E2.2718
;WIDTH:0.434969
G1 X215.821 Y186.825 E2.30585
;WIDTH:0.430063
G1 X214.991 Y186.66 E2.33623
;WIDTH:0.42986
G1 X214.155 Y186.526 E2.36659
;WIDTH:0.429687
G1 X213.315 Y186.421 E2.39693
;WIDTH:0.429542
G1 X212.472 Y186.347 E2.42726
;WIDTH:0.429844
G1 X211.595 Y186.3 E2.45877
;WIDTH:0.432769
G1 X210.314 Y186.293 E2.50508
G1 X209.51 Y186.323 E2.53412
G1 X208.016 Y186.452 E2.58832
;WIDTH:0.432582
G1 X207.096 Y186.579 E2.62187
G1 X205.624 Y186.858 E2.67599
;WIDTH:0.43229
G1 X204.722 Y187.079 E2.70951
G1 X203.944 Y187.299 E2.73871
;WIDTH:0.432133
G1 X203.286 Y187.506 E2.76359
;WIDTH:0.431667
G1 X202.412 Y187.819 E2.79706
G1 X201.66 Y188.117 E2.82621
;WIDTH:0.43142
G1 X200.932 Y188.435 E2.85481
;WIDTH:0.430793
G1 X200.169 Y188.801 E2.88524
G1 X199.419 Y189.194 E2.91567
;WIDTH:0.430596
G1 X198.684 Y189.613 E2.94609
;WIDTH:0.430047
G1 X197.964 Y190.058 E2.97646
G1 X197.26 Y190.529 E3.00683
G1 X196.574 Y191.025 E3.0372
;WIDTH:0.429515
G1 X195.906 Y191.544 E3.06753
G1 X195.257 Y192.088 E3.09786
;WIDTH:0.432618
G1 X194.86 Y192.442 E3.11709
;WIDTH:0.432759
G1 X194.356 Y192.913 E3.14201
G1 X193.7 Y193.57 E3.17557
G1 X193.15 Y194.162 E3.20476
G1 X192.184 Y195.309 E3.25896
;WIDTH:0.43256
G1 X191.623 Y196.049 E3.2925
G1 X190.779 Y197.287 E3.34662
;WIDTH:0.43226
G1 X190.297 Y198.081 E3.38014
G1 X189.902 Y198.787 E3.40934
;WIDTH:0.432099
G1 X189.584 Y199.398 E3.43422
;WIDTH:0.431621
G1 X189.186 Y200.237 E3.46768
G1 X188.865 Y200.98 E3.49683
;WIDTH:0.431371
G1 X188.572 Y201.727 E3.52573
;WIDTH:0.430825
G1 X188.255 Y202.641 E3.5605
G1 X188.039 Y203.331 E3.58649
;WIDTH:0.430558
G1 X187.816 Y204.147 E3.6169
;WIDTH:0.430025
G1 X187.622 Y204.971 E3.64727
G1 X187.457 Y205.801 E3.67764
G1 X187.323 Y206.637 E3.70801
;WIDTH:0.429489
G1 X187.217 Y207.477 E3.73834
G1 X187.142 Y208.32 E3.76866
;WIDTH:0.432699
G1 X187.089 Y209.535 E3.81262
G1 X187.089 Y210.465 E3.84621
G1 X187.113 Y211.154 E3.87113
G1 X187.166 Y211.961 E3.90036
G1 X187.261 Y212.885 E3.93392
G1 X187.354 Y213.568 E3.95883
;WIDTH:0.432221
G1 X187.489 Y214.366 E3.98803
;WIDTH:0.432401
G1 X187.678 Y215.275 E4.02156
G1 X187.84 Y215.945 E4.04645
;WIDTH:0.431558
G1 X188.056 Y216.726 E4.07565
;WIDTH:0.431281
G1 X188.299 Y217.499 E4.1048
;WIDTH:0.431596
G1 X188.61 Y218.372 E4.13819
G1 X188.891 Y219.084 E4.16579
;WIDTH:0.430395
G1 X189.23 Y219.86 E4.19619
;WIDTH:0.43015
G1 X189.596 Y220.624 E4.22658
;WIDTH:0.430522
G1 X189.988 Y221.374 E4.25698
G1 X190.407 Y222.109 E4.2874
;WIDTH:0.429591
G1 X190.853 Y222.829 E4.31773
;WIDTH:0.430001
G1 X191.323 Y223.532 E4.3481
G1 X191.819 Y224.219 E4.37847
;WIDTH:0.429296
G1 X192.338 Y224.887 E4.40878
;WIDTH:0.432512
G1 X192.696 Y225.318 E4.42901
;WIDTH:0.432681
G1 X193.7 Y226.43 E4.48315
G1 X194.356 Y227.087 E4.5167
G1 X194.86 Y227.558 E4.54162
G1 X195.468 Y228.091 E4.57085
G1 X196.188 Y228.677 E4.6044
G1 X196.737 Y229.095 E4.62932
;WIDTH:0.432205
G1 X197.396 Y229.564 E4.65851
;WIDTH:0.432372
G1 X198.173 Y230.073 E4.69204
G1 X198.761 Y230.433 E4.71693
;WIDTH:0.431531
G1 X199.466 Y230.832 E4.74612
;WIDTH:0.431246
G1 X200.189 Y231.21 E4.77546
;WIDTH:0.431549
G1 X201.021 Y231.605 E4.80865
G1 X201.729 Y231.912 E4.83645
;WIDTH:0.43037
G1 X202.517 Y232.221 E4.86685
;WIDTH:0.430129
G1 X203.315 Y232.503 E4.89723
;WIDTH:0.430483
G1 X204.123 Y232.756 E4.92764
G1 X204.939 Y232.979 E4.95804
;WIDTH:0.429579
G1 X205.763 Y233.173 E4.98838
;WIDTH:0.429977
G1 X206.593 Y233.338 E5.01874
G1 X207.429 Y233.473 E5.04911
;WIDTH:0.429298
G1 X208.269 Y233.578 E5.07942
;WIDTH:0.432516
G1 X208.821 Y233.629 E5.09946
;WIDTH:0.432774
G1 X210.319 Y233.707 E5.15366
;WIDTH:0.43266
G1 X211.128 Y233.709 E5.18289
G1 X211.937 Y233.684 E5.21212
G1 X212.743 Y233.632 E5.2413
G1 X213.666 Y233.537 E5.27485
G1 X214.35 Y233.445 E5.29977
;WIDTH:0.432186
G1 X215.149 Y233.31 E5.32901
;WIDTH:0.431985
G1 X215.941 Y233.148 E5.35819
;WIDTH:0.431755
G1 X216.728 Y232.959 E5.38735
;WIDTH:0.431499
G1 X217.508 Y232.744 E5.4165
;WIDTH:0.431212
G1 X218.291 Y232.499 E5.44603
;WIDTH:0.430899
G1 X219.089 Y232.217 E5.47647
;WIDTH:0.430606
G1 X219.877 Y231.906 E5.50689
;WIDTH:0.430915
G1 X220.653 Y231.569 E5.53733
G1 X221.416 Y231.203 E5.56777
;WIDTH:0.429896
G1 X222.166 Y230.81 E5.59813
;WIDTH:0.429719
G1 X222.901 Y230.391 E5.62848
;WIDTH:0.429569
G1 X223.621 Y229.946 E5.65881
;WIDTH:0.429448
G1 X224.325 Y229.476 E5.68914
;WIDTH:0.429264
G1 X225.011 Y228.98 E5.71945
G1 X225.68 Y228.461 E5.74975
G1 X226.335 Y227.913 E5.78034
;WIDTH:0.435654
G1 X227.263 Y227.061 E5.82622
G1 X228.345 Y225.947 E5.88277
;WIDTH:0.432599
G1 X228.879 Y225.339 E5.912
;WIDTH:0.432485
G1 X229.392 Y224.713 E5.94122
;WIDTH:0.43234
G1 X229.883 Y224.07 E5.97042
;WIDTH:0.432165
G1 X230.352 Y223.411 E5.99962
;WIDTH:0.431961
G1 X230.798 Y222.737 E6.02875
;WIDTH:0.43214
G1 X231.281 Y221.944 E6.06226
G1 X231.621 Y221.344 E6.08714
;WIDTH:0.431176
G1 X232.004 Y220.611 E6.1169
;WIDTH:0.430778
G1 X232.495 Y219.558 E6.15869
G1 X232.91 Y219.558 E6.17358
;WIDTH:0.431212
G1 X232.33 Y220.807 E6.22316
;WIDTH:0.430899
G1 X231.931 Y221.568 E6.25406
;WIDTH:0.430677
G1 X231.503 Y222.314 E6.28495
;WIDTH:0.4301
G1 X231.051 Y223.046 E6.31582
G1 X230.572 Y223.76 E6.34667
;WIDTH:0.429895
G1 X230.069 Y224.456 E6.37751
;WIDTH:0.42972
G1 X229.54 Y225.135 E6.40833
;WIDTH:0.429568
G1 X228.988 Y225.793 E6.43913
;WIDTH:0.429451
G1 X228.406 Y226.44 E6.47029
;WIDTH:0.435631
G1 X227.478 Y227.383 E6.51849
G1 X226.963 Y227.861 E6.54409
G1 X226.253 Y228.481 E6.5784
;WIDTH:0.432739
G1 X225.614 Y228.997 E6.60807
G1 X224.957 Y229.492 E6.63779
;WIDTH:0.432592
G1 X224.284 Y229.964 E6.66749
G1 X223.595 Y230.412 E6.6972
;WIDTH:0.432474
G1 X222.891 Y230.837 E6.7269
;WIDTH:0.432329
G1 X222.173 Y231.238 E6.75658
;WIDTH:0.432152
G1 X221.44 Y231.614 E6.78628
;WIDTH:0.431964
G1 X220.783 Y231.926 E6.81251
;WIDTH:0.431451
G1 X219.941 Y232.291 E6.84558
G1 X219.176 Y232.589 E6.87515
;WIDTH:0.431157
G1 X218.383 Y232.868 E6.90539
;WIDTH:0.430845
G1 X217.562 Y233.123 E6.9363
;WIDTH:0.430556
G1 X216.733 Y233.35 E6.96719
;WIDTH:0.430295
G1 X215.896 Y233.546 E6.99806
;WIDTH:0.430064
G1 X215.053 Y233.713 E7.02891
;WIDTH:0.429942
G1 X214.204 Y233.85 E7.05973
G1 X213.351 Y233.954 E7.09057
;WIDTH:0.429426
G1 X212.495 Y234.031 E7.12138
G1 X211.636 Y234.077 E7.15217
;WIDTH:0.432675
G1 X210.308 Y234.088 E7.20015
G1 X208.785 Y234.009 E7.25527
G1 X207.847 Y233.912 E7.28933
G1 X206.341 Y233.677 E7.34441
;WIDTH:0.43244
G1 X205.418 Y233.485 E7.37844
G1 X204.62 Y233.288 E7.40812
;WIDTH:0.432312
G1 X203.944 Y233.098 E7.43348
;WIDTH:0.431904
G1 X203.046 Y232.812 E7.46747
G1 X202.273 Y232.535 E7.49707
;WIDTH:0.431668
G1 X201.508 Y232.231 E7.52673
;WIDTH:0.43142
G1 X200.769 Y231.906 E7.5558
;WIDTH:0.430793
G1 X199.993 Y231.535 E7.58673
G1 X199.232 Y231.136 E7.61764
;WIDTH:0.430505
G1 X198.486 Y230.71 E7.64851
;WIDTH:0.430385
G1 X197.756 Y230.256 E7.67938
;WIDTH:0.429921
G1 X197.04 Y229.779 E7.71023
G1 X196.344 Y229.276 E7.74105
G1 X195.666 Y228.746 E7.77189
;WIDTH:0.429402
G1 X195.006 Y228.195 E7.8027
;WIDTH:0.432618
G1 X194.602 Y227.839 E7.82214
;WIDTH:0.432769
G1 X194.089 Y227.359 E7.84754
G1 X193.423 Y226.692 E7.8816
G1 X192.402 Y225.56 E7.9367
;WIDTH:0.432656
G1 X191.808 Y224.829 E7.97075
G1 X190.908 Y223.598 E8.02583
;WIDTH:0.432413
G1 X190.391 Y222.81 E8.05985
G1 X189.966 Y222.107 E8.08953
;WIDTH:0.432281
G1 X189.621 Y221.494 E8.11489
;WIDTH:0.431864
G1 X189.188 Y220.657 E8.14887
G1 X188.838 Y219.915 E8.17848
;WIDTH:0.431623
G1 X188.512 Y219.159 E8.20814
;WIDTH:0.431371
G1 X188.217 Y218.402 E8.2374
;WIDTH:0.430742
G1 X187.93 Y217.591 E8.26832
G1 X187.674 Y216.77 E8.29922
;WIDTH:0.43046
G1 X187.448 Y215.941 E8.33008
;WIDTH:0.430349
G1 X187.252 Y215.104 E8.36095
;WIDTH:0.429788
G1 X187.084 Y214.261 E8.3918
;WIDTH:0.429902
G1 X186.947 Y213.412 E8.42261
G1 X186.842 Y212.559 E8.45345
;WIDTH:0.429379
G1 X186.765 Y211.703 E8.48425
;WIDTH:0.432619
G1 X186.732 Y211.171 E8.50351
;WIDTH:0.432733
G1 X186.708 Y210.468 E8.52891
G1 X186.708 Y209.525 E8.56299
G1 X186.732 Y208.823 E8.58837
;WIDTH:0.43262
G1 X186.786 Y208.002 E8.61812
;WIDTH:0.432512
G1 X186.868 Y207.184 E8.6478
;WIDTH:0.432627
G1 X186.997 Y206.251 E8.68183
G1 X187.116 Y205.559 E8.7072
;WIDTH:0.432032
G1 X187.281 Y204.753 E8.73688
;WIDTH:0.432242
G1 X187.505 Y203.838 E8.77087
G1 X187.694 Y203.161 E8.79622
;WIDTH:0.432872
G1 X187.942 Y202.377 E8.82597
G1 X188.256 Y201.489 E8.86001
;WIDTH:0.431596
G1 X188.544 Y200.765 E8.88808
;WIDTH:0.430394
G1 X188.888 Y199.977 E8.91897
;WIDTH:0.430752
G1 X189.259 Y199.201 E8.94988
G1 X189.659 Y198.441 E8.98076
;WIDTH:0.429751
G1 X190.085 Y197.694 E9.0116
;WIDTH:0.430145
G1 X190.537 Y196.962 E9.04245
G1 X191.015 Y196.249 E9.07329
;WIDTH:0.429364
G1 X191.519 Y195.552 E9.1041
;WIDTH:0.432383
G1 X191.886 Y195.072 E9.1259
;WIDTH:0.432728
G1 X192.869 Y193.905 E9.18104
G1 X193.428 Y193.303 E9.21073
G1 X194.094 Y192.637 E9.24477
G1 X194.607 Y192.157 E9.27015
;WIDTH:0.432618
G1 X195.226 Y191.614 E9.2999
;WIDTH:0.432503
G1 X195.862 Y191.094 E9.32957
;WIDTH:0.432606
G1 X196.612 Y190.525 E9.3636
G1 X197.186 Y190.119 E9.38897
;WIDTH:0.432009
G1 X197.873 Y189.666 E9.41865
;WIDTH:0.432208
G1 X198.677 Y189.177 E9.45263
G1 X199.289 Y188.832 E9.47799
;WIDTH:0.431248
G1 X200.025 Y188.448 E9.50786
;WIDTH:0.431548
G1 X200.869 Y188.047 E9.54153
G1 X201.59 Y187.736 E9.56979
;WIDTH:0.43037
G1 X202.39 Y187.422 E9.60068
;WIDTH:0.430709
G1 X203.201 Y187.135 E9.63158
G1 X204.021 Y186.88 E9.66246
;WIDTH:0.429734
G1 X204.851 Y186.654 E9.6933
;WIDTH:0.430115
G1 X205.687 Y186.456 E9.72415
G1 X206.53 Y186.289 E9.75499
;WIDTH:0.429363
G1 X207.38 Y186.153 E9.78579
;WIDTH:0.432394
G1 X207.973 Y186.073 E9.8074
;WIDTH:0.432693
G1 X209.493 Y185.943 E9.86253
G1 X210.307 Y185.912 E9.89198
G1 X210.809 Y185.913 E9.9101
;WIDTH:0.428974
G1 X211.668 Y185.925 E9.94085
;WIDTH:0.432471
G1 X212.784 Y185.989 E9.9812
G1 X213.598 Y186.071 E10.01075
;WIDTH:0.432264
G1 X214.413 Y186.18 E10.04043
G1 X215.224 Y186.317 E10.07012
G1 X216.029 Y186.482 E10.09979
G1 X217.125 Y186.756 E10.14055
;WIDTH:0.436362
G1 X218.417 Y187.144 E10.18976
;WIDTH:0.430899
G1 X219.228 Y187.43 E10.22068
;WIDTH:0.430606
G1 X220.027 Y187.746 E10.25158
;WIDTH:0.430341
G1 X220.815 Y188.09 E10.28246
;WIDTH:0.430665
G1 X221.591 Y188.461 E10.31336
G1 X222.352 Y188.86 E10.34424
;WIDTH:0.429718
G1 X223.098 Y189.286 E10.37506
;WIDTH:0.429569
G1 X223.83 Y189.739 E10.40587
;WIDTH:0.429359
G1 X224.544 Y190.217 E10.43665
G1 X225.217 Y190.702 E10.46639
;WIDTH:0.432772
G1 X226.259 Y191.524 E10.51434
G1 X226.88 Y192.062 E10.54406
G1 X227.483 Y192.622 E10.57378
;WIDTH:0.432643
G1 X228.066 Y193.201 E10.60348
G1 X228.63 Y193.8 E10.6332
G1 X229.172 Y194.418 E10.66288
G1 X229.767 Y195.148 E10.69691
G1 X230.192 Y195.707 E10.72229
;WIDTH:0.432169
G1 X230.669 Y196.378 E10.752
;WIDTH:0.431961
G1 X231.122 Y197.064 E10.78166
;WIDTH:0.431729
G1 X231.552 Y197.766 E10.8113
;WIDTH:0.43147
G1 X231.958 Y198.481 E10.84092
;WIDTH:0.431176
G1 X232.346 Y199.225 E10.87112
;WIDTH:0.430778
G1 X232.91 Y200.442 E10.91934
G1 X232.495 Y200.442 E10.93424
G1 X232.224 Y200.856 F18000
;TYPE:Outer wall
;WIDTH:0.499999
G1 F3600
G1 X231.627 Y199.561 E10.99489
G1 X231.241 Y198.824 E11.03024
G1 X230.829 Y198.101 E11.0656
G1 X230.392 Y197.394 E11.10096
G1 X229.929 Y196.703 E11.13632
G1 X229.443 Y196.028 E11.17167
G1 X228.932 Y195.372 E11.20703
G1 X228.399 Y194.734 E11.24239
G1 X227.492 Y193.752 E11.29919
G1 X226.929 Y193.193 E11.33295
G1 X226.346 Y192.653 E11.36672
G1 X225.746 Y192.133 E11.40048
G1 X225.128 Y191.633 E11.43425
G1 X224.494 Y191.155 E11.46801
G1 X223.844 Y190.699 E11.50178
G1 X223.178 Y190.266 E11.53555
G1 X222.499 Y189.855 E11.56931
G1 X221.206 Y189.155 E11.63181
G1 X220.38 Y188.764 E11.67066
G1 X219.652 Y188.449 E11.70438
G1 X218.912 Y188.159 E11.73815
G1 X218.146 Y187.889 E11.77269
G1 X216.632 Y187.451 E11.83971
G1 X215.741 Y187.23 E11.87873
G1 X214.925 Y187.068 E11.91409
G1 X214.104 Y186.936 E11.94945
G1 X213.279 Y186.832 E11.98481
G1 X212.45 Y186.759 E12.02017
G1 X211.588 Y186.714 E12.05689
G1 X210.321 Y186.708 E12.11073
G1 X209.533 Y186.738 E12.14427
G1 X208.068 Y186.863 E12.20677
G1 X207.163 Y186.988 E12.24562
G1 X205.72 Y187.261 E12.30806
G1 X204.832 Y187.479 E12.34691
G1 X203.424 Y187.897 E12.40935
G1 X202.563 Y188.204 E12.44821
G1 X201.825 Y188.497 E12.48197
G1 X201.111 Y188.808 E12.5151
G1 X200.36 Y189.167 E12.55046
G1 X199.624 Y189.553 E12.58582
