; HEADER_BLOCK_START
; generated by AnycubicSlicerNext 1.1.1 on 2025-12-16 at 00:39:20
; total layer number: 25
; filament_density: 1.24
; filament_diameter: 1.75
; max_z_height: 5.04
; HEADER_BLOCK_END

; THUMBNAIL_BLOCK_START

;
; THUMBNAIL_BLOCK_END

; external perimeters extrusion width = 0.42mm
; perimeters extrusion width = 0.45mm
; infill extrusion width = 0.45mm
; solid infill extrusion width = 0.42mm
; top infill extrusion width = 0.42mm
; first layer extrusion width = 0.50mm

; EXECUTABLE_BLOCK_START
;TYPE:Custom
G90 ; use absolute coordinates
M83 ; extruder relative mode
M140 S60 ; set bed temp
M190 S60 ; wait for bed temp
M104 S220 ; set extruder temp
M109 S220 ; wait for extruder temp
G28                                        ; move X/Y/Z to min endstops
G1 Z0.28                                   ; lift nozzle a bit 
G92 E0 
G1 Y3 F2400                                    ; zero the extruded length 
G1 X180  E40 F500                       ; Extrude 25mm of filament in a 5cm line. 
G92 E0                                     ; zero the extruded length again 
G1 E-2 F3000                                ; Retract a little 
G1 X181 F4000                              ; Quickly wipe away from the filament line
M117
M900 K0.07
G90
G21
M82 ; use absolute distances for extrusion
G92 E0
; filament start gcode
M106 S0
;LAYER_CHANGE
;Z:0.24
;HEIGHT:0.24
G1 E-1.5 F1800
G92 E0
; layer num/total_layer_count: 1/25
; update layer progress
M991 S0 P0 ;notify layer change
;_SET_FAN_SPEED_CHANGING_LAYER
SET_VELOCITY_LIMIT ACCEL=5000 ACCEL_TO_DECEL=2500
; printing object ring.stl id:0 copy 0
G1 X215.384 Y210.305 F18000
G1 Z.24
G1 E1.5 F1800
;TYPE:Outer wall
;WIDTH:0.5
G1 F1200
G1 X215.352 Y210.724 E1.51785
G1 X215.279 Y211.139 E1.53575
G1 X215.113 Y211.738 E1.56218
G1 X214.883 Y212.305 E1.58821
G1 X214.684 Y212.687 E1.60651
G1 X214.346 Y213.206 E1.63284
G1 X214.084 Y213.533 E1.65064
G1 X213.798 Y213.839 E1.66844
G1 X213.341 Y214.242 E1.69436
G1 X212.993 Y214.495 E1.71266
G1 X212.456 Y214.809 E1.7391
G1 X211.885 Y215.061 E1.76564
G1 X211.3 Y215.241 E1.79166
G1 X210.879 Y215.328 E1.80996
G1 X210.26 Y215.394 E1.8364
G1 X209.638 Y215.388 E1.86284
G1 X209.222 Y215.344 E1.88064
G1 X208.81 Y215.268 E1.89843
G1 X208.213 Y215.096 E1.92486
G1 X207.637 Y214.856 E1.9514
G1 X207.094 Y214.552 E1.97783
G1 X206.749 Y214.312 E1.99573
G1 X206.276 Y213.911 E2.02206
G1 X205.983 Y213.609 E2.03996
G1 X205.596 Y213.125 E2.06629
G1 X205.366 Y212.773 E2.08419
G1 X205.078 Y212.222 E2.11063
G1 X204.855 Y211.641 E2.13706
G1 X204.744 Y211.238 E2.15486
G1 X204.663 Y210.827 E2.17266
G1 X204.604 Y210.211 E2.19898
G1 X204.604 Y209.789 E2.21689
G1 X204.663 Y209.173 E2.24321
G1 X204.744 Y208.76 E2.26112
G1 X204.921 Y208.166 E2.28745
G1 X205.079 Y207.776 E2.30535
G1 X205.366 Y207.227 E2.33167
G1 X205.596 Y206.875 E2.34958
G1 X205.983 Y206.391 E2.3759
G1 X206.276 Y206.089 E2.39381
G1 X206.749 Y205.688 E2.42014
G1 X207.094 Y205.448 E2.43804
G1 X207.637 Y205.144 E2.46447
G1 X208.213 Y204.904 E2.49101
G1 X208.81 Y204.732 E2.51743
G1 X209.224 Y204.656 E2.53534
G1 X209.841 Y204.602 E2.56167
G1 X210.262 Y204.606 E2.57956
G1 X210.869 Y204.67 E2.60549
G1 X211.291 Y204.756 E2.62379
G1 X211.874 Y204.935 E2.64972
G1 X212.271 Y205.101 E2.66802
G1 X212.817 Y205.393 E2.69436
G1 X213.168 Y205.626 E2.71226
G1 X213.648 Y206.018 E2.73859
G1 X213.947 Y206.314 E2.75649
G1 X214.343 Y206.79 E2.78282
G1 X214.58 Y207.138 E2.80072
G1 X214.878 Y207.684 E2.82715
G1 X215.109 Y208.251 E2.85318
G1 X215.232 Y208.661 E2.87138
G1 X215.32 Y209.07 E2.88918
G1 X215.391 Y209.685 E2.91551
G1 X215.399 Y210.106 E2.93341
G1 X215.384 Y210.305 E2.9419
G1 E1.9419 F1800
;WIPE_START
G1 F3600
G1 X215.352 Y210.724 E1.73198
G1 X215.279 Y211.139 E1.52144
G1 X215.236 Y211.292 E1.4419
;WIPE_END
G92 E0
G1 X213.973 Y205.576 F18000
G1 E1.5 F1800
G1 F1200
G1 X214.354 Y205.945 E1.52256
G1 X214.741 Y206.405 E1.54811
G1 X215.083 Y206.909 E1.57401
G1 X215.373 Y207.445 E1.59991
G1 X215.607 Y208.01 E1.6259
G1 X215.729 Y208.393 E1.64299
G1 X215.863 Y208.989 E1.66898
G1 X215.936 Y209.594 E1.69488
G1 X215.946 Y210.203 E1.72078
G1 X215.894 Y210.81 E1.74668
G1 X215.778 Y211.417 E1.77294
G1 X215.603 Y212 E1.79884
G1 X215.372 Y212.557 E1.82447
G1 X215.187 Y212.914 E1.84157
G1 X214.861 Y213.431 E1.86756
G1 X214.484 Y213.91 E1.89346
G1 X214.061 Y214.348 E1.91936
G1 X213.595 Y214.741 E1.94526
G1 X213.091 Y215.083 E1.97116
G1 X212.555 Y215.373 E1.99706
G1 X211.993 Y215.606 E2.02296
G1 X211.407 Y215.781 E2.04895
G1 X211.005 Y215.864 E2.0664
G1 X210.398 Y215.936 E2.09239
G1 X209.797 Y215.946 E2.11793
G1 X209.19 Y215.894 E2.14383
G1 X208.583 Y215.778 E2.17009
G1 X208.008 Y215.606 E2.19564
G1 X207.445 Y215.373 E2.22154
G1 X206.909 Y215.083 E2.24744
G1 X206.405 Y214.741 E2.27333
G1 X205.937 Y214.347 E2.29933
G1 X205.648 Y214.056 E2.31678
G1 X205.259 Y213.595 E2.34241
G1 X204.912 Y213.084 E2.36867
G1 X204.627 Y212.555 E2.39421
G1 X204.394 Y211.992 E2.42011
G1 X204.22 Y211.409 E2.44601
G1 X204.106 Y210.81 E2.47192
G1 X204.054 Y210.201 E2.4979
G1 X204.054 Y209.791 E2.51535
G1 X204.106 Y209.19 E2.54099
G1 X204.22 Y208.591 E2.56689
G1 X204.394 Y208.008 E2.59279
G1 X204.627 Y207.445 E2.61869
G1 X204.917 Y206.909 E2.64459
G1 X205.259 Y206.405 E2.67049
G1 X205.653 Y205.937 E2.69648
G1 X205.944 Y205.648 E2.71393
G1 X206.407 Y205.258 E2.73965
G1 X206.735 Y205.026 E2.75674
G1 X207.263 Y204.717 E2.78274
G1 X207.817 Y204.465 E2.80863
G1 X208.395 Y204.271 E2.83454
G1 X208.989 Y204.137 E2.86044
G1 X209.594 Y204.064 E2.88634
G1 X210.203 Y204.054 E2.91224
G1 X210.81 Y204.106 E2.93814
G1 X211.409 Y204.22 E2.96404
G1 X211.992 Y204.394 E2.98994
G1 X212.557 Y204.628 E3.01593
G1 X212.914 Y204.813 E3.03302
G1 X213.431 Y205.139 E3.05901
G1 X213.91 Y205.516 E3.08491
G1 X213.973 Y205.576 E3.08861
G1 E2.08861 F1800
;WIPE_START
G1 F3600
G1 X214.354 Y205.945 E1.82325
G1 X214.656 Y206.304 E1.58861
;WIPE_END
G92 E0
G1 X214.445 Y206.481 F18000
G1 E1.5 F1800
;TYPE:Gap infill
;WIDTH:0.152335
G1 F1200
G1 X214.151 Y206.13 E1.50437
G1 X213.727 Y205.725 E1.50998
G1 X213.328 Y205.405 E1.51487
G1 X212.955 Y205.159 E1.51914
G1 X212.39 Y204.854 E1.52527
G1 X211.9 Y204.654 E1.53033
G1 X211.344 Y204.487 E1.53589
G1 X210.772 Y204.381 E1.54144
G1 X210.194 Y204.33 E1.54699
G1 X209.613 Y204.342 E1.55254
G1 X209.036 Y204.41 E1.55809
G1 X208.47 Y204.54 E1.56364
G1 X207.92 Y204.725 E1.5692
G1 X207.391 Y204.964 E1.57475
G1 X206.948 Y205.218 E1.57962
G1 X206.575 Y205.476 E1.58396
G1 X206.091 Y205.887 E1.59003
G1 X205.78 Y206.209 E1.59431
G1 X205.377 Y206.714 E1.60048
G1 X205.131 Y207.087 E1.60475
G1 X204.833 Y207.659 E1.61092
G1 X204.653 Y208.1 E1.61547
G1 X204.479 Y208.692 E1.62137
G1 X204.38 Y209.228 E1.62657
G1 X204.33 Y209.774 E1.63181
G1 X204.33 Y210.221 E1.63609
G1 X204.393 Y210.864 E1.64226
G1 X204.487 Y211.344 E1.64693
G1 X204.656 Y211.899 E1.65248
G1 X204.877 Y212.436 E1.65804
G1 X205.148 Y212.941 E1.66351
G1 X205.481 Y213.427 E1.66914
G1 X205.851 Y213.87 E1.67466
G1 X206.124 Y214.144 E1.67835
G1 X206.579 Y214.528 E1.68405
G1 X207.053 Y214.846 E1.6895
G1 X207.563 Y215.124 E1.69505
G1 X208.12 Y215.354 E1.70081
G1 X208.649 Y215.509 E1.70608
G1 X209.228 Y215.621 E1.71171
G1 X209.807 Y215.668 E1.71726
G1 X210.379 Y215.66 E1.72274
G1 X210.923 Y215.598 E1.72797
G1 X211.366 Y215.507 E1.73229
G1 X211.978 Y215.317 E1.73841
G1 X212.436 Y215.122 E1.74317
G1 X212.946 Y214.845 E1.74873
G1 X213.428 Y214.52 E1.75428
G1 X213.871 Y214.145 E1.75983
G1 X214.277 Y213.729 E1.76538
G1 X214.568 Y213.364 E1.76985
G1 X214.922 Y212.823 E1.77602
G1 X215.131 Y212.422 E1.78034
G1 X215.37 Y211.828 E1.78647
G1 X215.508 Y211.351 E1.79122
G1 X215.622 Y210.772 E1.79685
G1 X215.67 Y210.194 E1.8024
G1 X215.66 Y209.613 E1.80795
G1 X215.592 Y209.036 E1.8135
G1 X215.462 Y208.465 E1.8191
G1 X215.347 Y208.104 E1.82272
G1 X215.125 Y207.563 E1.82831
G1 X214.847 Y207.052 E1.83387
G1 X214.52 Y206.572 E1.83942
G1 X214.445 Y206.481 E1.84055
; stop printing object ring.stl id:0 copy 0
M106 S127
;LAYER_CHANGE
;Z:0.44
;HEIGHT:0.2
G1 E.84055 F1800
;WIPE_START
G1 F3600
G1 X214.151 Y206.13 E.61173
G1 X213.759 Y205.755 E.34055
;WIPE_END
G92 E0
; layer num/total_layer_count: 2/25
; update layer progress
M991 S0 P1 ;notify layer change
;_SET_FAN_SPEED_CHANGING_LAYER
SET_VELOCITY_LIMIT ACCEL=6000 ACCEL_TO_DECEL=3000
M104 S200 ; set nozzle temperature
M140 S60 ; set bed temperature
; printing object ring.stl id:0 copy 0
G1 X215.202 Y210.29 Z.44 F18000
G1 E1.5 F1800
SET_VELOCITY_LIMIT ACCEL=3000 ACCEL_TO_DECEL=1500
;TYPE:Outer wall
;WIDTH:0.42
G1 F1200
G1 X215.201 Y210.303 E1.5004
G1 X215.132 Y210.897 E1.51822
G1 X215.047 Y211.294 E1.5303
G1 X214.865 Y211.865 E1.54817
G1 X214.63 Y212.389 E1.56526
G1 X214.417 Y212.764 E1.57812
G1 X214.07 Y213.253 E1.59595
G1 X213.806 Y213.558 E1.60798
G1 X213.52 Y213.842 E1.62
G1 X213.054 Y214.221 E1.63787
G1 X212.547 Y214.545 E1.65581
G1 X212.007 Y214.808 E1.67369
G1 X211.627 Y214.95 E1.68577
G1 X211.047 Y215.104 E1.70365
G1 X210.453 Y215.19 E1.72152
G1 X210.05 Y215.21 E1.73355
G1 X209.647 Y215.198 E1.74557
G1 X209.053 Y215.124 E1.76339
G1 X208.658 Y215.034 E1.77547
G1 X208.088 Y214.847 E1.79334
G1 X207.567 Y214.607 E1.81042
G1 X207.193 Y214.39 E1.82329
G1 X206.708 Y214.039 E1.84112
G1 X206.406 Y213.772 E1.85314
G1 X206.124 Y213.482 E1.86516
G1 X205.75 Y213.014 E1.88303
G1 X205.445 Y212.528 E1.90012
G1 X205.25 Y212.142 E1.91299
G1 X205.036 Y211.583 E1.93082
G1 X204.929 Y211.194 E1.94284
G1 X204.851 Y210.798 E1.95486
G1 X204.794 Y210.203 E1.97268
G1 X204.794 Y209.797 E1.98476
G1 X204.851 Y209.202 E2.00257
G1 X204.929 Y208.804 E2.01465
G1 X205.091 Y208.256 E2.03168
G1 X205.252 Y207.855 E2.04454
G1 X205.53 Y207.323 E2.06243
G1 X205.868 Y206.827 E2.08031
G1 X206.127 Y206.515 E2.09239
G1 X206.552 Y206.094 E2.11021
G1 X206.865 Y205.839 E2.12223
G1 X207.196 Y205.608 E2.13425
G1 X207.72 Y205.315 E2.15213
G1 X208.276 Y205.083 E2.17007
G1 X208.855 Y204.917 E2.188
G1 X209.447 Y204.819 E2.20588
G1 X209.849 Y204.792 E2.2179
G1 X210.253 Y204.796 E2.22992
G1 X210.821 Y204.855 E2.24694
G1 X211.245 Y204.941 E2.25981
G1 X211.819 Y205.117 E2.2777
G1 X212.37 Y205.36 E2.29564
G1 X212.888 Y205.663 E2.31351
G1 X213.216 Y205.901 E2.3256
G1 X213.665 Y206.297 E2.34341
G1 X213.942 Y206.593 E2.35549
G1 X214.308 Y207.069 E2.37337
G1 X214.616 Y207.584 E2.39125
G1 X214.79 Y207.95 E2.40333
G1 X214.985 Y208.487 E2.42035
G1 X215.094 Y208.905 E2.43321
G1 X215.183 Y209.47 E2.45025
G1 X215.209 Y209.899 E2.46306
G1 X215.202 Y210.29 E2.47469
SET_VELOCITY_LIMIT ACCEL=6000 ACCEL_TO_DECEL=3000
G1 E1.22469 F1800
;WIPE_START
G1 F7200
G1 X215.201 Y210.303 E1.22131
G1 X215.132 Y210.897 E1.07178
G1 X215.051 Y211.277 E.97469
;WIPE_END
G92 E0
G1 X214.1 Y205.435 F18000
G1 E1.5 F1800
SET_VELOCITY_LIMIT ACCEL=3000 ACCEL_TO_DECEL=1500
G1 F1200
G1 X214.487 Y205.809 E1.51605
G1 X214.892 Y206.29 E1.53477
G1 X215.246 Y206.81 E1.5535
G1 X215.545 Y207.363 E1.57223
G1 X215.786 Y207.946 E1.59101
G1 X215.912 Y208.342 E1.60339
G1 X216.05 Y208.957 E1.62217
G1 X216.125 Y209.581 E1.6409
G1 X216.136 Y210.209 E1.65961
G1 X216.079 Y210.86 E1.67907
G1 X215.965 Y211.455 E1.69712
G1 X215.853 Y211.856 E1.70951
G1 X215.631 Y212.446 E1.72829
G1 X215.352 Y213.009 E1.74702
G1 X215.016 Y213.541 E1.76574
G1 X214.628 Y214.035 E1.78447
G1 X214.191 Y214.487 E1.8032
G1 X213.71 Y214.892 E1.82192
G1 X213.19 Y215.246 E1.84065
G1 X212.637 Y215.545 E1.85938
G1 X212.054 Y215.786 E1.87816
G1 X211.658 Y215.912 E1.89054
G1 X211.043 Y216.05 E1.90932
G1 X210.419 Y216.125 E1.92804
G1 X209.791 Y216.136 E1.94676
G1 X209.14 Y216.079 E1.96622
G1 X208.545 Y215.965 E1.98427
G1 X208.144 Y215.853 E1.99666
G1 X207.554 Y215.631 E2.01544
G1 X206.991 Y215.352 E2.03417
G1 X206.459 Y215.016 E2.05289
G1 X205.965 Y214.628 E2.07162
G1 X205.513 Y214.191 E2.09035
G1 X205.108 Y213.71 E2.10907
G1 X204.754 Y213.19 E2.1278
G1 X204.455 Y212.637 E2.14653
G1 X204.214 Y212.054 E2.16531
G1 X204.088 Y211.658 E2.17769
G1 X203.95 Y211.043 E2.19646
G1 X203.873 Y210.395 E2.21591
G1 X203.864 Y209.791 E2.23392
G1 X203.917 Y209.164 E2.25265
G1 X204.035 Y208.546 E2.27137
G1 X204.215 Y207.943 E2.29015
G1 X204.378 Y207.534 E2.30325
G1 X204.648 Y206.991 E2.3213
G1 X204.998 Y206.44 E2.34075
G1 X205.389 Y205.947 E2.35948
G1 X205.809 Y205.513 E2.37749
G1 X206.29 Y205.108 E2.39622
G1 X206.81 Y204.754 E2.41495
G1 X207.363 Y204.455 E2.43367
G1 X207.946 Y204.214 E2.45245
G1 X208.342 Y204.088 E2.46483
G1 X208.957 Y203.95 E2.48361
G1 X209.581 Y203.875 E2.50234
G1 X210.21 Y203.864 E2.52107
G1 X210.836 Y203.917 E2.53979
G1 X211.454 Y204.035 E2.55852
G1 X212.058 Y204.215 E2.5773
G1 X212.444 Y204.368 E2.58968
G1 X213.009 Y204.648 E2.60846
G1 X213.56 Y204.998 E2.62791
G1 X214.035 Y205.372 E2.64591
G1 X214.1 Y205.435 E2.6486
G1 E1.3986 F1800
;WIPE_START
G1 F7200
G1 X214.487 Y205.809 E1.26391
G1 X214.784 Y206.162 E1.1486
;WIPE_END
G92 E0
SET_VELOCITY_LIMIT ACCEL=6000 ACCEL_TO_DECEL=3000
G1 X214.425 Y206.462 F18000
G1 E1.5 F1800
;TYPE:Gap infill
;WIDTH:0.579912
G1 F1200
G1 X214.146 Y206.128 E1.51848
G1 X213.726 Y205.726 E1.54313
G1 X213.29 Y205.379 E1.56676
G1 X212.779 Y205.057 E1.59242
G1 X212.254 Y204.797 E1.61726
G1 X211.905 Y204.656 E1.6332
G1 X211.344 Y204.487 E1.65809
G1 X210.772 Y204.381 E1.68273
G1 X210.194 Y204.33 E1.70737
G1 X209.613 Y204.341 E1.73201
G1 X209.037 Y204.412 E1.75665
G1 X208.464 Y204.541 E1.78152
G1 X208.105 Y204.651 E1.79746
G1 X207.531 Y204.892 E1.82386
G1 X207.053 Y205.154 E1.847
G1 X206.571 Y205.479 E1.87164
G1 X206.128 Y205.855 E1.8963
G1 X205.739 Y206.254 E1.91995
G1 X205.38 Y206.711 E1.94461
G1 X205.056 Y207.221 E1.97025
G1 X204.826 Y207.673 E1.99175
G1 X204.655 Y208.095 E2.01106
G1 X204.481 Y208.681 E2.03699
G1 X204.38 Y209.228 E2.06056
G1 X204.331 Y209.762 E2.08332
G1 X204.34 Y210.364 E2.10885
G1 X204.396 Y210.877 E2.13077
G1 X204.539 Y211.536 E2.15936
G1 X204.654 Y211.894 E2.1753
G1 X204.877 Y212.436 E2.20018
G1 X205.155 Y212.947 E2.22482
G1 X205.481 Y213.427 E2.24945
G1 X205.854 Y213.872 E2.27409
G1 X206.272 Y214.276 E2.29873
G1 X206.73 Y214.633 E2.32337
G1 X207.22 Y214.945 E2.348
G1 X207.741 Y215.202 E2.37264
G1 X208.29 Y215.407 E2.39752
G1 X208.652 Y215.511 E2.41347
G1 X209.205 Y215.615 E2.43735
G1 X209.807 Y215.669 E2.46301
G1 X210.387 Y215.66 E2.48761
G1 X210.964 Y215.589 E2.51225
G1 X211.536 Y215.459 E2.53713
G1 X211.894 Y215.348 E2.55307
G1 X212.435 Y215.121 E2.57795
G1 X212.947 Y214.845 E2.60258
G1 X213.427 Y214.52 E2.62722
G1 X213.873 Y214.147 E2.65186
G1 X214.276 Y213.728 E2.6765
G1 X214.633 Y213.27 E2.70113
G1 X214.944 Y212.78 E2.72577
G1 X215.201 Y212.259 E2.7504
G1 X215.407 Y211.71 E2.77528
G1 X215.511 Y211.349 E2.79124
G1 X215.615 Y210.795 E2.81512
G1 X215.67 Y210.193 E2.84078
G1 X215.659 Y209.613 E2.86538
G1 X215.588 Y209.036 E2.89002
G1 X215.461 Y208.464 E2.9149
G1 X215.345 Y208.106 E2.93083
G1 X215.123 Y207.564 E2.95572
G1 X214.845 Y207.054 E2.98035
G1 X214.518 Y206.574 E3.00498
G1 X214.425 Y206.462 E3.01114
; stop printing object ring.stl id:0 copy 0
M106 S255
;LAYER_CHANGE
;Z:0.64
;HEIGHT:0.2
G1 E1.77964 F1800
;WIPE_START
G1 F6704.01
G1 X214.146 Y206.128 E1.6627
G1 X213.738 Y205.737 E1.51114
;WIPE_END
G92 E0
; layer num/total_layer_count: 3/25
; update layer progress
M991 S0 P2 ;notify layer change
;_SET_FAN_SPEED_CHANGING_LAYER
; printing object ring.stl id:0 copy 0
G1 X215.202 Y210.288 Z.64 F18000
G1 E1.5 F1800
SET_VELOCITY_LIMIT ACCEL=3000 ACCEL_TO_DECEL=1500
;TYPE:Outer wall
;WIDTH:0.42
G1 F1200
G1 X215.201 Y210.303 E1.50047
G1 X215.132 Y210.897 E1.51828
G1 X215.047 Y211.294 E1.53036
G1 X214.865 Y211.866 E1.54824
G1 X214.617 Y212.415 E1.56618
G1 X214.308 Y212.931 E1.58411
G1 X213.969 Y213.374 E1.60073
G1 X213.667 Y213.701 E1.614
G1 X213.369 Y213.975 E1.62604
G1 X212.891 Y214.335 E1.64385
G1 X212.545 Y214.546 E1.65593
G1 X212.007 Y214.808 E1.67375
G1 X211.627 Y214.95 E1.68583
G1 X211.049 Y215.103 E1.70365
G1 X210.649 Y215.17 E1.71573
G1 X210.05 Y215.21 E1.73361
G1 X209.451 Y215.181 E1.75149
G1 X209.049 Y215.123 E1.76357
G1 X208.468 Y214.98 E1.78138
G1 X208.086 Y214.846 E1.79346
G1 X207.581 Y214.614 E1.81002
G1 X207.194 Y214.39 E1.82334
G1 X206.742 Y214.065 E1.83992
