; HEADER_BLOCK_START
; generated by AnycubicSlicerNext 1.1.1 on 2025-12-12 at 13:58:48
; total layer number: 167
; filament_density: 1.24
; filament_diameter: 1.75
; max_z_height: 33.44
; HEADER_BLOCK_END

; THUMBNAIL_BLOCK_START

;
; THUMBNAIL_BLOCK_END

; external perimeters extrusion width = 0.42mm
; perimeters extrusion width = 0.45mm
; infill extrusion width = 0.45mm
; solid infill extrusion width = 0.42mm
; top infill extrusion width = 0.42mm
; first layer extrusion width = 0.50mm

; EXECUTABLE_BLOCK_START
;TYPE:Custom
G90 ; use absolute coordinates
M83 ; extruder relative mode
M140 S60 ; set bed temp
M190 S60 ; wait for bed temp
M104 S220 ; set extruder temp
M109 S220 ; wait for extruder temp
G28                                        ; move X/Y/Z to min endstops
G1 Z0.28                                   ; lift nozzle a bit 
G92 E0 
G1 Y3 F2400                                    ; zero the extruded length 
G1 X180  E40 F500                       ; Extrude 25mm of filament in a 5cm line. 
G92 E0                                     ; zero the extruded length again 
G1 E-2 F3000                                ; Retract a little 
G1 X181 F4000                              ; Quickly wipe away from the filament line
M117
M900 K0.07
G90
G21
M82 ; use absolute distances for extrusion
G92 E0
; filament start gcode
M106 S0
;LAYER_CHANGE
;Z:0.24
;HEIGHT:0.24
G1 E-1.5 F1800
G92 E0
; layer num/total_layer_count: 1/167
; update layer progress
M991 S0 P0 ;notify layer change
;_SET_FAN_SPEED_CHANGING_LAYER
SET_VELOCITY_LIMIT ACCEL=5000 ACCEL_TO_DECEL=2500
; printing object funnel.stl id:18434236385893865800 copy 0
G1 X223.592 Y197.711 F18000
G1 Z.24
G1 E1.5 F1800
;TYPE:Inner wall
;WIDTH:0.653692
G1 F3525
G1 X224.029 Y198.213 E1.53799
;WIDTH:0.653568
G1 X224.448 Y198.73 E1.57597
;WIDTH:0.653379
G1 X224.848 Y199.262 E1.61394
;WIDTH:0.65312
G1 X225.228 Y199.808 E1.65189
;WIDTH:0.6528
G1 X225.588 Y200.368 E1.68982
;WIDTH:0.652412
G1 X225.942 Y200.965 E1.72936
;WIDTH:0.651984
G1 X226.281 Y201.593 E1.77001
;WIDTH:0.651612
G1 X226.596 Y202.235 E1.81065
;WIDTH:0.651306
G1 X226.886 Y202.887 E1.85125
;WIDTH:0.651068
G1 X227.15 Y203.551 E1.89185
;WIDTH:0.650893
G1 X227.389 Y204.226 E1.93253
;WIDTH:0.651009
G1 X227.608 Y204.934 E1.97466
G1 X227.785 Y205.596 E2.0136
;WIDTH:0.650861
G1 X227.942 Y206.312 E2.05521
G1 X228.125 Y207.334 E2.11424
;WIDTH:0.656557
G1 X228.264 Y208.508 E2.18205
;WIDTH:0.652839
G1 X228.319 Y209.586 E2.24353
;WIDTH:0.652091
G1 X228.316 Y210.563 E2.29918
;WIDTH:0.651759
G1 X228.28 Y211.276 E2.33982
;WIDTH:0.651427
G1 X228.216 Y211.988 E2.38044
;WIDTH:0.651161
G1 X228.13 Y212.656 E2.41871
;WIDTH:0.653555
G1 X228.052 Y213.153 E2.44742
;WIDTH:0.654012
G1 X227.775 Y214.454 E2.52342
;WIDTH:0.653675
G1 X227.602 Y215.097 E2.56141
G1 X227.405 Y215.733 E2.5994
G1 X227.186 Y216.361 E2.63738
;WIDTH:0.653539
G1 X226.943 Y216.981 E2.67536
;WIDTH:0.65334
G1 X226.679 Y217.591 E2.71333
;WIDTH:0.653072
G1 X226.393 Y218.192 E2.75128
;WIDTH:0.652786
G1 X226.076 Y218.797 E2.79018
;WIDTH:0.652336
G1 X225.736 Y219.392 E2.8292
;WIDTH:0.651918
G1 X225.358 Y219.997 E2.86985
;WIDTH:0.651556
G1 X224.948 Y220.6 E2.91129
;WIDTH:0.656685
G1 X224.233 Y221.542 E2.97911
;WIDTH:0.655105
G1 X223.359 Y222.545 E3.05525
;WIDTH:0.654018
G1 X222.413 Y223.481 E3.13125
;WIDTH:0.653712
G1 X221.916 Y223.923 E3.16924
;WIDTH:0.653605
G1 X221.402 Y224.347 E3.20723
;WIDTH:0.653432
G1 X220.874 Y224.751 E3.2452
;WIDTH:0.653193
G1 X220.331 Y225.136 E3.28315
;WIDTH:0.652887
G1 X219.775 Y225.502 E3.32109
;WIDTH:0.652515
G1 X219.192 Y225.855 E3.35994
;WIDTH:0.652087
G1 X218.567 Y226.2 E3.4006
;WIDTH:0.6517
G1 X217.928 Y226.521 E3.44124
;WIDTH:0.651377
G1 X217.279 Y226.817 E3.48185
;WIDTH:0.653396
G1 X216.815 Y227.012 E3.51054
;WIDTH:0.653579
G1 X216.193 Y227.248 E3.54852
;WIDTH:0.656213
G1 X214.912 Y227.655 E3.62555
;WIDTH:0.656066
G1 X213.631 Y227.963 E3.70106
;WIDTH:0.653657
G1 X212.976 Y228.083 E3.73904
;WIDTH:0.653512
G1 X212.321 Y228.178 E3.7768
;WIDTH:0.653292
G1 X211.734 Y228.236 E3.81049
;WIDTH:0.650201
G1 X211.047 Y228.294 E3.8496
;WIDTH:0.652271
G1 X210.324 Y228.324 E3.89083
G1 X209.588 Y228.321 E3.93273
;WIDTH:0.65189
G1 X208.903 Y228.293 E3.97172
;WIDTH:0.651504
G1 X208.191 Y228.236 E4.01234
;WIDTH:0.651219
G1 X207.523 Y228.157 E4.05062
;WIDTH:0.653513
G1 X207.013 Y228.081 E4.08002
;WIDTH:0.653658
G1 X206.359 Y227.961 E4.11801
;WIDTH:0.654037
G1 X205.065 Y227.649 E4.19401
;WIDTH:0.6537
G1 X204.427 Y227.458 E4.232
G1 X203.797 Y227.244 E4.26999
;WIDTH:0.653582
G1 X203.175 Y227.008 E4.30797
;WIDTH:0.653397
G1 X202.562 Y226.749 E4.34594
;WIDTH:0.653243
G1 X201.959 Y226.468 E4.3839
;WIDTH:0.65283
G1 X201.366 Y226.165 E4.42183
;WIDTH:0.652449
G1 X200.764 Y225.828 E4.46114
;WIDTH:0.652019
G1 X200.149 Y225.451 E4.50217
;WIDTH:0.650834
G1 X199.544 Y225.042 E4.54367
;WIDTH:0.649317
G1 X198.984 Y224.641 E4.58272
;WIDTH:0.653383
G1 X198.586 Y224.337 E4.61127
;WIDTH:0.653605
G1 X198.076 Y223.916 E4.64904
;WIDTH:0.653714
G1 X197.579 Y223.474 E4.68703
;WIDTH:0.654029
G1 X196.634 Y222.537 E4.76303
;WIDTH:0.653639
G1 X196.187 Y222.043 E4.80101
G1 X195.759 Y221.534 E4.839
;WIDTH:0.653482
G1 X195.35 Y221.009 E4.87698
;WIDTH:0.65326
G1 X194.96 Y220.47 E4.91493
;WIDTH:0.653044
G1 X194.589 Y219.917 E4.95289
;WIDTH:0.652615
G1 X194.237 Y219.347 E4.99104
;WIDTH:0.652195
G1 X193.885 Y218.726 E5.03171
;WIDTH:0.65179
G1 X193.558 Y218.091 E5.07236
;WIDTH:0.651452
G1 X193.256 Y217.444 E5.11297
;WIDTH:0.65118
G1 X192.994 Y216.823 E5.15125
;WIDTH:0.653541
G1 X192.811 Y216.351 E5.18019
;WIDTH:0.654008
G1 X192.395 Y215.086 E5.25619
;WIDTH:0.653684
G1 X192.222 Y214.444 E5.29418
G1 X192.073 Y213.795 E5.33216
G1 X191.947 Y213.142 E5.37015
;WIDTH:0.653557
G1 X191.844 Y212.484 E5.40813
;WIDTH:0.65336
G1 X191.766 Y211.823 E5.4461
;WIDTH:0.6531
G1 X191.712 Y211.16 E5.48405
;WIDTH:0.652771
G1 X191.682 Y210.495 E5.52198
;WIDTH:0.65647
G1 X191.696 Y209.165 E5.59829
;WIDTH:0.656182
G1 X191.749 Y208.371 E5.64389
;WIDTH:0.651285
G1 X191.827 Y207.661 E5.6845
;WIDTH:0.651052
G1 X191.932 Y206.954 E5.72509
;WIDTH:0.650885
G1 X192.065 Y206.252 E5.76567
;WIDTH:0.650779
G1 X192.224 Y205.556 E5.80624
G1 X192.411 Y204.867 E5.84682
G1 X192.631 Y204.183 E5.88764
;WIDTH:0.651304
G1 X192.879 Y203.474 E5.93034
;WIDTH:0.653312
G1 X193.188 Y202.713 E5.97721
G1 X193.461 Y202.11 E6.01495
;WIDTH:0.652915
G1 X193.759 Y201.515 E6.05289
;WIDTH:0.65255
G1 X194.084 Y200.92 E6.09151
;WIDTH:0.652124
G1 X194.45 Y200.307 E6.13218
;WIDTH:0.651729
G1 X194.844 Y199.706 E6.17308
;WIDTH:0.652818
G1 X195.467 Y198.843 E6.23372
;WIDTH:0.653522
G1 X195.981 Y198.202 E6.2806
;WIDTH:0.653667
G1 X196.416 Y197.703 E6.31838
G1 X196.871 Y197.218 E6.35636
G1 X197.344 Y196.75 E6.39434
G1 X197.834 Y196.299 E6.43233
G1 X198.339 Y195.866 E6.47032
;WIDTH:0.653528
G1 X198.86 Y195.452 E6.50829
;WIDTH:0.65332
G1 X199.396 Y195.057 E6.54626
;WIDTH:0.653049
G1 X199.945 Y194.682 E6.58421
;WIDTH:0.652711
G1 X200.508 Y194.326 E6.62214
;WIDTH:0.652306
G1 X201.119 Y193.973 E6.66236
;WIDTH:0.651885
G1 X201.756 Y193.638 E6.70327
;WIDTH:0.650608
G1 X202.392 Y193.339 E6.74321
;WIDTH:0.649224
G1 X203.033 Y193.057 E6.78286
;WIDTH:0.653834
G1 X204.122 Y192.646 E6.84932
;WIDTH:0.653708
G1 X204.756 Y192.444 E6.88731
G1 X205.397 Y192.265 E6.9253
G1 X206.044 Y192.109 E6.96329
G1 X206.696 Y191.977 E7.00128
;WIDTH:0.653594
G1 X207.353 Y191.869 E7.03926
;WIDTH:0.653323
G1 X208.013 Y191.785 E7.07722
G1 X208.676 Y191.725 E7.11519
G1 X209.688 Y191.685 E7.173
;WIDTH:0.650579
G1 X210.735 Y191.698 E7.23247
;WIDTH:0.651357
G1 X211.455 Y191.736 E7.27344
G1 X212.193 Y191.81 E7.31559
;WIDTH:0.651241
G1 X212.871 Y191.905 E7.35454
;WIDTH:0.65092
G1 X213.574 Y192.031 E7.39513
;WIDTH:0.650762
G1 X214.274 Y192.184 E7.4358
G1 X214.994 Y192.378 E7.47818
;WIDTH:0.651757
G1 X215.744 Y192.602 E7.52272
;WIDTH:0.653475
G1 X216.519 Y192.876 E7.5696
G1 X217.133 Y193.122 E7.60735
;WIDTH:0.653278
G1 X217.741 Y193.392 E7.64532
;WIDTH:0.652995
G1 X218.339 Y193.684 E7.68326
;WIDTH:0.652647
G1 X218.926 Y193.997 E7.72119
;WIDTH:0.652231
G1 X219.543 Y194.358 E7.76186
;WIDTH:0.65182
G1 X220.145 Y194.742 E7.80251
;WIDTH:0.651477
G1 X220.733 Y195.151 E7.84324
;WIDTH:0.653692
G1 X221.669 Y195.873 E7.91073
G1 X222.175 Y196.306 E7.94872
G1 X222.664 Y196.757 E7.98671
G1 X223.136 Y197.226 E8.0247
G1 X223.592 Y197.711 E8.06268
G1 X223.987 Y197.366 F18000
;TYPE:Outer wall
;WIDTH:0.499999
G1 F3525
G1 X224.437 Y197.882 E8.09179
G1 X224.868 Y198.414 E8.12089
G1 X225.279 Y198.962 E8.15
G1 X225.669 Y199.524 E8.1791
G1 X226.039 Y200.1 E8.2082
G1 X226.402 Y200.714 E8.23852
G1 X226.75 Y201.359 E8.26969
G1 X227.073 Y202.018 E8.30087
G1 X227.371 Y202.688 E8.33204
G1 X227.642 Y203.369 E8.36321
G1 X227.887 Y204.062 E8.39447
G1 X228.112 Y204.789 E8.4268
G1 X228.294 Y205.469 E8.45673
G1 X228.455 Y206.211 E8.48903
G1 X228.647 Y207.283 E8.53533
G1 X228.721 Y207.8 E8.55754
G1 X228.788 Y208.481 E8.58663
G1 X228.84 Y209.508 E8.63034
G1 X228.843 Y210.516 E8.6732
G1 X228.812 Y211.199 E8.70224
G1 X228.756 Y211.881 E8.73134
G1 X228.675 Y212.561 E8.76045
G1 X228.57 Y213.237 E8.78955
G1 X228.44 Y213.91 E8.81866
G1 X228.286 Y214.577 E8.84776
G1 X228.108 Y215.238 E8.87686
G1 X227.906 Y215.892 E8.90597
G1 X227.68 Y216.538 E8.93507
G1 X227.431 Y217.176 E8.96417
G1 X227.159 Y217.804 E8.99328
G1 X226.865 Y218.422 E9.02238
G1 X226.548 Y219.029 E9.05148
G1 X226.209 Y219.624 E9.08059
G1 X225.849 Y220.206 E9.10969
G1 X225.468 Y220.775 E9.1388
G1 X225.067 Y221.329 E9.1679
G1 X224.646 Y221.869 E9.197
G1 X224.205 Y222.393 E9.22611
G1 X223.746 Y222.9 E9.25521
G1 X223.268 Y223.391 E9.28432
G1 X222.773 Y223.864 E9.31342
G1 X222.262 Y224.318 E9.34252
G1 X221.734 Y224.754 E9.37162
G1 X221.19 Y225.171 E9.40073
G1 X220.632 Y225.567 E9.42983
G1 X220.06 Y225.943 E9.45893
G1 X219.474 Y226.298 E9.48804
G1 X218.876 Y226.631 E9.51714
G1 X218.267 Y226.942 E9.54624
G1 X217.646 Y227.231 E9.57535
G1 X217.015 Y227.497 E9.60445
G1 X216.376 Y227.741 E9.63356
G1 X215.727 Y227.96 E9.66266
G1 X215.071 Y228.157 E9.69176
G1 X214.409 Y228.329 E9.72087
G1 X213.74 Y228.477 E9.74997
G1 X213.067 Y228.6 E9.77907
G1 X212.392 Y228.699 E9.80809
G1 X211.188 Y228.812 E9.85951
G1 X210.341 Y228.848 E9.89551
G1 X209.658 Y228.848 E9.92458
G1 X208.974 Y228.824 E9.95368
G1 X208.291 Y228.774 E9.98279
G1 X207.61 Y228.699 E10.01189
G1 X206.933 Y228.6 E10.04099
G1 X206.26 Y228.477 E10.0701
G1 X205.591 Y228.329 E10.0992
G1 X204.929 Y228.157 E10.1283
G1 X204.273 Y227.96 E10.15741
G1 X203.624 Y227.741 E10.18651
G1 X202.985 Y227.497 E10.21561
G1 X202.354 Y227.231 E10.24472
G1 X201.733 Y226.942 E10.27382
G1 X201.124 Y226.631 E10.30293
G1 X200.526 Y226.298 E10.33203
G1 X199.942 Y225.944 E10.36105
G1 X198.942 Y225.264 E10.41246
G1 X198.266 Y224.754 E10.44847
G1 X197.738 Y224.318 E10.47754
G1 X197.227 Y223.864 E10.50664
G1 X196.732 Y223.391 E10.53574
G1 X196.254 Y222.9 E10.56485
G1 X195.795 Y222.393 E10.59395
G1 X195.354 Y221.869 E10.62305
G1 X194.933 Y221.329 E10.65216
G1 X194.532 Y220.775 E10.68126
G1 X194.151 Y220.206 E10.71037
G1 X193.791 Y219.624 E10.73947
G1 X193.452 Y219.029 E10.76857
G1 X193.135 Y218.422 E10.79767
G1 X192.841 Y217.804 E10.82678
G1 X192.569 Y217.176 E10.85588
G1 X192.32 Y216.538 E10.88498
G1 X192.094 Y215.892 E10.91409
G1 X191.892 Y215.238 E10.94319
G1 X191.714 Y214.577 E10.9723
G1 X191.56 Y213.91 E11.0014
G1 X191.43 Y213.237 E11.0305
G1 X191.325 Y212.561 E11.05961
G1 X191.244 Y211.881 E11.08871
G1 X191.188 Y211.199 E11.11781
G1 X191.157 Y210.515 E11.14692
G1 X191.151 Y209.83 E11.17602
G1 X191.169 Y209.146 E11.20512
G1 X191.213 Y208.463 E11.23423
G1 X191.281 Y207.782 E11.26333
G1 X191.374 Y207.104 E11.29243
G1 X191.492 Y206.429 E11.32154
G1 X191.634 Y205.759 E11.35064
G1 X191.8 Y205.095 E11.37975
G1 X191.989 Y204.44 E11.40877
G1 X192.385 Y203.297 E11.46018
G1 X192.702 Y202.511 E11.49619
G1 X192.985 Y201.889 E11.52525
G1 X193.291 Y201.277 E11.55435
G1 X193.619 Y200.676 E11.58346
G1 X193.968 Y200.087 E11.61256
G1 X194.338 Y199.513 E11.64158
G1 X195.044 Y198.532 E11.69299
G1 X195.573 Y197.87 E11.729
G1 X196.022 Y197.355 E11.75807
G1 X196.491 Y196.855 E11.78717
G1 X196.977 Y196.374 E11.81627
G1 X197.481 Y195.91 E11.84538
G1 X198 Y195.464 E11.87448
G1 X198.536 Y195.038 E11.90358
G1 X199.087 Y194.632 E11.93269
G1 X199.652 Y194.246 E11.96179
G1 X200.231 Y193.88 E11.9909
G1 X200.823 Y193.536 E12.02
G1 X201.425 Y193.215 E12.04902
G1 X202.52 Y192.702 E12.10043
G1 X203.304 Y192.381 E12.13644
G1 X203.948 Y192.15 E12.1655
G1 X204.6 Y191.942 E12.19461
G1 X205.259 Y191.758 E12.22371
G1 X205.925 Y191.597 E12.25282
G1 X206.596 Y191.462 E12.28192
G1 X207.271 Y191.35 E12.31102
G1 X207.95 Y191.263 E12.34013
G1 X208.632 Y191.201 E12.36923
G1 X209.314 Y191.164 E12.39828
G1 X210.239 Y191.157 E12.43758
G1 X211.502 Y191.214 E12.49136
G1 X212.259 Y191.29 E12.52369
G1 X212.956 Y191.388 E12.55363
G1 X213.678 Y191.517 E12.5848
G1 X214.396 Y191.675 E12.61605
G1 X215.918 Y192.108 E12.68331
G1 X216.714 Y192.388 E12.7192
G1 X217.346 Y192.642 E12.74814
G1 X217.971 Y192.92 E12.77725
G1 X218.586 Y193.221 E12.80635
G1 X219.19 Y193.544 E12.83546
G1 X219.823 Y193.914 E12.86663
G1 X220.441 Y194.309 E12.89781
G1 X221.476 Y195.048 E12.95186
G1 X222.011 Y195.474 E12.98095
G1 X222.531 Y195.92 E13.01006
G1 X223.034 Y196.384 E13.03916
G1 X223.519 Y196.866 E13.06827
G1 X223.987 Y197.366 E13.09737
G1 E12.09737 F1800
;WIPE_START
G1 F3600
G1 X224.437 Y197.882 E11.75508
G1 X224.635 Y198.127 E11.59737
;WIPE_END
G92 E0
G1 X227.449 Y213.093 F18000
G1 E1.5 F1800
;TYPE:Inner wall
;WIDTH:0.654012
G1 F3525
G1 X227.192 Y214.303 E1.57066
;WIDTH:0.653748
G1 X226.835 Y215.538 E1.64404
G1 X226.624 Y216.145 E1.68073
;WIDTH:0.653539
G1 X226.39 Y216.744 E1.71742
;WIDTH:0.65334
G1 X226.19 Y217.214 E1.74654
;WIDTH:0.651451
G1 X225.899 Y217.834 E1.78552
;WIDTH:0.652309
G1 X225.567 Y218.475 E1.82662
G1 X225.241 Y219.05 E1.86429
;WIDTH:0.652614
G1 X224.9 Y219.6 E1.90115
;WIDTH:0.652969
G1 X224.541 Y220.134 E1.93781
;WIDTH:0.656685
G1 X223.858 Y221.047 E2.00324
;WIDTH:0.655105
G1 X223.35 Y221.654 E2.04852
G1 X222.923 Y222.129 E2.08508
;WIDTH:0.654018
G1 X222.01 Y223.034 E2.15849
;WIDTH:0.653712
G1 X221.529 Y223.461 E2.19519
;WIDTH:0.653605
G1 X221.034 Y223.87 E2.23188
;WIDTH:0.653432
G1 X220.629 Y224.185 E2.26114
;WIDTH:0.65133
G1 X220.091 Y224.572 E2.29881
;WIDTH:0.651641
G1 X219.515 Y224.955 E2.33815
;WIDTH:0.652019
G1 X218.925 Y225.315 E2.37753
;WIDTH:0.652447
G1 X218.342 Y225.64 E2.41554
;WIDTH:0.65283
G1 X217.769 Y225.932 E2.45219
;WIDTH:0.653145
G1 X217.186 Y226.203 E2.48885
;WIDTH:0.653396
G1 X216.593 Y226.452 E2.52553
;WIDTH:0.653579
G1 X215.992 Y226.68 E2.56221
;WIDTH:0.656213
G1 X214.794 Y227.063 E2.63433
;WIDTH:0.656066
G1 X213.518 Y227.371 E2.70955
;WIDTH:0.653657
G1 X212.886 Y227.488 E2.74625
;WIDTH:0.653512
G1 X212.259 Y227.58 E2.78242
;WIDTH:0.653292
G1 X211.711 Y227.64 E2.81387
;WIDTH:0.651494
G1 X211.108 Y227.69 E2.84827
;WIDTH:0.651616
G1 X210.36 Y227.722 E2.89083
;WIDTH:0.652808
G1 X209.673 Y227.722 E2.92999
G1 X209.03 Y227.699 E2.96667
;WIDTH:0.653023
G1 X208.389 Y227.652 E3.00332
;WIDTH:0.653301
G1 X207.75 Y227.581 E3.03999
;WIDTH:0.653513
G1 X207.114 Y227.488 E3.07668
;WIDTH:0.653658
G1 X206.482 Y227.371 E3.11337
;WIDTH:0.654037
G1 X205.232 Y227.07 E3.18678
;WIDTH:0.653753
G1 X204.008 Y226.68 E3.26016
;WIDTH:0.653582
G1 X203.407 Y226.452 E3.29685
;WIDTH:0.653397
G1 X202.924 Y226.252 E3.32665
;WIDTH:0.651845
G1 X202.296 Y225.963 E3.366
G1 X201.705 Y225.665 E3.40364
;WIDTH:0.652087
G1 X201.101 Y225.33 E3.44301
;WIDTH:0.65251
G1 X200.544 Y224.992 E3.48009
G1 X199.909 Y224.57 E3.52355
;WIDTH:0.649375
G1 X199.372 Y224.184 E3.56102
;WIDTH:0.653383
G1 X198.963 Y223.868 E3.5905
;WIDTH:0.653605
G1 X198.471 Y223.461 E3.62697
;WIDTH:0.650782
G1 X197.787 Y222.846 E3.67919
;WIDTH:0.65103
G1 X197.275 Y222.338 E3.72021
G1 X196.823 Y221.855 E3.75779
;WIDTH:0.650873
G1 X196.371 Y221.332 E3.79709
;WIDTH:0.651036
G1 X195.939 Y220.791 E3.83639
;WIDTH:0.651265
G1 X195.528 Y220.234 E3.87573
;WIDTH:0.652049
G1 X195.124 Y219.637 E3.91681
G1 X194.774 Y219.075 E3.95446
;WIDTH:0.652341
G1 X194.438 Y218.485 E3.99317
;WIDTH:0.652742
