; HEADER_BLOCK_START
; generated by AnycubicSlicerNext 1.1.1 on 2025-12-12 at 13:59:54
; total layer number: 99
; filament_density: 1.24
; filament_diameter: 1.75
; max_z_height: 19.84
; HEADER_BLOCK_END

; THUMBNAIL_BLOCK_START

;
; THUMBNAIL_BLOCK_END

; external perimeters extrusion width = 0.42mm
; perimeters extrusion width = 0.45mm
; infill extrusion width = 0.45mm
; solid infill extrusion width = 0.42mm
; top infill extrusion width = 0.42mm
; first layer extrusion width = 0.50mm

; EXECUTABLE_BLOCK_START
;TYPE:Custom
G90 ; use absolute coordinates
M83 ; extruder relative mode
M140 S60 ; set bed temp
M190 S60 ; wait for bed temp
M104 S220 ; set extruder temp
M109 S220 ; wait for extruder temp
G28                                        ; move X/Y/Z to min endstops
G1 Z0.28                                   ; lift nozzle a bit 
G92 E0 
G1 Y3 F2400                                    ; zero the extruded length 
G1 X180  E40 F500                       ; Extrude 25mm of filament in a 5cm line. 
G92 E0                                     ; zero the extruded length again 
G1 E-2 F3000                                ; Retract a little 
G1 X181 F4000                              ; Quickly wipe away from the filament line
M117
M900 K0.07
G90
G21
M82 ; use absolute distances for extrusion
G92 E0
; filament start gcode
M106 S0
;LAYER_CHANGE
;Z:0.24
;HEIGHT:0.24
G1 E-1.5 F1800
G92 E0
; layer num/total_layer_count: 1/99
; update layer progress
M991 S0 P0 ;notify layer change
;_SET_FAN_SPEED_CHANGING_LAYER
SET_VELOCITY_LIMIT ACCEL=5000 ACCEL_TO_DECEL=2500
; printing object middle.stl id:29 copy 0
G1 X209.592 Y230.205 F18000
G1 Z.24
G1 E1.5 F1800
;TYPE:Outer wall
;WIDTH:0.418774
G1 F1988
G1 X209.582 Y230.536 E1.51151
;WIDTH:0.41878
G1 X209.378 Y230.541 E1.51861
G1 X208.425 Y230.475 E1.5519
G1 X207.678 Y230.386 E1.57808
;WIDTH:0.418512
G1 X206.944 Y230.272 E1.60393
;WIDTH:0.418362
G1 X206.222 Y230.133 E1.62948
;WIDTH:0.418065
G1 X205.479 Y229.961 E1.65598
G1 X204.778 Y229.766 E1.68128
;WIDTH:0.417557
G1 X204.07 Y229.555 E1.70688
G1 X203.358 Y229.307 E1.73307
;WIDTH:0.417335
G1 X202.674 Y229.035 E1.7586
;WIDTH:0.417086
G1 X201.986 Y228.745 E1.78447
G1 X201.32 Y228.428 E1.81
;WIDTH:0.416735
G1 X200.661 Y228.081 E1.8358
;WIDTH:0.417382
G1 X200.017 Y227.723 E1.86135
G1 X199.384 Y227.333 E1.88714
;WIDTH:0.416761
G1 X198.757 Y226.914 E1.91327
;WIDTH:0.41575
G1 X198.167 Y226.487 E1.93839
;WIDTH:0.417209
G1 X197.575 Y226.034 E1.96423
G1 X197.005 Y225.557 E1.99001
;WIDTH:0.416572
G1 X196.451 Y225.057 E2.01582
;WIDTH:0.420196
G1 X195.704 Y224.332 E2.05223
;WIDTH:0.420423
G1 X195.129 Y223.715 E2.08169
G1 X194.658 Y223.169 E2.10691
G1 X194.206 Y222.607 E2.13214
G1 X193.774 Y222.029 E2.15738
G1 X193.362 Y221.436 E2.18262
G1 X192.972 Y220.829 E2.20785
G1 X192.603 Y220.209 E2.23309
;WIDTH:0.420248
G1 X192.256 Y219.577 E2.25832
G1 X191.931 Y218.932 E2.28354
G1 X191.629 Y218.277 E2.30877
;WIDTH:0.420131
G1 X191.35 Y217.611 E2.33398
G1 X191.095 Y216.936 E2.3592
;WIDTH:0.419897
G1 X190.864 Y216.252 E2.3844
G1 X190.657 Y215.561 E2.4096
;WIDTH:0.419776
G1 X190.474 Y214.863 E2.4348
;WIDTH:0.419663
G1 X190.315 Y214.159 E2.45998
;WIDTH:0.419484
G1 X190.182 Y213.45 E2.48515
;WIDTH:0.419336
G1 X190.073 Y212.736 E2.51032
;WIDTH:0.419166
G1 X189.99 Y212.022 E2.53536
;WIDTH:0.423242
G1 X189.934 Y211.306 E2.56067
G1 X189.932 Y210.886 E2.57548
;WIDTH:0.420715
G1 X190.262 Y210.876 E2.58703
;WIDTH:0.423242
G1 X190.358 Y212.007 E2.62702
;WIDTH:0.418686
G1 X190.443 Y212.732 E2.65243
;WIDTH:0.418524
G1 X190.555 Y213.453 E2.67782
;WIDTH:0.418355
G1 X190.691 Y214.161 E2.70289
G1 X190.856 Y214.881 E2.72859
;WIDTH:0.418094
G1 X191.046 Y215.586 E2.75395
;WIDTH:0.41797
G1 X191.26 Y216.284 E2.77931
;WIDTH:0.417843
G1 X191.497 Y216.965 E2.80434
G1 X191.764 Y217.654 E2.83
;WIDTH:0.417562
G1 X192.052 Y218.324 E2.85532
G1 X192.365 Y218.983 E2.88065
;WIDTH:0.417414
G1 X192.701 Y219.631 E2.90597
G1 X193.056 Y220.259 E2.93097
G1 X193.443 Y220.888 E2.9566
;WIDTH:0.417211
G1 X193.847 Y221.496 E2.9819
G1 X194.273 Y222.089 E3.0072
G1 X194.72 Y222.666 E3.0325
G1 X195.182 Y223.219 E3.0575
G1 X195.676 Y223.769 E3.08311
;WIDTH:0.41655
G1 X196.183 Y224.293 E3.10836
;WIDTH:0.415194
G1 X196.709 Y224.8 E3.13353
;WIDTH:0.416589
G1 X197.251 Y225.288 E3.15878
;WIDTH:0.417212
G1 X197.812 Y225.755 E3.18409
G1 X198.39 Y226.201 E3.20938
;WIDTH:0.419758
G1 X199.59 Y227.031 E3.26033
;WIDTH:0.417412
G1 X200.212 Y227.413 E3.28564
G1 X200.841 Y227.766 E3.31065
;WIDTH:0.419057
G1 X201.583 Y228.15 E3.33978
;WIDTH:0.420152
G1 X202.818 Y228.703 E3.38707
;WIDTH:0.418523
G1 X203.538 Y228.983 E3.41393
;WIDTH:0.419813
G1 X204.32 Y229.25 E3.44277
G1 X204.886 Y229.421 E3.46342
;WIDTH:0.417803
G1 X205.591 Y229.612 E3.48876
;WIDTH:0.419469
G1 X206.378 Y229.791 E3.51693
G1 X207.073 Y229.922 E3.54161
;WIDTH:0.419362
G1 X207.774 Y230.029 E3.56632
;WIDTH:0.419196
G1 X208.476 Y230.111 E3.59096
;WIDTH:0.418912
G1 X209.592 Y230.205 E3.62998
G1 E2.62998 F1800
;WIPE_START
G1 F3600
G1 X209.582 Y230.536 E2.46474
G1 X209.378 Y230.541 E2.36272
G1 X208.914 Y230.509 E2.12998
;WIPE_END
G92 E0
G1 X209.607 Y189.79 F18000
G1 E1.5 F1800
;WIDTH:0.418705
G1 F1988
G1 X209.431 Y189.823 E1.50621
G1 X208.463 Y189.89 E1.54
G1 X207.738 Y189.976 E1.56541
;WIDTH:0.418542
G1 X207.008 Y190.089 E1.59112
;WIDTH:0.418377
G1 X206.3 Y190.225 E1.61619
;WIDTH:0.418243
G1 X205.588 Y190.389 E1.64156
;WIDTH:0.418107
G1 X204.883 Y190.578 E1.66693
;WIDTH:0.417981
G1 X204.177 Y190.795 E1.69259
;WIDTH:0.417494
G1 X203.496 Y191.032 E1.7176
;WIDTH:0.417386
G1 X202.817 Y191.298 E1.74291
;WIDTH:0.417566
G1 X202.145 Y191.584 E1.76824
G1 X201.486 Y191.897 E1.79357
;WIDTH:0.416985
G1 X200.83 Y192.238 E1.81916
;WIDTH:0.41639
G1 X200.204 Y192.594 E1.8441
;WIDTH:0.417391
G1 X199.588 Y192.97 E1.8691
G1 X198.973 Y193.379 E1.89473
;WIDTH:0.417178
G1 X198.38 Y193.805 E1.92002
G1 X197.803 Y194.252 E1.94532
G1 X197.243 Y194.719 E1.97062
G1 X196.7 Y195.207 E1.99592
;WIDTH:0.416541
G1 X196.182 Y195.708 E2.02087
;WIDTH:0.415162
G1 X195.669 Y196.24 E2.04634
;WIDTH:0.416574
G1 X195.181 Y196.783 E2.07159
;WIDTH:0.417199
G1 X194.713 Y197.343 E2.09689
G1 X194.268 Y197.921 E2.12219
;WIDTH:0.419691
G1 X193.437 Y199.121 E2.17313
;WIDTH:0.417413
G1 X193.06 Y199.735 E2.19813
G1 X192.698 Y200.379 E2.22376
;WIDTH:0.419065
G1 X192.317 Y201.116 E2.25266
;WIDTH:0.420101
G1 X191.765 Y202.349 E2.29986
;WIDTH:0.418457
G1 X191.484 Y203.071 E2.3268
;WIDTH:0.419813
G1 X191.217 Y203.853 E2.35564
G1 X191.047 Y204.417 E2.3762
;WIDTH:0.417748
G1 X190.854 Y205.13 E2.40185
;WIDTH:0.419403
G1 X190.677 Y205.911 E2.42979
G1 X190.546 Y206.606 E2.45446
G1 X190.438 Y207.307 E2.47917
;WIDTH:0.419144
G1 X190.356 Y208.007 E2.50374
;WIDTH:0.418922
G1 X190.262 Y209.125 E2.54283
;WIDTH:0.41874
G1 X189.931 Y209.115 E2.55432
G1 X189.926 Y208.911 E2.56143
G1 X189.993 Y207.955 E2.59479
G1 X190.08 Y207.217 E2.62066
;WIDTH:0.418574
G1 X190.196 Y206.474 E2.64682
;WIDTH:0.418363
G1 X190.335 Y205.753 E2.67238
;WIDTH:0.418129
G1 X190.506 Y205.012 E2.69881
G1 X190.702 Y204.308 E2.72419
;WIDTH:0.417426
G1 X190.913 Y203.601 E2.74978
G1 X191.158 Y202.897 E2.77564
G1 X191.433 Y202.204 E2.80149
;WIDTH:0.417113
G1 X191.72 Y201.525 E2.82705
G1 X192.04 Y200.851 E2.85289
;WIDTH:0.41669
G1 X192.383 Y200.2 E2.87839
;WIDTH:0.417387
G1 X192.75 Y199.54 E2.90456
G1 X193.135 Y198.915 E2.93003
;WIDTH:0.416741
G1 X193.55 Y198.295 E2.95586
;WIDTH:0.415805
G1 X193.981 Y197.698 E2.98128
;WIDTH:0.417198
G1 X194.434 Y197.106 E3.00713
G1 X194.912 Y196.536 E3.0329
;WIDTH:0.416559
G1 X195.412 Y195.982 E3.05872
;WIDTH:0.415103
G1 X195.929 Y195.446 E3.0844
;WIDTH:0.416549
G1 X196.458 Y194.933 E3.10991
;WIDTH:0.417272
G1 X197.011 Y194.436 E3.13568
G1 X197.582 Y193.96 E3.16144
G1 X198.169 Y193.506 E3.1872
G1 X198.773 Y193.072 E3.21296
;WIDTH:0.417414
G1 X199.399 Y192.656 E3.23903
G1 X200.03 Y192.276 E3.26459
;WIDTH:0.419378
G1 X200.784 Y191.845 E3.29488
;WIDTH:0.420231
G1 X201.536 Y191.463 E3.32435
G1 X202.186 Y191.164 E3.34937
;WIDTH:0.420128
G1 X202.69 Y190.958 E3.36838
;WIDTH:0.418466
G1 X203.418 Y190.67 E3.39563
;WIDTH:0.419998
G1 X204.216 Y190.396 E3.42508
G1 X204.906 Y190.189 E3.45026
;WIDTH:0.419762
G1 X205.604 Y190.006 E3.47545
;WIDTH:0.41963
G1 X206.308 Y189.848 E3.50063
;WIDTH:0.419446
G1 X207.018 Y189.715 E3.5258
G1 X207.731 Y189.606 E3.55097
;WIDTH:0.419149
G1 X208.448 Y189.523 E3.57612
;WIDTH:0.418942
G1 X209.597 Y189.467 E3.61619
;WIDTH:0.418787
G1 X209.607 Y189.79 E3.62746
G1 E2.62746 F1800
;WIPE_START
G1 F3600
G1 X209.431 Y189.823 E2.5382
G1 X208.612 Y189.88 E2.12746
;WIPE_END
G92 E0
G1 X211.343 Y189.793 F18000
G1 E1.5 F1800
;WIDTH:0.419026
G1 F1988
G1 X211.353 Y189.469 E1.51128
G1 X211.557 Y189.458 E1.51841
G1 X212.54 Y189.528 E1.55275
;WIDTH:0.418671
G1 X213.291 Y189.619 E1.57907
;WIDTH:0.418489
G1 X214.047 Y189.738 E1.60568
;WIDTH:0.418293
G1 X214.78 Y189.881 E1.63165
;WIDTH:0.418152
G1 X215.516 Y190.054 E1.65793
;WIDTH:0.417997
G1 X216.254 Y190.255 E1.6845
;WIDTH:0.417845
G1 X216.967 Y190.479 E1.71047
;WIDTH:0.417282
G1 X217.683 Y190.733 E1.73679
G1 X218.386 Y191.017 E1.76307
;WIDTH:0.416939
G1 X219.075 Y191.313 E1.78907
G1 X219.758 Y191.644 E1.81536
;WIDTH:0.416477
G1 X220.419 Y191.999 E1.84129
;WIDTH:0.41666
G1 X221.086 Y192.379 E1.86787
;WIDTH:0.417414
G1 X221.72 Y192.775 E1.8938
G1 X222.346 Y193.204 E1.92012
;WIDTH:0.420081
G1 X223.233 Y193.864 E1.95873
;WIDTH:0.420597
G1 X223.891 Y194.406 E1.98859
G1 X224.437 Y194.893 E2.01418
G1 X224.966 Y195.4 E2.0398
G1 X225.476 Y195.925 E2.06542
G1 X225.968 Y196.468 E2.09105
G1 X226.439 Y197.028 E2.11667
G1 X226.891 Y197.605 E2.14229
;WIDTH:0.420483
G1 X227.321 Y198.197 E2.1679
;WIDTH:0.420376
G1 X227.731 Y198.804 E2.19351
G1 X228.118 Y199.426 E2.21912
;WIDTH:0.420206
G1 X228.483 Y200.061 E2.24471
G1 X228.826 Y200.708 E2.27031
;WIDTH:0.420016
G1 X229.145 Y201.367 E2.29589
;WIDTH:0.420139
G1 X229.487 Y202.152 E2.3258
G1 X229.711 Y202.717 E2.34705
;WIDTH:0.419567
G1 X229.958 Y203.407 E2.37262
;WIDTH:0.419828
G1 X230.202 Y204.175 E2.40074
;WIDTH:0.420201
G1 X230.409 Y204.93 E2.42809
G1 X230.577 Y205.642 E2.45368
;WIDTH:0.419791
G1 X230.719 Y206.361 E2.47925
;WIDTH:0.419675
G1 X230.836 Y207.084 E2.50481
;WIDTH:0.419542
G1 X230.927 Y207.81 E2.53035
;WIDTH:0.419671
G1 X230.992 Y208.54 E2.55592
G1 X231.031 Y209.271 E2.58147
;WIDTH:0.419042
G1 X231.044 Y210.01 E2.60722
;WIDTH:0.418844
G1 X231.029 Y210.765 E2.63353
;WIDTH:0.418648
G1 X230.985 Y211.548 E2.66079
;WIDTH:0.418461
G1 X230.917 Y212.271 E2.68606
;WIDTH:0.418285
G1 X230.82 Y213.019 E2.71231
;WIDTH:0.418117
G1 X230.695 Y213.764 E2.73855
;WIDTH:0.417954
G1 X230.543 Y214.504 E2.76479
;WIDTH:0.417802
G1 X230.357 Y215.265 E2.79199
;WIDTH:0.417653
G1 X230.158 Y215.964 E2.81721
;WIDTH:0.417987
G1 X229.927 Y216.683 E2.84346
G1 X229.666 Y217.399 E2.86993
G1 X229.38 Y218.099 E2.89619
;WIDTH:0.41757
G1 X229.066 Y218.797 E2.92275
G1 X228.735 Y219.467 E2.94867
G1 X228.375 Y220.131 E2.97491
;WIDTH:0.417413
G1 X227.99 Y220.782 E3.00113
G1 X227.577 Y221.426 E3.02766
G1 X227.151 Y222.04 E3.05357
;WIDTH:0.417306
G1 X226.698 Y222.644 E3.07978
G1 X226.222 Y223.232 E3.106
G1 X225.719 Y223.809 E3.13252
G1 X225.208 Y224.353 E3.15842
G1 X224.671 Y224.885 E3.18464
G1 X224.114 Y225.397 E3.21085
G1 X223.538 Y225.887 E3.23709
;WIDTH:0.416442
G1 X222.941 Y226.356 E3.26334
;WIDTH:0.420216
G1 X222.144 Y226.941 E3.29791
G1 X221.537 Y227.345 E3.32339
;WIDTH:0.420031
G1 X221.071 Y227.63 E3.34248
;WIDTH:0.416668
G1 X220.411 Y228.006 E3.36876
;WIDTH:0.419584
G1 X219.622 Y228.427 E3.39995
;WIDTH:0.420152
G1 X218.855 Y228.789 E3.42959
G1 X218.369 Y228.99 E3.44796
;WIDTH:0.418927
G1 X217.606 Y229.297 E3.47662
;WIDTH:0.41989
G1 X216.8 Y229.577 E3.50642
G1 X216.1 Y229.79 E3.53197
G1 X215.392 Y229.978 E3.55754
;WIDTH:0.419777
G1 X214.678 Y230.141 E3.58311
;WIDTH:0.419573
G1 X213.958 Y230.278 E3.60867
;WIDTH:0.419448
G1 X213.235 Y230.39 E3.6342
;WIDTH:0.419265
G1 X212.508 Y230.475 E3.65973
;WIDTH:0.418991
G1 X211.352 Y230.535 E3.70004
;WIDTH:0.418745
G1 X211.342 Y230.207 E3.71146
G1 X211.531 Y230.175 E3.71811
G1 X212.493 Y230.107 E3.75169
G1 X213.239 Y230.018 E3.77786
;WIDTH:0.418454
G1 X213.973 Y229.903 E3.8037
;WIDTH:0.418221
G1 X214.693 Y229.762 E3.82921
G1 X215.425 Y229.591 E3.85534
;WIDTH:0.417972
G1 X216.142 Y229.396 E3.88114
;WIDTH:0.417828
G1 X216.842 Y229.177 E3.90662
;WIDTH:0.417432
G1 X217.551 Y228.926 E3.93269
;WIDTH:0.417221
G1 X218.241 Y228.652 E3.95844
;WIDTH:0.417002
G1 X218.914 Y228.359 E3.98386
G1 X219.59 Y228.032 E4.0099
;WIDTH:0.416419
G1 X220.246 Y227.683 E4.03559
;WIDTH:0.416632
G1 X220.89 Y227.313 E4.0613
;WIDTH:0.41747
G1 X221.512 Y226.923 E4.08676
G1 X222.133 Y226.5 E4.11283
;WIDTH:0.420079
G1 X223.001 Y225.85 E4.15071
;WIDTH:0.420515
G1 X223.649 Y225.316 E4.18008
G1 X224.184 Y224.838 E4.2052
;WIDTH:0.420625
G1 X224.704 Y224.34 E4.23035
G1 X225.205 Y223.825 E4.25551
G1 X225.687 Y223.292 E4.28067
G1 X226.15 Y222.742 E4.30582
;WIDTH:0.420443
G1 X226.594 Y222.176 E4.33097
G1 X227.017 Y221.595 E4.35611
G1 X227.419 Y220.998 E4.38126
G1 X227.8 Y220.389 E4.4064
;WIDTH:0.420269
G1 X228.158 Y219.765 E4.43153
;WIDTH:0.420155
G1 X228.495 Y219.13 E4.45666
;WIDTH:0.420016
G1 X228.808 Y218.483 E4.48176
;WIDTH:0.420128
G1 X229.365 Y217.158 E4.532
;WIDTH:0.41953
G1 X229.608 Y216.481 E4.55708
;WIDTH:0.419941
G1 X229.861 Y215.678 E4.5865
;WIDTH:0.4202
G1 X230.05 Y214.984 E4.61161
G1 X230.216 Y214.285 E4.63674
;WIDTH:0.419791
G1 X230.356 Y213.58 E4.66183
;WIDTH:0.419675
G1 X230.471 Y212.87 E4.68693
;WIDTH:0.419542
G1 X230.56 Y212.157 E4.71201
;WIDTH:0.419668
G1 X230.624 Y211.44 E4.73712
G1 X230.664 Y210.722 E4.7622
;WIDTH:0.419042
G1 X230.677 Y209.997 E4.78749
;WIDTH:0.418844
G1 X230.663 Y209.255 E4.81333
;WIDTH:0.418649
G1 X230.619 Y208.485 E4.84014
;WIDTH:0.418461
G1 X230.554 Y207.776 E4.86494
;WIDTH:0.418285
G1 X230.458 Y207.04 E4.89073
;WIDTH:0.418117
G1 X230.336 Y206.308 E4.91651
;WIDTH:0.417954
G1 X230.187 Y205.581 E4.94228
;WIDTH:0.417749
G1 X230.004 Y204.833 E4.96903
G1 X229.81 Y204.147 E4.99378
;WIDTH:0.417968
G1 X229.582 Y203.441 E5.01955
G1 X229.324 Y202.733 E5.04573
G1 X229.044 Y202.045 E5.07153
;WIDTH:0.417629
G1 X228.74 Y201.368 E5.0973
G1 X228.414 Y200.71 E5.12277
G1 X228.056 Y200.049 E5.14886
;WIDTH:0.417485
G1 X227.679 Y199.409 E5.17463
;WIDTH:0.417341
G1 X227.278 Y198.784 E5.20038
G1 X226.854 Y198.174 E5.22614
G1 X226.414 Y197.587 E5.25159
G1 X225.941 Y197.002 E5.27766
G1 X225.453 Y196.443 E5.30341
G1 X224.945 Y195.901 E5.32917
G1 X224.417 Y195.378 E5.35492
G1 X223.877 Y194.882 E5.38037
G1 X223.305 Y194.394 E5.40644
;WIDTH:0.416441
G1 X222.722 Y193.933 E5.43213
;WIDTH:0.420164
G1 X221.939 Y193.365 E5.46598
G1 X221.343 Y192.969 E5.49097
;WIDTH:0.420032
G1 X220.888 Y192.686 E5.50967
;WIDTH:0.416696
G1 X220.236 Y192.312 E5.53569
;WIDTH:0.419535
G1 X219.464 Y191.905 E5.56615
;WIDTH:0.420152
G1 X218.239 Y191.348 E5.61318
;WIDTH:0.418881
G1 X217.485 Y191.049 E5.64142
;WIDTH:0.419964
G1 X216.691 Y190.775 E5.67074
G1 X216.004 Y190.566 E5.69583
G1 X215.309 Y190.381 E5.72094
;WIDTH:0.41973
G1 X214.608 Y190.22 E5.74604
;WIDTH:0.419527
G1 X213.902 Y190.086 E5.77114
G1 X213.192 Y189.976 E5.79621
;WIDTH:0.419221
G1 X212.482 Y189.891 E5.82112
;WIDTH:0.419026
G1 X211.343 Y189.793 E5.86095
; stop printing object middle.stl id:29 copy 0
G1 E4.86095 F1800
;WIPE_START
G1 F3600
G1 X211.353 Y189.469 E4.69903
G1 X211.557 Y189.458 E4.59677
G1 X212.028 Y189.492 E4.36095
;WIPE_END
G92 E0
M106 S127
;LAYER_CHANGE
;Z:0.44
;HEIGHT:0.2
; layer num/total_layer_count: 2/99
; update layer progress
M991 S0 P1 ;notify layer change
;_SET_FAN_SPEED_CHANGING_LAYER
SET_VELOCITY_LIMIT ACCEL=6000 ACCEL_TO_DECEL=3000
M104 S200 ; set nozzle temperature
M140 S60 ; set bed temperature
; printing object middle.stl id:29 copy 0
G1 X209.688 Y230.215 F18000
G1 Z.44
G1 E1.5 F1800
SET_VELOCITY_LIMIT ACCEL=3000 ACCEL_TO_DECEL=1500
;WIDTH:0.465019
G1 F1780
G1 X209.676 Y230.637 E1.51409
;WIDTH:0.465404
G1 X209.116 Y230.61 E1.5328
G1 X208.432 Y230.548 E1.55572
;WIDTH:0.461326
G1 X207.663 Y230.458 E1.5813
;WIDTH:0.464788
G1 X206.923 Y230.348 E1.60623
G1 X206.214 Y230.211 E1.63033
