; HEADER_BLOCK_START
; generated by AnycubicSlicerNext 1.1.1 on 2025-12-10 at 15:08:17
; total layer number: 10
; filament_density: 1.24
; filament_diameter: 1.75
; max_z_height: 2.04
; HEADER_BLOCK_END

; THUMBNAIL_BLOCK_START

;
; THUMBNAIL_BLOCK_END

; external perimeters extrusion width = 0.42mm
; perimeters extrusion width = 0.45mm
; infill extrusion width = 0.45mm
; solid infill extrusion width = 0.42mm
; top infill extrusion width = 0.42mm
; first layer extrusion width = 0.50mm

; external perimeters extrusion width = 0.42mm
; perimeters extrusion width = 0.45mm
; infill extrusion width = 0.45mm
; solid infill extrusion width = 0.42mm
; top infill extrusion width = 0.42mm
; first layer extrusion width = 0.50mm

; EXECUTABLE_BLOCK_START
;TYPE:Custom
G90 ; use absolute coordinates
M83 ; extruder relative mode
M140 S60 ; set bed temp
M190 S60 ; wait for bed temp
M104 S220 ; set extruder temp
M109 S220 ; wait for extruder temp
G28                                        ; move X/Y/Z to min endstops
G1 Z0.28                                   ; lift nozzle a bit 
G92 E0 
G1 Y3 F2400                                    ; zero the extruded length 
G1 X180  E40 F500                       ; Extrude 25mm of filament in a 5cm line. 
G92 E0                                     ; zero the extruded length again 
G1 E-2 F3000                                ; Retract a little 
G1 X181 F4000                              ; Quickly wipe away from the filament line
M117
M900 K0.07
G90
G21
M82 ; use absolute distances for extrusion
G92 E0
; filament start gcode
M106 S0
;LAYER_CHANGE
;Z:0.24
;HEIGHT:0.24
G1 E-1.5 F1800
G92 E0
; layer num/total_layer_count: 1/10
; update layer progress
M991 S0 P0 ;notify layer change
;_SET_FAN_SPEED_CHANGING_LAYER
SET_VELOCITY_LIMIT ACCEL=5000 ACCEL_TO_DECEL=2500
; printing object UnterlegscheibeV3.stl id:8728013681191827255 copy 0
G1 X182.192 Y203.683 F18000
G1 Z.24
G1 E1.5 F1800
;TYPE:Inner wall
;WIDTH:0.5
G1 F3600
G1 X182.19 Y203.722 E1.50164
G1 X181.451 Y207.337 E1.6585
G1 X180.259 Y210.765 E1.81279
G1 X178.649 Y213.973 E1.96538
G1 X176.654 Y216.927 E2.11693
G1 X174.306 Y219.594 E2.268
G1 X171.639 Y221.942 E2.41907
G1 X168.685 Y223.937 E2.57062
G1 X165.477 Y225.547 E2.72321
G1 X162.049 Y226.739 E2.8775
G1 X158.434 Y227.478 E3.03436
G1 X154.667 Y227.731 E3.19486
G1 X150.901 Y227.478 E3.35535
G1 X147.286 Y226.739 E3.51221
G1 X143.858 Y225.547 E3.6665
G1 X140.65 Y223.937 E3.81909
G1 X137.696 Y221.942 E3.97064
G1 X135.029 Y219.594 E4.12171
G1 X132.681 Y216.927 E4.27278
G1 X130.685 Y213.973 E4.42433
G1 X129.075 Y210.765 E4.57692
G1 X127.884 Y207.337 E4.73121
G1 X127.145 Y203.722 E4.88807
G1 X126.892 Y199.955 E5.04857
G1 X127.145 Y196.189 E5.20906
G1 X127.884 Y192.574 E5.36592
G1 X129.075 Y189.146 E5.52021
G1 X130.685 Y185.938 E5.6728
G1 X132.681 Y182.984 E5.82435
G1 X135.029 Y180.317 E5.97542
G1 X137.696 Y177.969 E6.12649
G1 X140.65 Y175.973 E6.27805
G1 X143.858 Y174.363 E6.43063
G1 X147.286 Y173.172 E6.58492
G1 X150.901 Y172.433 E6.74178
G1 X154.391 Y172.198 E6.89051
G1 X154.667 Y172.18 E6.90228
G1 X158.434 Y172.433 E7.06277
G1 X162.049 Y173.172 E7.21963
G1 X165.477 Y174.363 E7.37393
G1 X168.685 Y175.973 E7.52651
G1 X171.639 Y177.969 E7.67806
G1 X174.306 Y180.317 E7.82913
G1 X176.654 Y182.984 E7.9802
G1 X178.649 Y185.938 E8.13176
G1 X180.259 Y189.146 E8.28434
G1 X181.451 Y192.574 E8.43863
G1 X182.19 Y196.189 E8.59549
G1 X182.443 Y199.955 E8.75599
G1 X182.192 Y203.683 E8.91484
G1 X181.745 Y203.653 F18000
;TYPE:Outer wall
G1 F3600
G1 X181.744 Y203.662 E8.9152
G1 X181.017 Y207.218 E9.06951
G1 X179.845 Y210.59 E9.22128
G1 X178.262 Y213.746 E9.37139
G1 X176.298 Y216.652 E9.52049
G1 X173.988 Y219.276 E9.66913
G1 X171.364 Y221.586 E9.81777
G1 X168.458 Y223.55 E9.96687
G1 X165.302 Y225.133 E10.11697
G1 X161.93 Y226.305 E10.26875
G1 X158.374 Y227.032 E10.42306
G1 X154.667 Y227.282 E10.58099
G1 X150.961 Y227.032 E10.73892
G1 X147.405 Y226.305 E10.89323
G1 X144.033 Y225.133 E11.045
G1 X140.877 Y223.55 E11.19511
G1 X137.971 Y221.586 E11.34421
G1 X135.346 Y219.276 E11.49285
G1 X133.036 Y216.652 E11.64148
G1 X131.073 Y213.746 E11.79059
G1 X129.489 Y210.59 E11.94069
G1 X128.318 Y207.218 E12.09247
G1 X127.591 Y203.662 E12.24677
G1 X127.341 Y199.955 E12.4047
G1 X127.591 Y196.249 E12.56264
G1 X128.318 Y192.693 E12.71694
G1 X129.489 Y189.321 E12.86872
G1 X131.073 Y186.165 E13.01882
G1 X133.036 Y183.259 E13.16793
G1 X135.346 Y180.634 E13.31656
G1 X137.971 Y178.324 E13.4652
G1 X140.877 Y176.361 E13.6143
G1 X144.033 Y174.777 E13.76441
G1 X147.405 Y173.605 E13.91618
G1 X150.961 Y172.879 E14.07049
G1 X154.421 Y172.646 E14.21794
G1 X154.667 Y172.629 E14.22842
G1 X158.374 Y172.879 E14.38635
G1 X161.93 Y173.605 E14.54066
G1 X165.302 Y174.777 E14.69243
G1 X168.458 Y176.361 E14.84254
G1 X171.364 Y178.324 E14.99164
G1 X173.988 Y180.634 E15.14028
G1 X176.298 Y183.259 E15.28892
G1 X178.262 Y186.165 E15.43802
G1 X179.845 Y189.321 E15.58812
G1 X181.017 Y192.693 E15.7399
G1 X181.744 Y196.249 E15.89421
G1 X181.994 Y199.955 E16.05214
G1 X181.745 Y203.653 E16.20971
G1 E15.20971 F1800
;WIPE_START
G1 F3600
G1 X181.744 Y203.662 E15.20547
G1 X181.546 Y204.633 E14.70971
;WIPE_END
G92 E0
G1 X126.987 Y227.636 F18000
G1 E1.5 F1800
;TYPE:Inner wall
G1 F3600
G1 X123.677 Y223.876 E1.71299
G1 X120.864 Y219.712 E1.92661
G1 X118.595 Y215.191 E2.14163
G1 X116.917 Y210.362 E2.35901
G1 X115.875 Y205.268 E2.58004
G1 X115.518 Y199.955 E2.8064
G1 X115.875 Y194.643 E3.03276
G1 X116.917 Y189.549 E3.25379
G1 X118.595 Y184.719 E3.47118
G1 X120.864 Y180.199 E3.68619
G1 X123.677 Y176.035 E3.89982
G1 X126.987 Y172.275 E4.11281
G1 X130.747 Y168.965 E4.32579
G1 X134.911 Y166.152 E4.53942
G1 X139.431 Y163.883 E4.75444
G1 X144.261 Y162.205 E4.97182
G1 X149.355 Y161.163 E5.19285
G1 X154.752 Y160.811 E5.42279
G1 X159.98 Y161.163 E5.64554
G1 X165.074 Y162.205 E5.86657
G1 X169.904 Y163.883 E6.08395
G1 X174.424 Y166.152 E6.29897
G1 X178.588 Y168.965 E6.51259
G1 X182.348 Y172.275 E6.72558
G1 X185.658 Y176.035 E6.93857
G1 X188.471 Y180.199 E7.15219
G1 X190.74 Y184.719 E7.36721
G1 X192.418 Y189.549 E7.58459
G1 X193.459 Y194.643 E7.80562
G1 X193.817 Y199.955 E8.03198
G1 X193.459 Y205.268 E8.25834
G1 X192.418 Y210.361 E8.47937
G1 X190.74 Y215.191 E8.69676
G1 X188.471 Y219.712 E8.91177
G1 X185.658 Y223.876 E9.1254
G1 X182.348 Y227.636 E9.33839
G1 X178.588 Y230.946 E9.55137
G1 X174.424 Y233.759 E9.765
G1 X169.904 Y236.028 E9.98002
G1 X165.074 Y237.706 E10.1974
G1 X159.98 Y238.747 E10.41843
G1 X154.667 Y239.105 E10.64479
G1 X149.355 Y238.747 E10.87115
G1 X144.261 Y237.706 E11.09218
G1 X139.431 Y236.028 E11.30956
G1 X134.911 Y233.759 E11.52458
G1 X130.747 Y230.946 E11.73821
G1 X126.987 Y227.636 E11.95119
G1 X126.669 Y227.954 F18000
;TYPE:Outer wall
G1 F3600
G1 X123.321 Y224.15 E12.16661
G1 X120.476 Y219.939 E12.38269
G1 X118.181 Y215.366 E12.60018
G1 X116.483 Y210.481 E12.82008
G1 X115.43 Y205.328 E13.04366
G1 X115.068 Y199.955 E13.27259
G1 X115.43 Y194.583 E13.50152
G1 X116.483 Y189.43 E13.7251
G1 X118.181 Y184.544 E13.945
G1 X120.476 Y179.972 E14.1625
G1 X123.321 Y175.76 E14.37857
G1 X126.669 Y171.957 E14.59399
G1 X130.472 Y168.609 E14.80941
G1 X134.684 Y165.764 E15.02549
G1 X139.256 Y163.469 E15.24298
G1 X144.142 Y161.771 E15.46288
G1 X149.295 Y160.718 E15.68646
G1 X154.667 Y160.356 E15.91539
G1 X154.782 Y160.364 E15.92028
G1 X160.04 Y160.718 E16.14432
G1 X165.193 Y161.771 E16.3679
G1 X170.078 Y163.469 E16.5878
G1 X174.651 Y165.764 E16.8053
G1 X178.862 Y168.609 E17.02137
G1 X182.666 Y171.957 E17.23679
G1 X186.014 Y175.76 E17.45221
G1 X188.859 Y179.972 E17.66828
G1 X191.154 Y184.544 E17.88578
G1 X192.852 Y189.43 E18.10568
G1 X193.905 Y194.583 E18.32926
G1 X194.266 Y199.955 E18.55819
G1 X193.905 Y205.328 E18.78712
G1 X192.852 Y210.481 E19.0107
G1 X191.154 Y215.366 E19.2306
G1 X188.859 Y219.939 E19.4481
G1 X186.014 Y224.15 E19.66417
G1 X182.666 Y227.954 E19.87959
G1 X178.862 Y231.302 E20.09501
G1 X174.651 Y234.147 E20.31108
G1 X170.078 Y236.442 E20.52858
G1 X165.193 Y238.139 E20.74848
G1 X160.04 Y239.193 E20.97206
G1 X154.667 Y239.554 E21.20099
G1 X149.295 Y239.193 E21.42992
G1 X144.142 Y238.139 E21.6535
G1 X139.256 Y236.442 E21.8734
G1 X134.684 Y234.147 E22.0909
G1 X130.472 Y231.302 E22.30697
G1 X126.669 Y227.954 E22.52239
G1 E21.52239 F1800
;WIPE_START
G1 F3600
G1 X126.008 Y227.203 E21.02239
;WIPE_END
G92 E0
G1 X126.606 Y226.769 F18000
G1 E1.5 F1800
;TYPE:Gap infill
;WIDTH:0.201916
G1 F3600
G1 X126.653 Y226.786 E1.50071
;WIDTH:0.249721
G1 X126.7 Y226.802 E1.50164
;WIDTH:0.297525
G1 X126.746 Y226.819 E1.5028
;WIDTH:0.346107
G1 X126.78 Y226.82 E1.50375
;WIDTH:0.37477
G1 X126.866 Y226.912 E1.50758
;WIDTH:0.362616
G1 X126.889 Y226.912 E1.50826
;WIDTH:0.330339
G1 X126.912 Y226.912 E1.50886
;WIDTH:0.294964
G1 X126.958 Y226.912 E1.50993
;WIDTH:0.244953
G1 X127.19 Y226.912 E1.51419
G1 X127.539 Y227.739 F18000
;WIDTH:0.165829
G1 F3600
G1 X127.866 Y228.046 E1.51905
G1 X128.129 Y228.126 E1.52203
;WIDTH:0.214029
G1 X128.392 Y228.207 E1.52627
G1 E.1638 F1800
;WIPE_START
G1 F3600
G1 X128.129 Y228.126 E.02627
;WIPE_END
G92 E0
G1 X129.703 Y229.356 F18000
G1 E1.5 F1800
;WIDTH:0.20227
G1 F3600
G1 X129.521 Y229.445 E1.50291
;WIDTH:0.220926
G1 X129.542 Y229.483 E1.5036
;WIDTH:0.192317
G1 X129.563 Y229.52 E1.50417
;WIDTH:0.174929
G1 X129.89 Y229.828 E1.50942
G1 X129.938 Y229.853 E1.51006
;WIDTH:0.158194
G1 X130.227 Y230.124 E1.51407
G1 X130.487 Y230.301 E1.51725
G1 X130.272 Y230.087 F18000
;WIDTH:0.113827
G1 F3600
G1 X130.262 Y230.114 E1.51742
;WIDTH:0.135451
G1 X130.253 Y230.142 E1.51765
;WIDTH:0.136999
G1 X130.721 Y230.582 E1.52286
G1 X130.897 Y230.645 E1.52438
G1 X130.778 Y230.525 F18000
;TYPE:Bottom surface
;WIDTH:0.5
G1 F3600
G1 X130.903 Y230.4 E1.53189
G1 X130.269 Y229.766 E1.57002
G1 X130.103 Y229.931 E1.57996
G1 X129.938 Y229.853 F18000
;TYPE:Gap infill
;WIDTH:0.158189
G1 F3600
G1 X129.944 Y229.816 E1.58034
;WIDTH:0.141673
G1 X129.951 Y229.779 E1.58067
G1 E.09955 F1800
;WIPE_START
G1 F3600
G1 X129.944 Y229.816 E.08067
;WIPE_END
G92 E0
G1 X131.135 Y230.802 F18000
G1 E1.5 F1800
;TYPE:Bottom surface
;WIDTH:0.5
G1 F3600
G1 X131.22 Y230.717 E1.50511
G1 X131.659 Y231.156 E1.53147
G1 E.40163 F1800
;WIPE_START
G1 F3600
G1 X131.22 Y230.717 E.09152
G1 X131.135 Y230.802 E.03147
;WIPE_END
G92 E0
G1 X132.856 Y232.071 F18000
G1 E1.5 F1800
;TYPE:Gap infill
;WIDTH:0.142388
G1 F3600
G1 X132.696 Y231.939 E1.50179
;WIDTH:0.160919
G1 X132.536 Y231.807 E1.50394
;WIDTH:0.204627
G1 X132.503 Y231.766 E1.5047
G1 X132.576 Y231.581 E1.50759
G1 X132.503 Y231.766 F18000
;WIDTH:0.168282
G1 F3600
G1 X132.471 Y231.769 E1.50795
;WIDTH:0.143568
G1 X132.405 Y231.753 E1.50855
G1 X132.231 Y231.609 E1.51051
;WIDTH:0.186174
G1 X132.057 Y231.466 E1.51339
;WIDTH:0.22544
G1 X132.035 Y231.43 E1.51408
;WIDTH:0.260942
G1 X132.014 Y231.394 E1.51492
;WIDTH:0.296445
G1 X131.992 Y231.358 E1.51589
;WIDTH:0.290419
G1 X132.076 Y231.349 E1.51781
;WIDTH:0.242862
G1 X132.16 Y231.341 E1.51934
G1 X132.271 Y231.569 F18000
;TYPE:Bottom surface
;WIDTH:0.5
G1 F3600
G1 X132.489 Y231.352 E1.53244
G1 X132.171 Y231.034 E1.55151
G1 X132.489 Y230.717 E1.57057
G1 X132.806 Y231.034 E1.58964
G1 X133.44 Y230.4 E1.62778
G1 X133.123 Y230.083 E1.64684
G1 X132.806 Y230.4 E1.66591
G1 X132.489 Y230.083 E1.68498
G1 X132.806 Y229.766 E1.70404
G1 X132.489 Y229.449 E1.72311
G1 X131.854 Y230.083 E1.76125
G1 X132.171 Y230.4 E1.78031
G1 X131.854 Y230.717 E1.79938
G1 X130.903 Y229.766 E1.85658
G1 X131.22 Y229.449 E1.87565
G1 X131.537 Y229.766 E1.89472
G1 X132.171 Y229.132 E1.93285
G1 X131.854 Y228.815 E1.95192
G1 X131.537 Y229.132 E1.97098
G1 X131.22 Y228.815 E1.99005
G1 X131.537 Y228.497 E2.00912
G1 X131.22 Y228.18 E2.02819
G1 X130.586 Y228.815 E2.06632
G1 X130.903 Y229.132 E2.08539
G1 X130.586 Y229.449 E2.10445
G1 X130.269 Y229.132 E2.12352
G1 X129.766 Y229.634 E2.15374
G1 X129.71 Y229.578 F18000
;TYPE:Gap infill
;WIDTH:0.230625
G1 F3600
G1 X129.48 Y229.417 E2.15851
G1 X129.315 Y229.264 E2.16233
;WIDTH:0.21403
G1 X129.265 Y229.249 E2.16313
;WIDTH:0.163123
G1 X129.215 Y229.234 E2.16369
G1 X128.926 Y228.962 E2.16788
;WIDTH:0.174929
G1 X128.878 Y228.937 E2.16852
G1 X128.551 Y228.63 E2.17377
;WIDTH:0.199998
G1 X128.534 Y228.586 E2.17443
;WIDTH:0.243962
G1 X128.517 Y228.542 E2.17529
;WIDTH:0.287927
G1 X128.5 Y228.498 E2.17635
;WIDTH:0.304513
G1 X128.681 Y228.496 E2.18069
G1 X128.624 Y228.614 F18000
;WIDTH:0.309909
G1 F3600
G1 X127.94 Y227.972 E2.20366
G1 X127.742 Y227.853 F18000
;TYPE:Bottom surface
;WIDTH:0.5
G1 F3600
G1 X128.049 Y227.546 E2.2221
G1 X129 Y228.497 E2.2793
G1 X128.754 Y228.744 E2.2941
G1 X128.939 Y228.888 F18000
;TYPE:Gap infill
;WIDTH:0.141671
G1 F3600
G1 X128.932 Y228.925 E2.29442
;WIDTH:0.158188
G1 X128.926 Y228.962 E2.29481
G1 X129.091 Y229.04 F18000
;TYPE:Bottom surface
;WIDTH:0.5
G1 F3600
G1 X129.317 Y228.815 E2.30839
G1 X129.634 Y229.132 E2.32746
G1 X130.269 Y228.497 E2.36559
G1 X129.952 Y228.18 E2.38466
G1 X129.634 Y228.497 E2.40373
G1 X129 Y227.863 E2.44186
G1 X129.317 Y227.546 E2.46093
G1 X129.634 Y227.863 E2.47999
G1 X129.952 Y227.546 E2.49906
G1 X129.634 Y227.229 E2.51813
G1 X129.952 Y226.912 E2.53719
G1 X130.586 Y227.546 E2.57533
G1 X130.269 Y227.863 E2.5944
G1 X130.586 Y228.18 E2.61346
G1 X131.22 Y227.546 E2.6516
G1 X130.903 Y227.229 E2.67066
G1 X131.22 Y226.912 E2.68973
G1 X131.537 Y227.229 E2.7088
G1 X132.171 Y226.595 E2.74693
G1 X131.854 Y226.277 E2.766
G1 X131.537 Y226.595 E2.78507
G1 X131.22 Y226.277 E2.80413
G1 X131.537 Y225.96 E2.8232
G1 X131.22 Y225.643 E2.84227
G1 X130.586 Y226.277 E2.8804
G1 X130.903 Y226.595 E2.89947
G1 X130.586 Y226.912 E2.91854
G1 X129.952 Y226.277 E2.95667
G1 X130.269 Y225.96 E2.97574
G1 X129.952 Y225.643 E2.99481
G1 X129.634 Y225.96 E3.01387
G1 X129 Y225.326 E3.05201
G1 X129.317 Y225.009 E3.07107
G1 X129.634 Y225.326 E3.09014
G1 X129.952 Y225.009 E3.10921
G1 X129.634 Y224.692 E3.12828
G1 X129.952 Y224.375 E3.14734
G1 X130.586 Y225.009 E3.18548
G1 X130.269 Y225.326 E3.20454
G1 X130.586 Y225.643 E3.22361
G1 X131.537 Y224.692 E3.28081
G1 X131.22 Y224.375 E3.29988
G1 X130.903 Y224.692 E3.31895
G1 X130.269 Y224.058 E3.35708
G1 X130.586 Y223.74 E3.37615
G1 X130.903 Y224.058 E3.39522
G1 X131.22 Y223.74 E3.41428
G1 X130.903 Y223.423 E3.43335
G1 X131.22 Y223.106 E3.45242
G1 X131.854 Y223.74 E3.49055
G1 X131.537 Y224.058 E3.50962
G1 X131.854 Y224.375 E3.52869
G1 X132.171 Y224.058 E3.54775
G1 X132.806 Y224.692 E3.58589
G1 X132.489 Y225.009 E3.60495
G1 X132.171 Y224.692 E3.62402
G1 X131.537 Y225.326 E3.66216
G1 X131.854 Y225.643 E3.68122
G1 X132.171 Y225.326 E3.70029
G1 X132.489 Y225.643 E3.71936
G1 X132.171 Y225.96 E3.73842
G1 X132.489 Y226.277 E3.75749
G1 X133.123 Y225.643 E3.79562
G1 X132.806 Y225.326 E3.81469
G1 X133.123 Y225.009 E3.83376
G1 X133.757 Y225.643 E3.87189
G1 X133.44 Y225.96 E3.89096
G1 X133.757 Y226.277 E3.91003
G1 X134.074 Y225.96 E3.92909
G1 X134.709 Y226.595 E3.96723
G1 X134.391 Y226.912 E3.9863
G1 X134.074 Y226.595 E4.00536
G1 X133.757 Y226.912 E4.02443
G1 X134.074 Y227.229 E4.0435
G1 X133.757 Y227.546 E4.06256
G1 X133.123 Y226.912 E4.1007
G1 X133.44 Y226.595 E4.11977
G1 X133.123 Y226.277 E4.13883
G1 X132.489 Y226.912 E4.17697
G1 X132.806 Y227.229 E4.19603
G1 X132.489 Y227.546 E4.2151
G1 X132.171 Y227.229 E4.23417
G1 X131.537 Y227.863 E4.2723
G1 X131.854 Y228.18 E4.29137
G1 X132.171 Y227.863 E4.31044
G1 X132.489 Y228.18 E4.3295
G1 X132.171 Y228.497 E4.34857
G1 X132.489 Y228.815 E4.36764
G1 X133.123 Y228.18 E4.40577
G1 X132.806 Y227.863 E4.42484
G1 X133.123 Y227.546 E4.44391
G1 X133.757 Y228.18 E4.48204
G1 X134.074 Y228.497 E4.50111
G1 X133.757 Y228.815 E4.52018
G1 X133.44 Y228.497 E4.53924
G1 X132.806 Y229.132 E4.57738
G1 X133.123 Y229.449 E4.59644
G1 X133.44 Y229.132 E4.61551
G1 X133.757 Y229.449 E4.63458
G1 X133.44 Y229.766 E4.65365
G1 X133.757 Y230.083 E4.67271
G1 X134.391 Y229.449 E4.71085
G1 X134.074 Y229.132 E4.72991
G1 X134.391 Y228.815 E4.74898
G1 X134.709 Y229.132 E4.76805
G1 X135.343 Y228.497 E4.80618
G1 X135.026 Y228.18 E4.82525
G1 X134.709 Y228.497 E4.84432
G1 X134.074 Y227.863 E4.88245
G1 X134.391 Y227.546 E4.90152
G1 X134.709 Y227.863 E4.92059
