; HEADER_BLOCK_START
; generated by AnycubicSlicerNext 1.1.1 on 2025-12-16 at 00:05:00
; total layer number: 165
; filament_density: 1.24
; filament_diameter: 1.75
; max_z_height: 33.04
; HEADER_BLOCK_END

; THUMBNAIL_BLOCK_START

;
; THUMBNAIL_BLOCK_END

; external perimeters extrusion width = 0.42mm
; perimeters extrusion width = 0.45mm
; infill extrusion width = 0.45mm
; solid infill extrusion width = 0.42mm
; top infill extrusion width = 0.42mm
; support material extrusion width = 0.40mm
; first layer extrusion width = 0.50mm

; EXECUTABLE_BLOCK_START
;TYPE:Custom
G90 ; use absolute coordinates
M83 ; extruder relative mode
M140 S60 ; set bed temp
M190 S60 ; wait for bed temp
M104 S220 ; set extruder temp
M109 S220 ; wait for extruder temp
G28                                        ; move X/Y/Z to min endstops
G1 Z0.28                                   ; lift nozzle a bit 
G92 E0 
G1 Y3 F2400                                    ; zero the extruded length 
G1 X180  E40 F500                       ; Extrude 25mm of filament in a 5cm line. 
G92 E0                                     ; zero the extruded length again 
G1 E-2 F3000                                ; Retract a little 
G1 X181 F4000                              ; Quickly wipe away from the filament line
M117
M900 K0.07
G90
G21
M82 ; use absolute distances for extrusion
G92 E0
; filament start gcode
M106 S0
;LAYER_CHANGE
;Z:0.24
;HEIGHT:0.24
G1 E-1.5 F1800
G92 E0
; layer num/total_layer_count: 1/165
; update layer progress
M991 S0 P0 ;notify layer change
;_SET_FAN_SPEED_CHANGING_LAYER
SET_VELOCITY_LIMIT ACCEL=5000 ACCEL_TO_DECEL=2500
; printing object Atom.stl id:285951 copy 0
G1 X219.663 Y226.535 F18000
G1 Z.24
G1 E1.5 F1800
;TYPE:Inner wall
;WIDTH:0.5
G1 F3600
G1 X217.453 Y227.645 E1.60516
G1 X215.09 Y228.465 E1.71147
G1 X212.599 Y228.975 E1.81958
G1 X210 Y229.15 E1.93033
G1 X207.401 Y228.975 E2.04108
G1 X204.91 Y228.465 E2.14918
G1 X202.547 Y227.645 E2.25549
G1 X200.337 Y226.535 E2.36066
G1 X198.3 Y225.159 E2.46515
G1 X196.46 Y223.54 E2.56934
G1 X194.841 Y221.7 E2.67354
G1 X193.465 Y219.663 E2.77803
G1 X192.355 Y217.453 E2.8832
G1 X191.535 Y215.091 E2.98951
G1 X191.025 Y212.599 E3.09761
G1 X190.85 Y210 E3.20836
G1 X191.025 Y207.401 E3.31911
G1 X191.535 Y204.91 E3.42722
G1 X192.355 Y202.547 E3.53353
G1 X193.465 Y200.337 E3.63869
G1 X194.841 Y198.3 E3.74319
G1 X196.46 Y196.46 E3.84738
G1 X198.3 Y194.841 E3.95157
G1 X200.337 Y193.465 E4.05606
G1 X202.547 Y192.355 E4.16123
G1 X204.91 Y191.535 E4.26754
G1 X207.4 Y191.026 E4.37561
G1 X210.037 Y190.853 E4.48796
G1 X212.599 Y191.025 E4.59713
G1 X215.09 Y191.535 E4.70523
G1 X217.453 Y192.355 E4.81154
G1 X219.663 Y193.465 E4.91671
G1 X221.7 Y194.841 E5.0212
G1 X223.54 Y196.46 E5.12539
G1 X225.159 Y198.3 E5.22959
G1 X226.535 Y200.337 E5.33408
G1 X227.645 Y202.547 E5.43924
G1 X228.465 Y204.91 E5.54555
G1 X228.975 Y207.401 E5.65366
G1 X229.15 Y210 E5.76441
G1 X228.975 Y212.599 E5.87516
G1 X228.465 Y215.091 E5.98326
G1 X227.645 Y217.453 E6.08957
G1 X226.535 Y219.663 E6.19474
G1 X225.159 Y221.7 E6.29923
G1 X223.54 Y223.54 E6.40342
G1 X221.7 Y225.159 E6.50762
G1 X219.663 Y226.535 E6.61211
G1 X219.89 Y226.923 F18000
;TYPE:Outer wall
G1 F3600
G1 X217.628 Y228.059 E6.71975
G1 X215.21 Y228.899 E6.82858
G1 X212.659 Y229.42 E6.93923
G1 X210 Y229.599 E7.05255
G1 X207.341 Y229.42 E7.16587
G1 X204.79 Y228.899 E7.27653
G1 X202.372 Y228.059 E7.38535
G1 X200.11 Y226.923 E7.493
G1 X198.025 Y225.515 E7.59994
G1 X196.142 Y223.858 E7.70657
G1 X194.485 Y221.975 E7.81319
G1 X193.077 Y219.89 E7.92014
G1 X191.941 Y217.628 E8.02778
G1 X191.101 Y215.21 E8.13661
G1 X190.58 Y212.66 E8.24726
G1 X190.401 Y210 E8.36058
G1 X190.58 Y207.341 E8.4739
G1 X191.101 Y204.791 E8.58455
G1 X191.941 Y202.373 E8.69338
G1 X193.077 Y200.11 E8.80102
G1 X194.485 Y198.025 E8.90797
G1 X196.142 Y196.143 E9.01459
G1 X198.025 Y194.485 E9.12122
G1 X200.11 Y193.077 E9.22816
G1 X202.372 Y191.941 E9.3358
G1 X204.79 Y191.101 E9.44463
G1 X207.34 Y190.58 E9.55527
G1 X210.038 Y190.403 E9.67019
G1 X212.659 Y190.58 E9.78191
G1 X215.21 Y191.101 E9.89256
G1 X217.628 Y191.941 E10.00139
G1 X219.89 Y193.077 E10.10903
G1 X221.975 Y194.485 E10.21598
G1 X223.858 Y196.143 E10.3226
G1 X225.515 Y198.025 E10.42923
G1 X226.923 Y200.11 E10.53617
G1 X228.059 Y202.373 E10.64381
G1 X228.899 Y204.791 E10.75264
G1 X229.42 Y207.341 E10.86329
G1 X229.599 Y210 E10.97661
G1 X229.42 Y212.66 E11.08993
G1 X228.899 Y215.21 E11.20059
G1 X228.059 Y217.628 E11.30941
G1 X226.923 Y219.89 E11.41706
G1 X225.515 Y221.975 E11.524
G1 X223.858 Y223.858 E11.63063
G1 X221.975 Y225.515 E11.73725
G1 X219.89 Y226.923 E11.8442
G1 E10.8442 F1800
;WIPE_START
G1 F3600
G1 X218.997 Y227.371 E10.3442
;WIPE_END
G92 E0
G1 X218.578 Y226.751 F18000
G1 E1.5 F1800
;TYPE:Gap infill
;WIDTH:0.159055
G1 F3600
G1 X218.457 Y226.838 E1.50151
;WIDTH:0.141144
G1 X218.337 Y226.925 E1.50278
G1 X218.276 Y226.875 F18000
;WIDTH:0.194981
G1 F3600
G1 X218.156 Y226.962 E1.5048
;WIDTH:0.159118
G1 X218.035 Y227.049 E1.50632
;WIDTH:0.141187
G1 X217.915 Y227.136 E1.50758
G1 X218.052 Y226.968 F18000
;TYPE:Bottom surface
;WIDTH:0.5
G1 F3600
G1 X217.892 Y226.808 E1.51717
G1 X217.575 Y227.125 E1.53624
G1 X217.629 Y227.18 E1.5395
G1 X217.67 Y227.22 F18000
;TYPE:Gap infill
;WIDTH:0.150557
G1 F3600
G1 X217.492 Y227.348 E1.54156
G1 X216.573 Y227.689 F18000
;WIDTH:0.109915
G1 F3600
G1 X216.273 Y227.685 E1.54322
G1 X216.252 Y227.706 F18000
;TYPE:Bottom surface
;WIDTH:0.5
G1 F3600
G1 X215.989 Y227.442 E1.55904
G1 X215.672 Y227.76 E1.57811
G1 X215.782 Y227.869 E1.58469
G1 X215.726 Y227.924 F18000
;TYPE:Gap infill
;WIDTH:0.109206
G1 F3600
G1 X215.806 Y227.943 E1.58514
G1 X215.982 Y227.918 E1.58611
G1 X215.311 Y228.033 F18000
;TYPE:Bottom surface
;WIDTH:0.5
G1 F3600
G1 X215.038 Y227.76 E1.60254
G1 X214.721 Y228.077 E1.6216
G1 X214.404 Y227.76 E1.64067
G1 X215.038 Y227.125 E1.6788
G1 X215.355 Y227.442 E1.69787
G1 X215.672 Y227.125 E1.71694
G1 X215.355 Y226.808 E1.73601
G1 X215.989 Y226.174 E1.77414
G1 X216.306 Y226.491 E1.79321
G1 X215.989 Y226.808 E1.81227
G1 X216.624 Y227.442 E1.85041
G1 X216.941 Y227.125 E1.86948
G1 X216.624 Y226.808 E1.88854
G1 X216.941 Y226.491 E1.90761
G1 X217.258 Y226.808 E1.92668
G1 X217.575 Y226.491 E1.94574
G1 X216.941 Y225.857 E1.98388
G1 X216.624 Y226.174 E2.00295
G1 X216.306 Y225.857 E2.02201
G1 X216.624 Y225.54 E2.04108
G1 X216.306 Y225.222 E2.06015
G1 X215.989 Y225.54 E2.07921
G1 X215.672 Y225.222 E2.09828
G1 X215.989 Y224.905 E2.11735
G1 X215.355 Y224.271 E2.15548
G1 X215.038 Y224.588 E2.17455
G1 X215.355 Y224.905 E2.19362
G1 X215.038 Y225.222 E2.21268
G1 X214.721 Y224.905 E2.23175
G1 X214.404 Y225.222 E2.25082
G1 X215.038 Y225.857 E2.28895
G1 X215.355 Y225.54 E2.30802
G1 X215.672 Y225.857 E2.32709
G1 X215.038 Y226.491 E2.36522
G1 X214.721 Y226.174 E2.38429
G1 X214.404 Y226.491 E2.40335
G1 X214.721 Y226.808 E2.42242
G1 X214.086 Y227.442 E2.46056
G1 X213.769 Y227.125 E2.47962
G1 X214.086 Y226.808 E2.49869
G1 X213.769 Y226.491 E2.51776
G1 X213.452 Y226.808 E2.53682
G1 X213.135 Y226.491 E2.55589
G1 X213.769 Y225.857 E2.59403
G1 X214.086 Y226.174 E2.61309
G1 X214.404 Y225.857 E2.63216
G1 X213.452 Y224.905 E2.68936
G1 X213.135 Y225.222 E2.70843
G1 X213.452 Y225.54 E2.7275
G1 X212.818 Y226.174 E2.76563
G1 X212.501 Y225.857 E2.7847
G1 X212.818 Y225.54 E2.80376
G1 X212.501 Y225.222 E2.82283
G1 X212.184 Y225.54 E2.8419
G1 X211.866 Y225.222 E2.86097
G1 X212.501 Y224.588 E2.8991
G1 X212.818 Y224.905 E2.91817
G1 X213.135 Y224.588 E2.93723
G1 X212.818 Y224.271 E2.9563
G1 X213.452 Y223.637 E2.99444
G1 X213.769 Y223.954 E3.0135
G1 X213.452 Y224.271 E3.03257
G1 X214.086 Y224.905 E3.0707
G1 X214.404 Y224.588 E3.08977
G1 X214.086 Y224.271 E3.10884
G1 X214.404 Y223.954 E3.12791
G1 X214.721 Y224.271 E3.14697
G1 X215.038 Y223.954 E3.16604
G1 X214.404 Y223.32 E3.20417
G1 X214.086 Y223.637 E3.22324
G1 X213.769 Y223.32 E3.24231
G1 X214.404 Y222.685 E3.28044
G1 X214.721 Y223.003 E3.29951
G1 X215.038 Y222.685 E3.31858
G1 X214.721 Y222.368 E3.33764
G1 X215.355 Y221.734 E3.37578
G1 X215.672 Y222.051 E3.39484
G1 X215.355 Y222.368 E3.41391
G1 X215.672 Y222.685 E3.43298
G1 X215.989 Y222.368 E3.45205
G1 X216.306 Y222.685 E3.47111
G1 X215.672 Y223.32 E3.50925
G1 X215.355 Y223.003 E3.52831
G1 X215.038 Y223.32 E3.54738
G1 X215.672 Y223.954 E3.58552
G1 X215.989 Y223.637 E3.60458
G1 X216.306 Y223.954 E3.62365
G1 X215.989 Y224.271 E3.64272
G1 X216.624 Y224.905 E3.68085
G1 X216.941 Y224.588 E3.69992
G1 X216.624 Y224.271 E3.71899
G1 X216.941 Y223.954 E3.73805
G1 X217.258 Y224.271 E3.75712
G1 X217.575 Y223.954 E3.77619
G1 X216.941 Y223.32 E3.81432
G1 X216.624 Y223.637 E3.83339
G1 X216.306 Y223.32 E3.85246
G1 X217.258 Y222.368 E3.90966
G1 X217.575 Y222.685 E3.92872
G1 X217.258 Y223.003 E3.94779
G1 X217.892 Y223.637 E3.98593
G1 X218.209 Y223.32 E4.00499
G1 X217.892 Y223.003 E4.02406
G1 X218.209 Y222.685 E4.04313
G1 X218.526 Y223.003 E4.06219
G1 X218.843 Y222.685 E4.08126
G1 X218.209 Y222.051 E4.1194
G1 X217.892 Y222.368 E4.13846
G1 X217.575 Y222.051 E4.15753
G1 X217.892 Y221.734 E4.1766
G1 X217.258 Y221.1 E4.21473
G1 X216.941 Y221.417 E4.2338
G1 X217.258 Y221.734 E4.25287
G1 X216.624 Y222.368 E4.291
G1 X216.306 Y222.051 E4.31007
G1 X216.624 Y221.734 E4.32913
G1 X216.306 Y221.417 E4.3482
G1 X215.989 Y221.734 E4.36727
G1 X215.672 Y221.417 E4.38634
G1 X216.306 Y220.783 E4.42447
G1 X216.624 Y221.1 E4.44354
G1 X216.941 Y220.783 E4.4626
G1 X215.989 Y219.831 E4.51981
G1 X215.672 Y220.148 E4.53887
G1 X215.989 Y220.465 E4.55794
G1 X215.355 Y221.1 E4.59607
G1 X215.038 Y220.783 E4.61514
G1 X215.355 Y220.465 E4.63421
G1 X215.038 Y220.148 E4.65328
G1 X214.721 Y220.465 E4.67234
G1 X214.404 Y220.148 E4.69141
G1 X215.038 Y219.514 E4.72954
G1 X215.355 Y219.831 E4.74861
G1 X215.672 Y219.514 E4.76768
G1 X215.038 Y218.88 E4.80581
G1 X214.721 Y219.197 E4.82488
G1 X214.404 Y218.88 E4.84395
G1 X214.721 Y218.563 E4.86301
G1 X214.086 Y217.928 E4.90115
G1 X213.769 Y218.246 E4.92021
G1 X214.086 Y218.563 E4.93928
G1 X213.769 Y218.88 E4.95835
G1 X213.452 Y218.563 E4.97742
G1 X213.135 Y218.88 E4.99648
G1 X213.769 Y219.514 E5.03462
G1 X214.086 Y219.197 E5.05368
G1 X214.404 Y219.514 E5.07275
G1 X213.452 Y220.465 E5.12995
G1 X213.135 Y220.148 E5.14902
G1 X213.452 Y219.831 E5.16809
G1 X212.818 Y219.197 E5.20622
G1 X212.501 Y219.514 E5.22529
G1 X212.818 Y219.831 E5.24436
G1 X212.501 Y220.148 E5.26342
G1 X212.184 Y219.831 E5.28249
G1 X211.866 Y220.148 E5.30156
G1 X212.501 Y220.783 E5.33969
G1 X212.818 Y220.465 E5.35876
G1 X213.135 Y220.783 E5.37783
G1 X212.818 Y221.1 E5.39689
G1 X213.452 Y221.734 E5.43503
G1 X213.769 Y221.417 E5.45409
G1 X213.452 Y221.1 E5.47316
G1 X214.086 Y220.465 E5.5113
G1 X214.404 Y220.783 E5.53036
G1 X214.086 Y221.1 E5.54943
G1 X214.404 Y221.417 E5.5685
G1 X214.721 Y221.1 E5.58756
G1 X215.038 Y221.417 E5.60663
G1 X214.404 Y222.051 E5.64477
G1 X214.086 Y221.734 E5.66383
G1 X213.769 Y222.051 E5.6829
G1 X214.086 Y222.368 E5.70197
G1 X213.452 Y223.003 E5.7401
G1 X213.135 Y222.685 E5.75917
G1 X213.452 Y222.368 E5.77824
G1 X212.818 Y221.734 E5.81637
G1 X212.501 Y222.051 E5.83544
G1 X212.818 Y222.368 E5.8545
G1 X212.501 Y222.685 E5.87357
G1 X212.184 Y222.368 E5.89264
G1 X211.866 Y222.685 E5.91171
G1 X212.501 Y223.32 E5.94984
G1 X212.818 Y223.003 E5.96891
G1 X213.135 Y223.32 E5.98797
G1 X212.501 Y223.954 E6.02611
G1 X212.184 Y223.637 E6.04518
G1 X211.866 Y223.954 E6.06424
G1 X212.184 Y224.271 E6.08331
G1 X211.549 Y224.905 E6.12144
G1 X211.232 Y224.588 E6.14051
G1 X211.549 Y224.271 E6.15958
G1 X211.232 Y223.954 E6.17865
G1 X210.915 Y224.271 E6.19771
G1 X210.598 Y223.954 E6.21678
G1 X211.232 Y223.32 E6.25491
G1 X211.549 Y223.637 E6.27398
G1 X211.866 Y223.32 E6.29305
G1 X210.915 Y222.368 E6.35025
G1 X210.598 Y222.685 E6.36932
G1 X210.915 Y223.003 E6.38838
G1 X210.281 Y223.637 E6.42652
G1 X209.964 Y223.32 E6.44559
G1 X210.281 Y223.003 E6.46465
G1 X209.964 Y222.685 E6.48372
G1 X209.647 Y223.003 E6.50279
G1 X209.329 Y222.685 E6.52185
G1 X209.964 Y222.051 E6.55999
G1 X210.281 Y222.368 E6.57906
G1 X210.598 Y222.051 E6.59812
G1 X210.281 Y221.734 E6.61719
G1 X210.915 Y221.1 E6.65532
G1 X211.232 Y221.417 E6.67439
G1 X210.915 Y221.734 E6.69346
G1 X211.549 Y222.368 E6.73159
G1 X211.866 Y222.051 E6.75066
G1 X211.549 Y221.734 E6.76973
G1 X211.866 Y221.417 E6.78879
G1 X212.184 Y221.734 E6.80786
G1 X212.501 Y221.417 E6.82693
G1 X211.866 Y220.783 E6.86506
G1 X211.549 Y221.1 E6.88413
G1 X211.232 Y220.783 E6.9032
G1 X211.549 Y220.465 E6.92226
G1 X211.232 Y220.148 E6.94133
G1 X210.915 Y220.465 E6.9604
G1 X210.598 Y220.148 E6.97946
G1 X210.915 Y219.831 E6.99853
G1 X210.281 Y219.197 E7.03667
G1 X209.964 Y219.514 E7.05573
G1 X210.281 Y219.831 E7.0748
G1 X209.964 Y220.148 E7.09387
G1 X209.647 Y219.831 E7.11293
G1 X209.329 Y220.148 E7.132
G1 X209.964 Y220.783 E7.17014
G1 X210.281 Y220.465 E7.1892
G1 X210.598 Y220.783 E7.20827
G1 X209.964 Y221.417 E7.2464
G1 X209.647 Y221.1 E7.26547
G1 X209.329 Y221.417 E7.28454
G1 X209.647 Y221.734 E7.30361
G1 X209.012 Y222.368 E7.34174
G1 X208.695 Y222.051 E7.36081
G1 X209.012 Y221.734 E7.37987
G1 X208.695 Y221.417 E7.39894
G1 X208.378 Y221.734 E7.41801
G1 X208.061 Y221.417 E7.43708
G1 X208.695 Y220.783 E7.47521
G1 X209.012 Y221.1 E7.49428
G1 X209.329 Y220.783 E7.51334
G1 X208.378 Y219.831 E7.57055
G1 X208.061 Y220.148 E7.58961
G1 X208.378 Y220.465 E7.60868
G1 X207.744 Y221.1 E7.64681
G1 X207.427 Y220.783 E7.66588
G1 X207.744 Y220.465 E7.68495
G1 X207.427 Y220.148 E7.70402
G1 X207.109 Y220.465 E7.72308
G1 X206.792 Y220.148 E7.74215
G1 X207.427 Y219.514 E7.78028
G1 X207.744 Y219.831 E7.79935
G1 X208.061 Y219.514 E7.81842
G1 X207.744 Y219.197 E7.83749
G1 X208.378 Y218.563 E7.87562
G1 X208.695 Y218.88 E7.89469
G1 X208.378 Y219.197 E7.91375
G1 X209.012 Y219.831 E7.95189
G1 X209.329 Y219.514 E7.97095
G1 X209.012 Y219.197 E7.99002
G1 X209.329 Y218.88 E8.00909
G1 X209.647 Y219.197 E8.02816
G1 X209.964 Y218.88 E8.04722
G1 X209.329 Y218.246 E8.08536
G1 X209.012 Y218.563 E8.10442
G1 X208.695 Y218.246 E8.12349
G1 X209.329 Y217.611 E8.16163
G1 X209.647 Y217.928 E8.18069
G1 X209.964 Y217.611 E8.19976
G1 X209.647 Y217.294 E8.21883
G1 X210.281 Y216.66 E8.25696
G1 X210.598 Y216.977 E8.27603
G1 X210.281 Y217.294 E8.2951
G1 X210.598 Y217.611 E8.31416
G1 X210.915 Y217.294 E8.33323
G1 X211.232 Y217.611 E8.3523
G1 X210.598 Y218.246 E8.39043
G1 X210.281 Y217.928 E8.4095
G1 X209.964 Y218.246 E8.42857
G1 X210.598 Y218.88 E8.4667
G1 X210.915 Y218.563 E8.48577
G1 X211.232 Y218.88 E8.50483
G1 X210.915 Y219.197 E8.5239
G1 X211.549 Y219.831 E8.56204
G1 X211.866 Y219.514 E8.5811
G1 X211.549 Y219.197 E8.60017
G1 X211.866 Y218.88 E8.61924
G1 X212.184 Y219.197 E8.6383
G1 X212.501 Y218.88 E8.65737
G1 X211.866 Y218.246 E8.69551
G1 X211.549 Y218.563 E8.71457
G1 X211.232 Y218.246 E8.73364
G1 X212.184 Y217.294 E8.79084
G1 X212.501 Y217.611 E8.80991
G1 X212.184 Y217.928 E8.82898
G1 X212.818 Y218.563 E8.86711
G1 X213.135 Y218.246 E8.88618
G1 X212.818 Y217.928 E8.90524
G1 X213.135 Y217.611 E8.92431
G1 X213.452 Y217.928 E8.94338
G1 X213.769 Y217.611 E8.96245
G1 X213.135 Y216.977 E9.00058
G1 X212.818 Y217.294 E9.01965
G1 X212.501 Y216.977 E9.03871
G1 X212.818 Y216.66 E9.05778
G1 X212.184 Y216.026 E9.09592
G1 X211.866 Y216.343 E9.11498
G1 X212.184 Y216.66 E9.13405
G1 X211.549 Y217.294 E9.17218
G1 X211.232 Y216.977 E9.19125
G1 X211.549 Y216.66 E9.21032
G1 X211.232 Y216.343 E9.22939
G1 X210.915 Y216.66 E9.24845
G1 X210.598 Y216.343 E9.26752
G1 X211.232 Y215.708 E9.30565
G1 X211.549 Y216.026 E9.32472
G1 X211.866 Y215.708 E9.34379
G1 X211.549 Y215.391 E9.36286
G1 X212.184 Y214.757 E9.40099
G1 X212.501 Y215.074 E9.42006
G1 X212.184 Y215.391 E9.43912
G1 X212.818 Y216.026 E9.47726
G1 X213.135 Y215.708 E9.49632
G1 X212.818 Y215.391 E9.51539
G1 X213.135 Y215.074 E9.53446
G1 X213.452 Y215.391 E9.55353
G1 X213.769 Y215.074 E9.57259
G1 X213.135 Y214.44 E9.61073
G1 X212.818 Y214.757 E9.62979
G1 X212.501 Y214.44 E9.64886
G1 X213.135 Y213.806 E9.687
G1 X213.452 Y214.123 E9.70606
G1 X213.769 Y213.806 E9.72513
G1 X213.452 Y213.489 E9.7442
G1 X214.086 Y212.854 E9.78233
G1 X214.404 Y213.171 E9.8014
G1 X214.086 Y213.489 E9.82047
