; HEADER_BLOCK_START
; generated by AnycubicSlicerNext 1.1.1 on 2025-12-16 at 00:07:44
; total layer number: 303
; filament_density: 1.24
; filament_diameter: 1.75
; max_z_height: 55.24
; HEADER_BLOCK_END

; THUMBNAIL_BLOCK_START

;
; THUMBNAIL_BLOCK_END

; external perimeters extrusion width = 0.42mm
; perimeters extrusion width = 0.45mm
; infill extrusion width = 0.45mm
; solid infill extrusion width = 0.42mm
; top infill extrusion width = 0.42mm
; support material extrusion width = 0.40mm
; first layer extrusion width = 0.50mm

; EXECUTABLE_BLOCK_START
;TYPE:Custom
G90 ; use absolute coordinates
M83 ; extruder relative mode
M140 S60 ; set bed temp
M190 S60 ; wait for bed temp
M104 S220 ; set extruder temp
M109 S220 ; wait for extruder temp
G28                                        ; move X/Y/Z to min endstops
G1 Z0.28                                   ; lift nozzle a bit 
G92 E0 
G1 Y3 F2400                                    ; zero the extruded length 
G1 X180  E40 F500                       ; Extrude 25mm of filament in a 5cm line. 
G92 E0                                     ; zero the extruded length again 
G1 E-2 F3000                                ; Retract a little 
G1 X181 F4000                              ; Quickly wipe away from the filament line
M117
M900 K0.07
G90
G21
M82 ; use absolute distances for extrusion
G92 E0
; filament start gcode
M106 S0
;LAYER_CHANGE
;Z:0.24
;HEIGHT:0.24
G1 E-1.5 F1800
G92 E0
; layer num/total_layer_count: 1/303
; update layer progress
M991 S0 P0 ;notify layer change
;_SET_FAN_SPEED_CHANGING_LAYER
SET_VELOCITY_LIMIT ACCEL=5000 ACCEL_TO_DECEL=2500
; printing object DNA-Clean.stl id:2683267225088 copy 0
G1 X226.535 Y219.663 F18000
G1 Z.24
G1 E1.5 F1800
;TYPE:Inner wall
;WIDTH:0.5
G1 F3600
G1 X225.159 Y221.7 E1.6045
G1 X223.54 Y223.54 E1.70869
G1 X221.7 Y225.159 E1.81288
G1 X219.663 Y226.535 E1.91737
G1 X217.453 Y227.645 E2.02254
G1 X215.09 Y228.465 E2.12885
G1 X212.599 Y228.975 E2.23695
G1 X210 Y229.15 E2.3477
G1 X207.401 Y228.975 E2.45845
G1 X204.91 Y228.465 E2.56656
G1 X202.547 Y227.645 E2.67287
G1 X200.337 Y226.535 E2.77803
G1 X198.3 Y225.159 E2.88253
G1 X196.46 Y223.54 E2.98672
G1 X194.841 Y221.7 E3.09091
G1 X193.465 Y219.663 E3.1954
G1 X192.355 Y217.453 E3.30057
G1 X191.535 Y215.09 E3.40688
G1 X191.025 Y212.599 E3.51498
G1 X190.85 Y210 E3.62573
G1 X191.025 Y207.401 E3.73649
G1 X191.535 Y204.91 E3.84459
G1 X192.355 Y202.547 E3.9509
G1 X193.465 Y200.337 E4.05606
G1 X194.841 Y198.3 E4.16056
G1 X196.46 Y196.46 E4.26475
G1 X198.3 Y194.841 E4.36894
G1 X200.337 Y193.465 E4.47344
G1 X202.547 Y192.355 E4.5786
G1 X204.91 Y191.535 E4.68491
G1 X207.4 Y191.026 E4.79298
G1 X210.037 Y190.853 E4.90533
G1 X212.599 Y191.025 E5.0145
G1 X215.09 Y191.535 E5.1226
G1 X217.453 Y192.355 E5.22892
G1 X219.663 Y193.465 E5.33408
G1 X221.7 Y194.841 E5.43858
G1 X223.54 Y196.46 E5.54277
G1 X225.159 Y198.3 E5.64696
G1 X226.535 Y200.337 E5.75145
G1 X227.645 Y202.547 E5.85662
G1 X228.465 Y204.91 E5.96293
G1 X228.975 Y207.401 E6.07103
G1 X229.15 Y210 E6.18178
G1 X228.975 Y212.599 E6.29253
G1 X228.465 Y215.09 E6.40064
G1 X227.645 Y217.453 E6.50695
G1 X226.535 Y219.663 E6.61211
G1 X226.923 Y219.89 F18000
;TYPE:Outer wall
G1 F3600
G1 X225.515 Y221.975 E6.71906
G1 X223.858 Y223.858 E6.82568
G1 X221.975 Y225.515 E6.9323
G1 X219.89 Y226.923 E7.03925
G1 X217.628 Y228.059 E7.14689
G1 X215.21 Y228.899 E7.25572
G1 X212.659 Y229.42 E7.36637
G1 X210 Y229.599 E7.47969
G1 X207.341 Y229.42 E7.59301
G1 X204.79 Y228.899 E7.70367
G1 X202.372 Y228.059 E7.81249
G1 X200.11 Y226.923 E7.92014
G1 X198.025 Y225.515 E8.02708
G1 X196.142 Y223.858 E8.13371
G1 X194.485 Y221.975 E8.24033
G1 X193.077 Y219.89 E8.34727
G1 X191.941 Y217.628 E8.45492
G1 X191.101 Y215.21 E8.56374
G1 X190.58 Y212.659 E8.6744
G1 X190.401 Y210 E8.78772
G1 X190.58 Y207.341 E8.90104
G1 X191.101 Y204.79 E9.01169
G1 X191.941 Y202.372 E9.12052
G1 X193.077 Y200.11 E9.22816
G1 X194.485 Y198.025 E9.33511
G1 X196.142 Y196.142 E9.44173
G1 X198.025 Y194.485 E9.54835
G1 X200.11 Y193.077 E9.6553
G1 X202.372 Y191.941 E9.76294
G1 X204.79 Y191.101 E9.87177
G1 X207.34 Y190.58 E9.98241
G1 X210.038 Y190.403 E10.09733
G1 X212.659 Y190.58 E10.20905
G1 X215.21 Y191.101 E10.3197
G1 X217.628 Y191.941 E10.42853
G1 X219.89 Y193.077 E10.53617
G1 X221.975 Y194.485 E10.64312
G1 X223.858 Y196.142 E10.74974
G1 X225.515 Y198.025 E10.85636
G1 X226.923 Y200.11 E10.96331
G1 X228.059 Y202.372 E11.07095
G1 X228.899 Y204.79 E11.17978
G1 X229.42 Y207.341 E11.29043
G1 X229.599 Y210 E11.40375
G1 X229.42 Y212.659 E11.51707
G1 X228.899 Y215.21 E11.62773
G1 X228.059 Y217.628 E11.73655
G1 X226.923 Y219.89 E11.8442
G1 E10.8442 F1800
;WIPE_START
G1 F3600
G1 X226.363 Y220.719 E10.3442
;WIPE_END
G92 E0
G1 X225.593 Y220.556 F18000
G1 E1.5 F1800
;TYPE:Gap infill
;WIDTH:0.154235
G1 F3600
G1 X225.737 Y220.382 E1.50219
G1 X225.863 Y219.874 E1.50729
G1 X225.778 Y219.788 F18000
;WIDTH:0.250205
G1 F3600
G1 X225.799 Y219.896 E1.50935
;WIDTH:0.272614
G1 X225.82 Y220.003 E1.51164
;WIDTH:0.305021
G1 X225.821 Y220.017 E1.51198
;WIDTH:0.333173
G1 X225.823 Y220.045 E1.51272
G1 X225.869 Y220.02 E1.51411
;WIDTH:0.282145
G1 X225.915 Y219.996 E1.51525
;WIDTH:0.232507
G1 X225.961 Y219.972 E1.51615
;WIDTH:0.162074
G1 X226.248 Y219.625 E1.52087
G1 X226.265 Y219.559 E1.52158
;WIDTH:0.184637
G1 X226.257 Y219.48 E1.52258
;WIDTH:0.217349
G1 X226.25 Y219.402 E1.52381
G1 X226.065 Y219.758 F18000
;TYPE:Bottom surface
;WIDTH:0.5
G1 F3600
G1 X225.503 Y219.197 E1.55757
G1 X225.186 Y219.514 E1.57664
G1 X225.503 Y219.831 E1.59571
G1 X225.186 Y220.148 E1.61478
G1 X224.869 Y219.831 E1.63384
G1 X224.552 Y220.148 E1.65291
G1 X225.186 Y220.783 E1.69104
G1 X225.503 Y220.465 E1.71011
G1 X225.553 Y220.516 E1.71312
G1 X225.356 Y220.964 F18000
;TYPE:Gap infill
;WIDTH:0.114608
G1 F3600
G1 X225.279 Y221.048 E1.71381
;WIDTH:0.155812
G1 X225.242 Y221.073 E1.71425
;WIDTH:0.155905
G1 X225.225 Y221.139 E1.71492
G1 X224.984 Y221.432 E1.71868
;WIDTH:0.194105
G1 X224.886 Y221.428 E1.72
G1 X224.486 Y221.668 F18000
;WIDTH:0.235224
G1 F3600
G1 X224.546 Y221.858 E1.72345
;WIDTH:0.249148
G1 X224.552 Y221.885 E1.72398
G1 X224.603 Y221.861 E1.72505
;WIDTH:0.201119
G1 X224.655 Y221.837 E1.72586
;WIDTH:0.165726
G1 X224.961 Y221.509 E1.73071
G1 X225.026 Y221.288 E1.73321
G1 X225.042 Y221.273 F18000
;TYPE:Bottom surface
;WIDTH:0.5
G1 F3600
G1 X224.869 Y221.1 E1.7436
G1 X224.552 Y221.417 E1.76267
G1 X224.769 Y221.634 E1.77573
G1 X224.725 Y221.679 F18000
;TYPE:Gap infill
;WIDTH:0.271341
G1 F3600
G1 X224.398 Y222.051 E1.78606
G1 X224.399 Y222.085 E1.78677
;WIDTH:0.214027
G1 X224.384 Y222.135 E1.78757
;WIDTH:0.163122
G1 X224.368 Y222.185 E1.78812
G1 X224.097 Y222.474 E1.79232
;WIDTH:0.158186
G1 X224.06 Y222.468 E1.7927
;WIDTH:0.14167
G1 X224.023 Y222.461 E1.79302
G1 X223.878 Y222.646 F18000
;TYPE:Bottom surface
;WIDTH:0.5
G1 F3600
G1 X223.6 Y222.368 E1.80972
G1 X223.283 Y222.685 E1.82879
G1 X222.966 Y222.368 E1.84786
G1 X223.283 Y222.051 E1.86693
G1 X222.966 Y221.734 E1.88599
G1 X222.332 Y222.368 E1.92413
G1 X222.649 Y222.685 E1.94319
G1 X222.332 Y223.003 E1.96226
G1 X222.015 Y222.685 E1.98133
G1 X221.381 Y222.051 E2.01946
G1 X221.698 Y221.734 E2.03853
G1 X222.015 Y222.051 E2.0576
G1 X222.649 Y221.417 E2.09573
G1 X222.332 Y221.1 E2.1148
G1 X222.015 Y221.417 E2.13387
G1 X221.698 Y221.1 E2.15293
G1 X222.015 Y220.783 E2.172
G1 X221.698 Y220.465 E2.19107
G1 X221.063 Y221.1 E2.2292
G1 X221.381 Y221.417 E2.24827
G1 X221.063 Y221.734 E2.26734
G1 X220.746 Y221.417 E2.2864
G1 X220.112 Y222.051 E2.32454
G1 X220.429 Y222.368 E2.3436
G1 X220.746 Y222.051 E2.36267
G1 X221.381 Y222.685 E2.40081
G1 X221.063 Y223.003 E2.41987
G1 X220.746 Y222.685 E2.43894
G1 X220.429 Y223.003 E2.45801
G1 X220.746 Y223.32 E2.47707
G1 X220.429 Y223.637 E2.49614
G1 X219.795 Y223.003 E2.53428
G1 X220.112 Y222.685 E2.55334
G1 X219.795 Y222.368 E2.57241
G1 X219.478 Y222.685 E2.59148
G1 X218.843 Y222.051 E2.62961
G1 X219.161 Y221.734 E2.64868
G1 X219.478 Y222.051 E2.66775
G1 X220.112 Y221.417 E2.70588
G1 X219.795 Y221.1 E2.72495
G1 X219.478 Y221.417 E2.74401
G1 X219.161 Y221.1 E2.76308
G1 X219.478 Y220.783 E2.78215
G1 X219.161 Y220.465 E2.80122
G1 X218.526 Y221.1 E2.83935
G1 X218.843 Y221.417 E2.85842
G1 X218.526 Y221.734 E2.87748
G1 X217.892 Y221.1 E2.91562
G1 X218.209 Y220.783 E2.93469
G1 X217.892 Y220.465 E2.95375
G1 X217.575 Y220.783 E2.97282
G1 X216.941 Y220.148 E3.01095
G1 X217.258 Y219.831 E3.03002
G1 X217.575 Y220.148 E3.04909
G1 X217.892 Y219.831 E3.06816
G1 X217.575 Y219.514 E3.08722
G1 X217.892 Y219.197 E3.10629
G1 X218.526 Y219.831 E3.14442
G1 X218.209 Y220.148 E3.16349
G1 X218.526 Y220.465 E3.18256
G1 X219.478 Y219.514 E3.23976
G1 X219.161 Y219.197 E3.25883
G1 X218.843 Y219.514 E3.27789
G1 X218.209 Y218.88 E3.31603
G1 X218.526 Y218.563 E3.33509
G1 X218.843 Y218.88 E3.35416
G1 X219.161 Y218.563 E3.37323
G1 X218.843 Y218.245 E3.3923
G1 X219.161 Y217.928 E3.41136
G1 X219.795 Y218.563 E3.4495
G1 X219.478 Y218.88 E3.46856
G1 X219.795 Y219.197 E3.48763
G1 X220.112 Y218.88 E3.5067
G1 X220.746 Y219.514 E3.54483
G1 X220.429 Y219.831 E3.5639
G1 X220.112 Y219.514 E3.58297
G1 X219.478 Y220.148 E3.6211
G1 X219.795 Y220.465 E3.64017
G1 X220.112 Y220.148 E3.65924
G1 X220.429 Y220.465 E3.6783
G1 X220.112 Y220.783 E3.69737
G1 X220.429 Y221.1 E3.71644
G1 X220.746 Y220.783 E3.7355
G1 X221.063 Y220.465 E3.75457
G1 X220.746 Y220.148 E3.77364
G1 X221.063 Y219.831 E3.79271
G1 X221.381 Y220.148 E3.81177
G1 X221.698 Y219.831 E3.83084
G1 X221.381 Y219.514 E3.84991
G1 X221.698 Y219.197 E3.86897
G1 X222.015 Y219.514 E3.88804
G1 X222.649 Y218.88 E3.92618
G1 X222.332 Y218.563 E3.94524
G1 X222.015 Y218.88 E3.96431
G1 X221.698 Y218.563 E3.98338
G1 X222.015 Y218.245 E4.00244
G1 X221.698 Y217.928 E4.02151
G1 X221.063 Y218.563 E4.05965
G1 X221.381 Y218.88 E4.07871
G1 X221.063 Y219.197 E4.09778
G1 X220.429 Y218.563 E4.13591
G1 X220.746 Y218.245 E4.15498
G1 X220.429 Y217.928 E4.17405
G1 X220.112 Y218.245 E4.19312
G1 X219.478 Y217.611 E4.23125
G1 X219.795 Y217.294 E4.25032
G1 X220.112 Y217.611 E4.26938
G1 X220.429 Y217.294 E4.28845
G1 X220.112 Y216.977 E4.30752
G1 X220.429 Y216.66 E4.32659
G1 X221.063 Y217.294 E4.36472
G1 X220.746 Y217.611 E4.38379
G1 X221.063 Y217.928 E4.40285
G1 X221.381 Y217.611 E4.42192
G1 X222.015 Y216.977 E4.46006
G1 X221.698 Y216.66 E4.47912
G1 X221.381 Y216.977 E4.49819
G1 X220.746 Y216.343 E4.53632
G1 X221.063 Y216.026 E4.55539
G1 X221.381 Y216.343 E4.57446
G1 X221.698 Y216.026 E4.59352
G1 X221.381 Y215.708 E4.61259
G1 X221.698 Y215.391 E4.63166
G1 X222.332 Y216.026 E4.66979
G1 X222.015 Y216.343 E4.68886
G1 X222.332 Y216.66 E4.70793
G1 X222.649 Y216.343 E4.72699
G1 X223.283 Y216.977 E4.76513
G1 X222.966 Y217.294 E4.7842
G1 X222.649 Y216.977 E4.80326
G1 X222.015 Y217.611 E4.8414
G1 X222.332 Y217.928 E4.86046
G1 X222.649 Y217.611 E4.87953
G1 X222.966 Y217.928 E4.8986
G1 X222.649 Y218.245 E4.91767
G1 X222.966 Y218.563 E4.93673
G1 X223.6 Y217.928 E4.97487
G1 X223.283 Y217.611 E4.99393
G1 X223.6 Y217.294 E5.013
G1 X224.235 Y217.928 E5.05114
G1 X223.918 Y218.245 E5.0702
G1 X224.235 Y218.563 E5.08927
G1 X224.552 Y218.245 E5.10834
G1 X225.186 Y218.88 E5.14647
G1 X224.869 Y219.197 E5.16554
G1 X224.552 Y218.88 E5.18461
G1 X224.235 Y219.197 E5.20367
G1 X224.552 Y219.514 E5.22274
G1 X224.235 Y219.831 E5.24181
G1 X223.6 Y219.197 E5.27994
G1 X223.918 Y218.88 E5.29901
G1 X223.6 Y218.563 E5.31808
G1 X222.966 Y219.197 E5.35621
G1 X223.283 Y219.514 E5.37528
G1 X222.966 Y219.831 E5.39434
G1 X222.649 Y219.514 E5.41341
G1 X222.015 Y220.148 E5.45155
G1 X222.332 Y220.465 E5.47061
G1 X222.649 Y220.148 E5.48968
G1 X222.966 Y220.465 E5.50875
G1 X222.649 Y220.783 E5.52781
G1 X222.966 Y221.1 E5.54688
G1 X223.6 Y220.465 E5.58502
G1 X223.283 Y220.148 E5.60408
G1 X223.6 Y219.831 E5.62315
G1 X223.918 Y220.148 E5.64222
G1 X224.552 Y220.783 E5.68035
G1 X224.235 Y221.1 E5.69942
G1 X223.918 Y220.783 E5.71849
G1 X223.283 Y221.417 E5.75662
G1 X223.6 Y221.734 E5.77569
G1 X223.918 Y221.417 E5.79475
G1 X224.235 Y221.734 E5.81382
G1 X223.918 Y222.051 E5.83289
G1 X224.175 Y222.309 E5.84838
G1 X224.195 Y222.289 F18000
;TYPE:Gap infill
;WIDTH:0.163129
G1 F3600
G1 X224.071 Y222.522 E5.85117
G1 X223.764 Y222.849 E5.85592
;WIDTH:0.201915
G1 X223.718 Y222.866 E5.85663
;WIDTH:0.249719
G1 X223.671 Y222.883 E5.85756
;WIDTH:0.297522
G1 X223.624 Y222.9 E5.85872
;WIDTH:0.357427
G1 X223.6 Y222.901 E5.85941
G1 X223.505 Y223.003 E5.86346
;WIDTH:0.352332
G1 X223.487 Y223.003 E5.86397
;WIDTH:0.326911
G1 X223.469 Y223.003 E5.86444
;WIDTH:0.296064
G1 X223.394 Y222.99 E5.8662
;WIDTH:0.259794
G1 X223.32 Y222.977 E5.8677
;WIDTH:0.241659
G1 X223.245 Y222.964 E5.86906
G1 X223.282 Y223.318 F18000
;TYPE:Bottom surface
;WIDTH:0.5
G1 F3600
G1 X222.966 Y223.003 E5.88806
G1 X222.649 Y223.32 E5.90712
G1 X222.945 Y223.615 E5.9249
G1 X223.11 Y223.537 F18000
;TYPE:Gap infill
;WIDTH:0.158188
G1 F3600
G1 X223.104 Y223.5 E5.92528
;WIDTH:0.141671
G1 X223.097 Y223.463 E5.92561
G1 X222.611 Y223.598 F18000
;WIDTH:0.223526
G1 F3600
G1 X222.623 Y223.673 E5.92684
;WIDTH:0.259797
G1 X222.636 Y223.748 E5.92834
;WIDTH:0.296068
G1 X222.649 Y223.823 E5.9301
;WIDTH:0.328381
G1 X222.524 Y223.955 E5.93488
;WIDTH:0.29752
G1 X222.507 Y224.002 E5.93604
;WIDTH:0.249717
G1 X222.49 Y224.049 E5.93697
;WIDTH:0.201913
G1 X222.473 Y224.095 E5.93768
;WIDTH:0.163564
G1 X222.146 Y224.402 E5.94245
G1 X222.098 Y224.428 E5.94303
G1 X222.085 Y224.353 F18000
;WIDTH:0.141673
G1 F3600
G1 X222.092 Y224.391 E5.94335
;WIDTH:0.158188
G1 X222.098 Y224.428 E5.94373
;WIDTH:0.162088
G1 X221.809 Y224.699 E5.94789
;WIDTH:0.170993
G1 X221.759 Y224.715 E5.94848
;WIDTH:0.214029
G1 X221.709 Y224.73 E5.94928
;WIDTH:0.24369
G1 X221.503 Y224.904 E5.9542
G1 X221.473 Y224.899 E5.95475
;WIDTH:0.2108
G1 X221.405 Y224.856 E5.95598
;WIDTH:0.196826
G1 X221.337 Y224.812 E5.95709
G1 X221.229 Y225.071 F18000
;TYPE:Bottom surface
;WIDTH:0.5
G1 F3600
G1 X221.063 Y224.905 E5.96706
G1 X220.746 Y225.222 E5.98613
G1 X220.851 Y225.327 E5.99241
G1 X220.891 Y225.367 F18000
;TYPE:Gap infill
;WIDTH:0.136676
G1 F3600
G1 X220.692 Y225.524 E5.99446
;WIDTH:0.127872
G1 X220.653 Y225.469 E5.99494
G1 E4.52825 F1800
;WIPE_START
G1 F3600
G1 X220.692 Y225.524 E4.49494
;WIPE_END
G92 E0
G1 X221.933 Y224.506 F18000
G1 E1.5 F1800
;TYPE:Bottom surface
;WIDTH:0.5
G1 F3600
G1 X221.698 Y224.271 E1.51414
G1 X221.381 Y224.588 E1.5332
G1 X220.746 Y223.954 E1.57134
G1 X221.063 Y223.637 E1.5904
G1 X221.381 Y223.954 E1.60947
G1 X221.698 Y223.637 E1.62854
G1 X221.381 Y223.32 E1.64761
G1 X221.698 Y223.003 E1.66667
G1 X222.332 Y223.637 E1.70481
G1 X222.015 Y223.954 E1.72387
G1 X222.27 Y224.209 E1.73922
G1 X222.335 Y223.957 F18000
;TYPE:Gap infill
;WIDTH:0.192511
G1 F3600
G1 X222.578 Y223.883 E1.74262
;WIDTH:0.170992
G1 X222.821 Y223.809 E1.7455
;WIDTH:0.162088
G1 X223.11 Y223.537 E1.74965
;WIDTH:0.164077
G1 X223.158 Y223.512 E1.75024
G1 X223.476 Y223.196 E1.75502
G1 X223.551 Y222.953 E1.75773
;WIDTH:0.219448
G1 X223.625 Y222.71 E1.76178
G1 E.38879 F1800
;WIPE_START
G1 F3600
G1 X223.551 Y222.953 E.26178
;WIPE_END
G92 E0
G1 X228.38 Y213.828 F18000
G1 E1.5 F1800
;TYPE:Bottom surface
;WIDTH:0.5
G1 F3600
G1 X228.357 Y213.806 E1.50136
G1 X227.723 Y214.44 E1.53949
G1 X228.04 Y214.757 E1.55856
G1 X228.229 Y214.569 E1.56988
G1 X227.775 Y215.443 F18000
;TYPE:Gap infill
;WIDTH:0.21181
G1 F3600
G1 X227.977 Y215.235 E1.57429
;WIDTH:0.197612
G1 X228.18 Y215.028 E1.57831
;WIDTH:0.17985
G1 X228.268 Y214.887 E1.58033
G1 X228.102 Y214.981 F18000
;WIDTH:0.303538
G1 F3600
G1 X228.071 Y215.167 E1.58483
G1 X227.913 Y215.581 E1.59541
G1 E.41109 F1800
;WIPE_START
G1 F3600
G1 X228.071 Y215.167 E.18961
G1 X228.102 Y214.981 E.09541
;WIPE_END
G92 E0
G1 X227.172 Y217.294 F18000
G1 E1.5 F1800
;WIDTH:0.156673
G1 F3600
G1 X227.623 Y216.833 E1.50643
G1 X227.455 Y216.884 F18000
;WIDTH:0.279405
G1 F3600
G1 X227.423 Y217.07 E1.5105
G1 X227.292 Y217.414 E1.51846
G1 X227.289 Y217.411 F18000
;TYPE:Bottom surface
;WIDTH:0.5
G1 F3600
G1 X227.089 Y217.611 E1.53049
G1 X227.155 Y217.678 E1.53448
G1 E.2229 F1800
;WIPE_START
G1 F3600
G1 X227.089 Y217.611 E.17597
G1 X227.289 Y217.411 E.03448
;WIPE_END
G92 E0
