; HEADER_BLOCK_START
; generated by AnycubicSlicerNext 1.1.1 on 2025-12-15 at 22:35:28
; total layer number: 269
; filament_density: 1.24
; filament_diameter: 1.75
; max_z_height: 53.84
; HEADER_BLOCK_END

; THUMBNAIL_BLOCK_START

;
; THUMBNAIL_BLOCK_END

; external perimeters extrusion width = 0.42mm
; perimeters extrusion width = 0.45mm
; infill extrusion width = 0.45mm
; solid infill extrusion width = 0.42mm
; top infill extrusion width = 0.42mm
; first layer extrusion width = 0.50mm

; EXECUTABLE_BLOCK_START
;TYPE:Custom
G90 ; use absolute coordinates
M83 ; extruder relative mode
M140 S60 ; set bed temp
M190 S60 ; wait for bed temp
M104 S220 ; set extruder temp
M109 S220 ; wait for extruder temp
G28                                        ; move X/Y/Z to min endstops
G1 Z0.28                                   ; lift nozzle a bit 
G92 E0 
G1 Y3 F2400                                    ; zero the extruded length 
G1 X180  E40 F500                       ; Extrude 25mm of filament in a 5cm line. 
G92 E0                                     ; zero the extruded length again 
G1 E-2 F3000                                ; Retract a little 
G1 X181 F4000                              ; Quickly wipe away from the filament line
M117
M900 K0.07
G90
G21
M82 ; use absolute distances for extrusion
G92 E0
; filament start gcode
M106 S0
;LAYER_CHANGE
;Z:0.24
;HEIGHT:0.24
G1 E-1.5 F1800
G92 E0
; layer num/total_layer_count: 1/269
; update layer progress
M991 S0 P0 ;notify layer change
;_SET_FAN_SPEED_CHANGING_LAYER
SET_VELOCITY_LIMIT ACCEL=5000 ACCEL_TO_DECEL=2500
; printing object DNA-Clean.stl id:18437845700338395199 copy 0
G1 X193.96 Y201.333 F18000
G1 Z.24
G1 E1.5 F1800
;TYPE:Inner wall
;WIDTH:0.5
G1 F3600
G1 X194.951 Y199.828 E1.57661
G1 X196.496 Y197.716 E1.68787
G1 X198.886 Y195.584 E1.82404
G1 X199.305 Y195.301 E1.84551
G1 X201.521 Y193.906 E1.95683
G1 X204.045 Y192.833 E2.07343
G1 X205.179 Y192.44 E2.12446
G1 X207.504 Y191.965 E2.22535
G1 X210.051 Y191.795 E2.33386
G1 X212.479 Y191.959 E2.43731
G1 X214.847 Y192.443 E2.54008
G1 X217.092 Y193.223 E2.64113
G1 X219.194 Y194.278 E2.7411
G1 X220.165 Y194.934 E2.79094
G1 X222.249 Y196.507 E2.90194
G1 X224.426 Y198.886 E3.03903
G1 X224.699 Y199.289 E3.05972
G1 X226.519 Y202.28 E3.20858
G1 X227.784 Y206.214 E3.38426
G1 X228.191 Y210.52 E3.56814
G1 X227.562 Y214.817 E3.75276
G1 X226.063 Y218.621 E3.9266
G1 X223.792 Y221.868 E4.09505
G1 X221.109 Y224.426 E4.25265
G1 X220.67 Y224.722 E4.27516
G1 X217.985 Y226.35 E4.40864
G1 X215.642 Y227.279 E4.51582
G1 X215.155 Y227.448 E4.53773
G1 X212.919 Y227.96 E4.63524
G1 X208.427 Y228.111 E4.82631
G1 X207.234 Y227.978 E4.87736
G1 X205.165 Y227.554 E4.96712
G1 X201.388 Y226.093 E5.1393
G1 X197.121 Y222.854 E5.36706
G1 X195.594 Y221.122 E5.46524
G1 X195.284 Y220.664 E5.48877
G1 X193.605 Y217.867 E5.62745
G1 X192.727 Y215.636 E5.72938
G1 X192.451 Y214.841 E5.76512
G1 X191.948 Y212.328 E5.8741
G1 X191.824 Y210.361 E5.95788
G1 X191.917 Y207.914 E6.06201
G1 X192.459 Y205.141 E6.18211
G1 X193.904 Y201.419 E6.35184
G1 X193.96 Y201.333 E6.35621
G1 X193.586 Y201.087 F18000
G1 F3600
G1 X194.583 Y199.572 E6.43328
G1 X196.162 Y197.412 E6.54704
G1 X198.61 Y195.229 E6.68651
G1 X199.06 Y194.925 E6.70956
G1 X201.312 Y193.507 E6.82272
G1 X203.883 Y192.415 E6.94151
G1 X205.06 Y192.007 E6.99444
G1 X207.444 Y191.519 E7.09789
G1 X210.051 Y191.346 E7.20896
G1 X212.539 Y191.513 E7.31498
G1 X214.966 Y192.009 E7.42029
G1 X217.267 Y192.809 E7.52386
G1 X219.421 Y193.89 E7.62631
G1 X220.426 Y194.569 E7.67788
G1 X222.552 Y196.174 E7.79113
G1 X224.78 Y198.607 E7.93138
G1 X225.076 Y199.047 E7.95392
G1 X226.93 Y202.092 E8.10549
G1 X228.226 Y206.123 E8.2855
G1 X228.643 Y210.531 E8.47375
G1 X227.998 Y214.933 E8.66287
G1 X226.461 Y218.835 E8.84117
G1 X224.134 Y222.162 E9.01377
G1 X221.391 Y224.777 E9.17487
G1 X220.912 Y225.1 E9.19945
G1 X218.186 Y226.753 E9.335
G1 X215.798 Y227.699 E9.44419
G1 X215.279 Y227.88 E9.46755
G1 X212.977 Y228.407 E9.56794
G1 X208.41 Y228.561 E9.76222
G1 X207.164 Y228.421 E9.81552
G1 X205.039 Y227.986 E9.90774
G1 X201.167 Y226.489 E10.0842
G1 X196.814 Y223.184 E10.31655
G1 X195.238 Y221.397 E10.41786
G1 X194.905 Y220.905 E10.44314
G1 X193.201 Y218.066 E10.58391
G1 X192.307 Y215.791 E10.68781
G1 X192.017 Y214.96 E10.72524
G1 X191.503 Y212.386 E10.83681
G1 X191.375 Y210.367 E10.92284
G1 X191.471 Y207.862 E11.02942
G1 X192.027 Y205.016 E11.1527
G1 X193.503 Y201.212 E11.32615
G1 X193.586 Y201.087 E11.33254
G1 X193.211 Y200.84 F18000
;TYPE:Outer wall
G1 F3600
G1 X194.214 Y199.317 E11.41008
G1 X195.828 Y197.109 E11.52633
G1 X198.334 Y194.874 E11.6691
G1 X198.814 Y194.55 E11.69374
G1 X201.104 Y193.108 E11.80874
G1 X203.722 Y191.996 E11.9297
G1 X204.941 Y191.573 E11.98454
G1 X207.384 Y191.074 E12.09055
G1 X210.051 Y190.896 E12.20419
G1 X212.599 Y191.068 E12.31276
G1 X215.085 Y191.576 E12.42063
G1 X217.442 Y192.395 E12.52671
G1 X219.648 Y193.502 E12.63164
G1 X220.687 Y194.204 E12.68495
G1 X222.855 Y195.84 E12.80044
G1 X225.133 Y198.329 E12.94384
G1 X225.454 Y198.804 E12.96825
G1 X227.34 Y201.904 E13.12252
G1 X228.668 Y206.032 E13.30686
G1 X229.094 Y210.543 E13.49949
G1 X228.434 Y215.049 E13.69311
G1 X226.859 Y219.048 E13.87585
G1 X224.476 Y222.456 E14.05261
G1 X221.673 Y225.127 E14.21722
G1 X221.154 Y225.478 E14.24387
G1 X218.386 Y227.156 E14.38148
G1 X215.954 Y228.12 E14.49268
G1 X215.403 Y228.311 E14.51749
G1 X213.035 Y228.854 E14.62075
G1 X208.392 Y229.01 E14.81826
G1 X207.094 Y228.865 E14.8738
G1 X204.912 Y228.418 E14.96848
G1 X200.947 Y226.884 E15.14923
G1 X196.508 Y223.515 E15.38617
G1 X194.882 Y221.672 E15.49062
G1 X194.527 Y221.146 E15.51763
G1 X192.797 Y218.264 E15.66049
G1 X191.886 Y215.947 E15.76636
G1 X191.584 Y215.078 E15.80549
G1 X191.057 Y212.445 E15.91964
G1 X190.926 Y210.372 E16.00793
G1 X191.024 Y207.81 E16.11694
G1 X191.594 Y204.891 E16.2434
G1 X193.102 Y201.006 E16.42057
G1 X193.211 Y200.84 E16.42899
G1 E15.42899 F1800
;WIPE_START
G1 F3600
G1 X193.761 Y200.005 E14.92899
;WIPE_END
G92 E0
G1 X194.428 Y218.756 F18000
G1 E1.5 F1800
;TYPE:Gap infill
;WIDTH:0.154924
G1 F3600
G1 X194.576 Y218.946 E1.50237
;WIDTH:0.179724
G1 X194.725 Y219.137 E1.5053
;WIDTH:0.229325
G1 X194.874 Y219.327 E1.50937
;WIDTH:0.278925
G1 X195.022 Y219.517 E1.51458
G1 E.1353 F1800
;WIPE_START
G1 F3600
G1 X194.874 Y219.327 E.01458
;WIPE_END
G92 E0
G1 X198.99 Y223.96 F18000
G1 E1.5 F1800
;WIDTH:0.123445
G1 F3600
G1 X198.755 Y223.755 E1.50213
;WIDTH:0.141566
G1 X198.521 Y223.55 E1.50479
G1 X198.408 Y223.663 F18000
;TYPE:Bottom surface
;WIDTH:0.503674
G1 F3600
G1 X197.342 Y222.596 E1.56945
G1 X195.86 Y220.916 E1.66545
G1 X195.568 Y220.483 E1.68785
G1 X195.116 Y219.731 E1.72545
G1 X200.011 Y224.626 E2.02217
G1 X201.554 Y225.797 E2.10518
G1 X201.991 Y225.966 E2.12526
G1 X194.156 Y218.131 E2.60019
G1 X193.908 Y217.718 E2.62084
G1 X193.6 Y216.936 E2.65686
G1 X203.034 Y226.369 E3.22868
G1 X204.076 Y226.773 E3.2766
G1 X193.185 Y215.882 E3.93676
G1 X192.819 Y214.876 E3.98262
G1 X205.119 Y227.176 E4.72818
G1 X205.261 Y227.231 E4.73468
G1 X205.955 Y227.373 E4.76508
G1 X192.637 Y214.054 E5.57241
G1 X192.477 Y213.255 E5.60735
G1 X206.759 Y227.537 E6.4731
G1 X207.287 Y227.645 E6.49617
G1 X207.534 Y227.673 E6.50686
G1 X192.317 Y212.455 E7.42929
G1 X192.283 Y212.284 E7.43676
G1 X192.249 Y211.748 E7.45981
G1 X208.255 Y227.754 E8.43002
G1 X208.44 Y227.774 E8.43803
G1 X208.899 Y227.759 E8.45772
G1 X192.206 Y211.065 E9.46963
G1 X192.162 Y210.382 E9.49895
G1 X209.518 Y227.738 E10.55098
G1 X210.137 Y227.717 E10.57751
G1 X192.183 Y209.764 E11.66576
G1 X192.207 Y209.148 E11.69218
G1 X210.755 Y227.696 E12.81651
G1 X211.374 Y227.676 E12.84304
G1 X192.23 Y208.532 E14.00344
G1 X192.259 Y207.921 E14.02967
G1 X211.993 Y227.655 E15.22585
G1 X212.611 Y227.634 E15.25238
G1 X192.363 Y207.386 E16.47973
G1 X192.468 Y206.851 E16.50309
G1 X213.174 Y227.557 E17.75819
G1 X213.694 Y227.437 E17.78107
G1 X192.572 Y206.316 E19.06136
G1 X192.677 Y205.781 E19.08473
G1 X214.214 Y227.318 E20.39022
G1 X214.734 Y227.199 E20.4131
G1 X192.781 Y205.246 E21.7438
G1 X192.959 Y204.784 E21.76502
G1 X215.238 Y227.063 E23.11548
G1 X215.706 Y226.892 E23.13684
G1 X193.137 Y204.323 E24.50483
G1 X193.316 Y203.863 E24.52601
G1 X216.164 Y226.71 E25.91093
G1 X216.622 Y226.529 E25.93204
G1 X193.495 Y203.402 E27.33387
G1 X193.674 Y202.941 E27.35505
G1 X217.08 Y226.347 E28.77381
G1 X217.538 Y226.166 E28.79492
G1 X193.853 Y202.481 E30.2306
G1 X194.032 Y202.02 E30.25178
G1 X217.975 Y225.963 E31.7031
G1 X218.373 Y225.722 E31.72305
G1 X194.213 Y201.562 E33.18752
G1 X194.467 Y201.176 E33.20731
G1 X218.771 Y225.48 E34.68053
G1 X219.169 Y225.239 E34.70048
G1 X194.72 Y200.791 E36.18244
G1 X194.974 Y200.405 E36.20223
G1 X219.567 Y224.998 E37.69293
G1 X219.965 Y224.756 E37.71289
G1 X195.228 Y200.019 E39.21234
G1 X195.498 Y199.65 E39.23195
G1 X220.363 Y224.515 E40.73916
G1 X220.75 Y224.262 E40.75897
G1 X195.768 Y199.281 E42.27326
G1 X196.038 Y198.911 E42.29287
G1 X221.099 Y223.971 E43.81192
G1 X221.426 Y223.659 E43.8313
G1 X196.308 Y198.542 E45.35382
G1 X196.578 Y198.172 E45.37344
G1 X221.753 Y223.347 E46.89943
G1 X222.081 Y223.035 E46.91882
G1 X196.874 Y197.829 E48.44673
G1 X197.212 Y197.527 E48.46614
G1 X222.408 Y222.723 E49.9934
G1 X222.736 Y222.411 E50.01279
G1 X197.55 Y197.226 E51.53941
G1 X197.888 Y196.924 E51.55882
G1 X223.063 Y222.099 E53.0848
G1 X223.39 Y221.787 E53.10419
G1 X198.226 Y196.623 E54.62952
G1 X198.564 Y196.321 E54.64894
G1 X223.682 Y221.439 E56.17147
G1 X223.945 Y221.063 E56.19115
G1 X198.902 Y196.02 E57.70914
G1 X199.093 Y195.85 E57.7201
G1 X199.259 Y195.738 E57.72869
G1 X224.208 Y220.686 E59.24099
G1 X224.471 Y220.31 E59.26067
G1 X199.645 Y195.484 E60.76553
G1 X200.038 Y195.237 E60.78541
G1 X224.735 Y219.934 E62.28243
G1 X224.998 Y219.557 E62.30211
G1 X200.43 Y194.99 E63.79129
G1 X200.823 Y194.743 E63.81117
G1 X225.261 Y219.181 E65.29252
G1 X225.524 Y218.805 E65.3122
G1 X201.215 Y194.496 E66.78571
G1 X201.607 Y194.249 E66.80559
G1 X225.78 Y218.421 E68.27084
G1 X225.961 Y217.963 E68.29197
G1 X202.046 Y194.048 E69.74158
G1 X202.495 Y193.857 E69.76248
G1 X226.142 Y217.504 E71.19584
G1 X226.322 Y217.045 E71.21697
G1 X202.944 Y193.667 E72.63408
G1 X203.392 Y193.476 E72.65498
G1 X226.503 Y216.587 E74.05585
G1 X226.684 Y216.128 E74.07698
G1 X203.841 Y193.285 E75.4616
G1 X204.297 Y193.102 E75.48267
G1 X226.865 Y215.669 E76.8506
G1 X227.045 Y215.21 E76.87174
G1 X204.772 Y192.937 E78.22185
G1 X205.247 Y192.772 E78.24339
G1 X227.226 Y214.752 E79.57568
G1 X227.312 Y214.199 E79.59967
G1 X205.775 Y192.661 E80.90517
G1 X206.306 Y192.553 E80.92839
G1 X227.394 Y213.641 E82.20666
G1 X227.476 Y213.083 E82.23082
G1 X206.837 Y192.444 E83.48185
G1 X207.368 Y192.336 E83.50508
G1 X227.557 Y212.525 E84.72888
G1 X227.639 Y211.967 E84.75304
G1 X207.944 Y192.272 E85.94687
G1 X208.544 Y192.233 E85.97262
G1 X227.721 Y211.41 E87.13505
G1 X227.802 Y210.852 E87.15921
G1 X209.143 Y192.193 E88.29025
G1 X209.743 Y192.153 E88.316
G1 X227.826 Y210.236 E89.41214
G1 X227.76 Y209.53 E89.44255
G1 X210.384 Y192.155 E90.49576
G1 X211.07 Y192.201 E90.52521
G1 X227.693 Y208.824 E91.53282
G1 X227.626 Y208.118 E91.56323
G1 X211.756 Y192.247 E92.52523
G1 X212.443 Y192.295 E92.55475
G1 X227.559 Y207.411 E93.47107
G1 X227.493 Y206.705 E93.50147
G1 X213.246 Y192.459 E94.36503
G1 X214.05 Y192.623 E94.40019
G1 X227.331 Y205.904 E95.20524
G1 X227.028 Y204.962 E95.24768
G1 X214.875 Y192.809 E95.98435
G1 X215.855 Y193.149 E96.02882
G1 X226.725 Y204.019 E96.68771
G1 X226.422 Y203.076 E96.73015
G1 X216.835 Y193.49 E97.31126
G1 X216.961 Y193.533 E97.31697
G1 X218.08 Y194.095 E97.37063
G1 X225.908 Y201.924 E97.84516
G1 X224.914 Y200.29 E97.92711
G1 X219.547 Y194.922 E98.25248
G1 X219.969 Y195.208 E98.27435
G1 X222.015 Y196.751 E98.38419
G1 X224.503 Y199.239 E98.535
G1 X224.39 Y199.352 F18000
;TYPE:Gap infill
;WIDTH:0.147519
G1 F3600
G1 X224.546 Y199.546 E98.53727
;WIDTH:0.119798
G1 X224.63 Y199.652 E98.53814
G1 E97.10563 F1800
;WIPE_START
G1 F3600
G1 X224.546 Y199.546 E97.03814
;WIPE_END
G92 E0
G1 X226.003 Y202.137 F18000
G1 E1.5 F1800
;WIDTH:0.278483
G1 F3600
G1 X226.201 Y202.389 E1.50691
;WIDTH:0.264931
G1 X226.4 Y202.642 E1.51341
G1 E.17398 F1800
;WIPE_START
G1 F3600
G1 X226.201 Y202.389 E.01341
;WIPE_END
G92 E0
G1 X219.336 Y194.823 F18000
G1 E1.5 F1800
;WIDTH:0.308116
G1 F3600
G1 X219.18 Y194.694 E1.50491
;WIDTH:0.282514
G1 X219.025 Y194.566 E1.50932
;WIDTH:0.249162
G1 X218.915 Y194.487 E1.51186
;WIDTH:0.208066
G1 X218.805 Y194.407 E1.51387
;WIDTH:0.166969
G1 X218.695 Y194.328 E1.51536
;WIDTH:0.146421
G1 X218.585 Y194.248 E1.51658
; stop printing object DNA-Clean.stl id:18437845700338395199 copy 0
M106 S122
;LAYER_CHANGE
;Z:0.44
;HEIGHT:0.2
G1 E.08439 F1800
;WIPE_START
G1 F3600
G1 X218.695 Y194.328 E.01658
;WIPE_END
G92 E0
; layer num/total_layer_count: 2/269
; update layer progress
M991 S0 P1 ;notify layer change
;_SET_FAN_SPEED_CHANGING_LAYER
SET_VELOCITY_LIMIT ACCEL=6000 ACCEL_TO_DECEL=3000
M104 S200 ; set nozzle temperature
; printing object DNA-Clean.stl id:18437845700338395199 copy 0
G1 X194.093 Y201.348 Z.44 F18000
G1 E1.5 F1800
;TYPE:Inner wall
;WIDTH:0.45
G1 F8843.478
G1 X195.088 Y199.842 E1.55806
G1 X196.567 Y197.818 E1.63865
G1 X198.961 Y195.677 E1.74191
G1 X199.35 Y195.414 E1.75704
G1 X201.592 Y194.001 E1.84226
G1 X204.013 Y192.972 E1.92685
G1 X205.233 Y192.55 E1.96836
G1 X207.46 Y192.095 E2.04144
G1 X210.066 Y191.916 E2.12545
G1 X212.463 Y192.077 E2.20268
G1 X214.815 Y192.558 E2.27989
G1 X217.046 Y193.333 E2.35582
G1 X219.133 Y194.381 E2.43092
G1 X220.153 Y195.071 E2.47053
G1 X222.152 Y196.579 E2.55106
G1 X224.333 Y198.96 E2.65487
G1 X224.586 Y199.334 E2.66939
G1 X226.413 Y202.331 E2.78226
G1 X227.677 Y206.258 E2.91494
G1 X228.077 Y210.425 E3.04953
G1 X228.074 Y210.535 E3.05308
G1 X227.457 Y214.751 E3.1901
G1 X225.961 Y218.554 E3.32149
G1 X223.706 Y221.788 E3.44827
G1 X221.035 Y224.332 E3.56691
G1 X220.539 Y224.666 E3.58614
G1 X217.959 Y226.23 E3.68315
G1 X215.6 Y227.167 E3.76477
G1 X215.158 Y227.32 E3.7798
G1 X212.858 Y227.848 E3.85568
G1 X208.487 Y227.995 E3.99632
G1 X207.231 Y227.855 E4.03695
G1 X205.157 Y227.43 E4.10505
G1 X201.473 Y226.01 E4.23201
G1 X197.243 Y222.803 E4.40269
G1 X195.687 Y221.048 E4.47811
G1 X195.338 Y220.53 E4.49821
G1 X193.724 Y217.842 E4.59901
G1 X192.839 Y215.594 E4.67672
G1 X192.567 Y214.81 E4.70339
G1 X192.067 Y212.313 E4.7853
G1 X191.949 Y210.449 E4.84534
G1 X192.042 Y207.912 E4.92696
G1 X192.595 Y205.109 E5.01886
G1 X193.994 Y201.498 E5.14338
G1 X194.093 Y201.348 E5.14915
G1 X193.754 Y201.124 F18000
G1 F8843.478
G1 X194.754 Y199.609 E5.20752
G1 X196.264 Y197.543 E5.2898
G1 X198.71 Y195.356 E5.39533
G1 X199.128 Y195.073 E5.41156
G1 X201.403 Y193.639 E5.49804
G1 X203.867 Y192.592 E5.58413
G1 X205.126 Y192.157 E5.62695
G1 X207.404 Y191.691 E5.70174
G1 X210.094 Y191.51 E5.78842
G1 X212.517 Y191.673 E5.86653
G1 X214.923 Y192.165 E5.94549
G1 X217.204 Y192.957 E6.02315
G1 X219.339 Y194.029 E6.09996
G1 X220.39 Y194.74 E6.14075
G1 X222.427 Y196.277 E6.22282
G1 X224.653 Y198.707 E6.3288
G1 X224.928 Y199.114 E6.34459
G1 X226.778 Y202.146 E6.4588
G1 X228.072 Y206.156 E6.59428
G1 X228.484 Y210.41 E6.73173
G1 X228.48 Y210.57 E6.73686
G1 X227.854 Y214.848 E6.8759
G1 X226.322 Y218.747 E7.01062
G1 X224.017 Y222.054 E7.14025
G1 X221.291 Y224.651 E7.26131
G1 X220.758 Y225.009 E7.28196
G1 X218.141 Y226.596 E7.38038
G1 X215.742 Y227.549 E7.46338
G1 X215.272 Y227.712 E7.47938
G1 X213.058 Y228.232 E7.55249
G1 X212.892 Y228.254 E7.55787
G1 X208.472 Y228.403 E7.70011
G1 X207.168 Y228.258 E7.74229
G1 X205.042 Y227.822 E7.81208
G1 X201.259 Y226.358 E7.94252
G1 X196.965 Y223.103 E8.11577
G1 X195.365 Y221.298 E8.19336
G1 X194.994 Y220.749 E8.21466
G1 X193.358 Y218.023 E8.3169
G1 X192.457 Y215.735 E8.39595
G1 X192.173 Y214.918 E8.42379
G1 X191.663 Y212.366 E8.50748
G1 X191.542 Y210.454 E8.56908
G1 X191.64 Y208.019 E8.64744
G1 X191.632 Y207.872 E8.65216
G1 X192.203 Y204.995 E8.74647
G1 X193.642 Y201.293 E8.87421
G1 X193.754 Y201.124 E8.88072
G1 X193.414 Y200.9 F18000
G1 F8843.478
G1 X194.419 Y199.377 E8.9394
G1 X195.961 Y197.269 E9.02338
