; HEADER_BLOCK_START
; generated by AnycubicSlicerNext 1.1.1 on 2026-01-17 at 20:21:02
; total layer number: 422
; filament_density: 1.24
; filament_diameter: 1.75
; max_z_height: 56.44
; HEADER_BLOCK_END

; THUMBNAIL_BLOCK_START

;
; THUMBNAIL_BLOCK_END

; external perimeters extrusion width = 0.42mm
; perimeters extrusion width = 0.45mm
; infill extrusion width = 0.45mm
; solid infill extrusion width = 0.42mm
; top infill extrusion width = 0.42mm
; support material extrusion width = 0.40mm
; first layer extrusion width = 0.50mm

; EXECUTABLE_BLOCK_START
;TYPE:Custom
G90 ; use absolute coordinates
M83 ; extruder relative mode
M140 S60 ; set bed temp
M190 S60 ; wait for bed temp
M104 S220 ; set extruder temp
M109 S220 ; wait for extruder temp
G28                                        ; move X/Y/Z to min endstops
G1 Z0.28                                   ; lift nozzle a bit 
G92 E0 
G1 Y3 F2400                                    ; zero the extruded length 
G1 X180  E40 F500                       ; Extrude 25mm of filament in a 5cm line. 
G92 E0                                     ; zero the extruded length again 
G1 E-2 F3000                                ; Retract a little 
G1 X181 F4000                              ; Quickly wipe away from the filament line
M117
M900 K0.07
G90
G21
M82 ; use absolute distances for extrusion
G92 E0
; filament start gcode
M106 S0
;LAYER_CHANGE
;Z:0.24
;HEIGHT:0.24
G1 E-1.5 F1800
G92 E0
; layer num/total_layer_count: 1/422
; update layer progress
M991 S0 P0 ;notify layer change
;_SET_FAN_SPEED_CHANGING_LAYER
SET_VELOCITY_LIMIT ACCEL=5000 ACCEL_TO_DECEL=2500
; printing object Molekuel.stl id:1648196109568 copy 0
G1 X220.083 Y189.682 F18000
G1 Z.24
G1 E1.5 F1800
;TYPE:Support
;WIDTH:0.5
G1 F3000
G1 X220.447 Y189.27 E1.52337
G1 X220.835 Y188.881 E1.54673
G1 X221.247 Y188.518 E1.5701
G1 X221.682 Y188.181 E1.59346
G1 X222.136 Y187.872 E1.61683
G1 X222.609 Y187.592 E1.6402
G1 X223.099 Y187.343 E1.66356
G1 X223.603 Y187.125 E1.68693
G1 X224.121 Y186.938 E1.71029
G1 X224.648 Y186.785 E1.73366
G1 X225.185 Y186.665 E1.75702
G1 X225.728 Y186.579 E1.78039
G1 X226.275 Y186.527 E1.80376
G1 X226.824 Y186.51 E1.82712
G1 X227.373 Y186.527 E1.85049
G1 X227.921 Y186.579 E1.87386
G1 X228.463 Y186.665 E1.89722
G1 X229 Y186.785 E1.92059
G1 X229.528 Y186.938 E1.94395
G1 X230.045 Y187.125 E1.96732
G1 X230.549 Y187.343 E1.99068
G1 X231.039 Y187.592 E2.01405
G1 X231.512 Y187.872 E2.03742
G1 X231.967 Y188.181 E2.06078
G1 X232.401 Y188.518 E2.08415
G1 X232.813 Y188.881 E2.10751
G1 X233.202 Y189.27 E2.13088
G1 X233.565 Y189.682 E2.15425
G1 X233.902 Y190.117 E2.17761
G1 X234.211 Y190.571 E2.20098
G1 X234.491 Y191.044 E2.22434
G1 X234.74 Y191.534 E2.24771
G1 X234.959 Y192.038 E2.27107
G1 X235.145 Y192.555 E2.29444
G1 X235.298 Y193.083 E2.31781
G1 X235.418 Y193.62 E2.34117
G1 X235.504 Y194.162 E2.36454
G1 X235.556 Y194.71 E2.3879
G1 X235.573 Y195.259 E2.41127
G1 X235.556 Y195.808 E2.43464
G1 X235.504 Y196.355 E2.458
G1 X235.418 Y196.898 E2.48137
G1 X235.298 Y197.435 E2.50473
G1 X235.145 Y197.962 E2.5281
G1 X234.959 Y198.48 E2.55147
G1 X234.74 Y198.984 E2.57483
G1 X234.491 Y199.474 E2.5982
G1 X234.211 Y199.947 E2.62156
G1 X233.902 Y200.401 E2.64493
G1 X233.565 Y200.836 E2.66829
G1 X233.202 Y201.248 E2.69166
G1 X232.813 Y201.637 E2.71503
G1 X232.401 Y202 E2.73839
G1 X231.967 Y202.337 E2.76176
G1 X231.512 Y202.646 E2.78512
G1 X231.039 Y202.926 E2.80849
G1 X230.549 Y203.175 E2.83186
G1 X230.045 Y203.393 E2.85522
G1 X229.528 Y203.58 E2.87859
G1 X229 Y203.733 E2.90195
G1 X228.463 Y203.853 E2.92532
G1 X227.921 Y203.939 E2.94868
G1 X227.373 Y203.99 E2.97205
G1 X226.824 Y204.008 E2.99542
G1 X226.275 Y203.99 E3.01878
G1 X225.526 Y203.907 E3.0508
G1 X225.216 Y202.784 E3.10033
G1 X224.138 Y200.637 E3.20247
G1 X221.25 Y196.894 E3.40345
G1 X218.115 Y194.468 E3.57196
G1 X218.144 Y194.162 E3.58502
G1 X218.23 Y193.62 E3.60838
G1 X218.35 Y193.083 E3.63175
G1 X218.504 Y192.555 E3.65511
G1 X218.69 Y192.038 E3.67848
G1 X218.908 Y191.534 E3.70184
G1 X219.158 Y191.044 E3.72521
G1 X219.437 Y190.571 E3.74858
G1 X219.746 Y190.117 E3.77194
G1 X220.059 Y189.714 E3.79361
G1 X220.413 Y189.989 F18000
G1 F3000
G1 X220.429 Y189.968 E3.79471
G1 X220.774 Y189.577 E3.81688
G1 X221.142 Y189.208 E3.83904
G1 X221.533 Y188.864 E3.86121
G1 X221.945 Y188.544 E3.88338
G1 X222.377 Y188.251 E3.90555
G1 X222.826 Y187.986 E3.92771
G1 X223.29 Y187.749 E3.94988
G1 X223.769 Y187.542 E3.97205
G1 X224.259 Y187.365 E3.99422
G1 X224.76 Y187.22 E4.01638
G1 X225.269 Y187.106 E4.03855
G1 X225.784 Y187.024 E4.06072
G1 X226.303 Y186.975 E4.08289
G1 X226.824 Y186.959 E4.10505
G1 X227.345 Y186.975 E4.12722
G1 X227.864 Y187.024 E4.14939
G1 X228.379 Y187.106 E4.17156
G1 X228.888 Y187.22 E4.19372
G1 X229.389 Y187.365 E4.21589
G1 X229.88 Y187.542 E4.23806
G1 X230.358 Y187.749 E4.26022
G1 X230.823 Y187.986 E4.28239
G1 X231.272 Y188.251 E4.30456
G1 X231.703 Y188.544 E4.32673
G1 X232.115 Y188.864 E4.34889
G1 X232.506 Y189.208 E4.37106
G1 X232.875 Y189.577 E4.39323
G1 X233.219 Y189.968 E4.4154
G1 X233.539 Y190.38 E4.43756
G1 X233.832 Y190.812 E4.45973
G1 X234.098 Y191.26 E4.4819
G1 X234.334 Y191.725 E4.50407
G1 X234.541 Y192.203 E4.52623
G1 X234.718 Y192.694 E4.5484
G1 X234.863 Y193.195 E4.57057
G1 X234.977 Y193.704 E4.59274
G1 X235.059 Y194.219 E4.6149
G1 X235.108 Y194.738 E4.63707
G1 X235.124 Y195.259 E4.65924
G1 X235.108 Y195.78 E4.68141
G1 X235.059 Y196.299 E4.70357
G1 X234.977 Y196.814 E4.72574
G1 X234.863 Y197.323 E4.74791
G1 X234.718 Y197.824 E4.77008
G1 X234.541 Y198.314 E4.79224
G1 X234.334 Y198.793 E4.81441
G1 X234.098 Y199.258 E4.83658
G1 X233.832 Y199.706 E4.85875
G1 X233.539 Y200.138 E4.88091
G1 X233.219 Y200.55 E4.90308
G1 X232.875 Y200.941 E4.92525
G1 X232.506 Y201.309 E4.94742
G1 X232.115 Y201.654 E4.96958
G1 X231.703 Y201.974 E4.99175
G1 X231.272 Y202.267 E5.01392
G1 X230.823 Y202.532 E5.03609
G1 X230.358 Y202.769 E5.05825
G1 X229.88 Y202.976 E5.08042
G1 X229.389 Y203.153 E5.10259
G1 X228.888 Y203.298 E5.12476
G1 X228.379 Y203.412 E5.14692
G1 X227.864 Y203.494 E5.16909
G1 X227.345 Y203.543 E5.19126
G1 X226.824 Y203.559 E5.21343
G1 X226.303 Y203.543 E5.23559
G1 X225.881 Y203.503 E5.25363
G1 X225.627 Y202.603 E5.29339
G1 X224.53 Y200.416 E5.3974
G1 X221.587 Y196.598 E5.60234
G1 X218.583 Y194.262 E5.76412
G1 X218.671 Y193.704 E5.78816
G1 X218.785 Y193.195 E5.81033
G1 X218.93 Y192.694 E5.8325
G1 X219.107 Y192.203 E5.85467
G1 X219.314 Y191.725 E5.87683
G1 X219.551 Y191.26 E5.899
G1 X219.816 Y190.812 E5.92117
G1 X220.109 Y190.38 E5.94334
G1 X220.388 Y190.02 E5.9627
G1 X220.743 Y190.295 F18000
G1 F3000
G1 X220.775 Y190.254 E5.9649
G1 X221.101 Y189.884 E5.98587
G1 X221.45 Y189.536 E6.00684
G1 X221.82 Y189.209 E6.02781
G1 X222.209 Y188.907 E6.04878
G1 X222.617 Y188.63 E6.06975
G1 X223.042 Y188.379 E6.09072
G1 X223.481 Y188.155 E6.11169
G1 X223.934 Y187.959 E6.13266
G1 X224.398 Y187.792 E6.15363
G1 X224.872 Y187.654 E6.17459
G1 X225.353 Y187.547 E6.19556
G1 X225.84 Y187.47 E6.21653
G1 X226.331 Y187.423 E6.2375
G1 X226.824 Y187.408 E6.25847
G1 X227.317 Y187.423 E6.27944
G1 X227.808 Y187.47 E6.30041
G1 X228.295 Y187.547 E6.32138
G1 X228.777 Y187.654 E6.34235
G1 X229.25 Y187.792 E6.36332
G1 X229.714 Y187.959 E6.38429
G1 X230.167 Y188.155 E6.40525
G1 X230.607 Y188.379 E6.42622
G1 X231.031 Y188.63 E6.44719
G1 X231.439 Y188.907 E6.46816
G1 X231.829 Y189.209 E6.48913
G1 X232.199 Y189.536 E6.5101
G1 X232.548 Y189.884 E6.53107
G1 X232.874 Y190.254 E6.55204
G1 X233.176 Y190.644 E6.57301
G1 X233.453 Y191.052 E6.59398
G1 X233.704 Y191.477 E6.61494
G1 X233.928 Y191.916 E6.63592
G1 X234.124 Y192.369 E6.65688
G1 X234.291 Y192.833 E6.67785
G1 X234.429 Y193.306 E6.69882
G1 X234.536 Y193.788 E6.71979
G1 X234.614 Y194.275 E6.74076
G1 X234.66 Y194.766 E6.76173
G1 X234.675 Y195.259 E6.7827
G1 X234.66 Y195.752 E6.80367
G1 X234.614 Y196.243 E6.82464
G1 X234.536 Y196.73 E6.8456
G1 X234.429 Y197.211 E6.86657
G1 X234.291 Y197.685 E6.88754
G1 X234.124 Y198.149 E6.90851
G1 X233.928 Y198.602 E6.92948
G1 X233.704 Y199.041 E6.95045
G1 X233.453 Y199.466 E6.97142
G1 X233.176 Y199.874 E6.99239
G1 X232.874 Y200.264 E7.01336
G1 X232.548 Y200.634 E7.03433
G1 X232.199 Y200.982 E7.05529
G1 X231.829 Y201.308 E7.07626
G1 X231.439 Y201.611 E7.09723
G1 X231.031 Y201.888 E7.1182
G1 X230.607 Y202.139 E7.13917
G1 X230.167 Y202.363 E7.16014
G1 X229.714 Y202.559 E7.18111
G1 X229.25 Y202.726 E7.20208
G1 X228.777 Y202.864 E7.22305
G1 X228.295 Y202.971 E7.24402
G1 X227.808 Y203.048 E7.26499
G1 X227.317 Y203.095 E7.28595
G1 X226.824 Y203.11 E7.30692
G1 X226.233 Y203.092 E7.33207
G1 X226.038 Y202.421 E7.36176
G1 X224.863 Y200.104 E7.4722
G1 X221.924 Y196.301 E7.67654
G1 X221.823 Y196.199 E7.68263
G1 X219.067 Y194.07 E7.8307
G1 X219.219 Y193.306 E7.8638
G1 X219.357 Y192.833 E7.88477
G1 X219.524 Y192.369 E7.90574
G1 X219.72 Y191.916 E7.9267
G1 X219.944 Y191.477 E7.94767
G1 X220.195 Y191.052 E7.96864
G1 X220.472 Y190.644 E7.98961
G1 X220.718 Y190.327 E8.00668
G1 X221.073 Y190.602 F18000
G1 F3000
G1 X221.12 Y190.54 E8.00998
G1 X221.428 Y190.191 E8.02975
G1 X221.757 Y189.863 E8.04952
G1 X222.106 Y189.555 E8.06929
G1 X222.473 Y189.27 E8.08906
G1 X222.858 Y189.009 E8.10883
G1 X223.258 Y188.772 E8.1286
G1 X223.672 Y188.561 E8.14838
G1 X224.099 Y188.376 E8.16815
G1 X224.537 Y188.219 E8.18792
G1 X224.983 Y188.089 E8.20769
G1 X225.437 Y187.987 E8.22746
G1 X225.896 Y187.915 E8.24723
G1 X226.359 Y187.871 E8.267
G1 X226.824 Y187.856 E8.28677
G1 X227.289 Y187.871 E8.30654
G1 X227.752 Y187.915 E8.32631
G1 X228.211 Y187.987 E8.34608
G1 X228.665 Y188.089 E8.36585
G1 X229.112 Y188.219 E8.38562
G1 X229.549 Y188.376 E8.4054
G1 X229.976 Y188.561 E8.42516
G1 X230.39 Y188.772 E8.44494
G1 X230.791 Y189.009 E8.46471
G1 X231.175 Y189.27 E8.48448
G1 X231.543 Y189.555 E8.50425
G1 X231.892 Y189.863 E8.52402
G1 X232.22 Y190.191 E8.54379
G1 X232.528 Y190.54 E8.56356
G1 X232.813 Y190.908 E8.58333
G1 X233.074 Y191.292 E8.6031
G1 X233.311 Y191.693 E8.62287
G1 X233.522 Y192.107 E8.64264
G1 X233.707 Y192.534 E8.66241
G1 X233.864 Y192.971 E8.68218
G1 X233.994 Y193.418 E8.70195
G1 X234.096 Y193.872 E8.72172
G1 X234.168 Y194.331 E8.7415
G1 X234.212 Y194.794 E8.76127
G1 X234.227 Y195.259 E8.78104
G1 X234.212 Y195.724 E8.80081
G1 X234.168 Y196.187 E8.82058
G1 X234.096 Y196.646 E8.84035
G1 X233.994 Y197.1 E8.86012
G1 X233.864 Y197.546 E8.87989
G1 X233.707 Y197.984 E8.89966
G1 X233.522 Y198.411 E8.91943
G1 X233.311 Y198.825 E8.9392
G1 X233.074 Y199.225 E8.95897
G1 X232.813 Y199.61 E8.97874
G1 X232.528 Y199.978 E8.99851
G1 X232.22 Y200.326 E9.01828
G1 X231.892 Y200.655 E9.03805
G1 X231.543 Y200.963 E9.05782
G1 X231.175 Y201.248 E9.0776
G1 X230.791 Y201.509 E9.09737
G1 X230.39 Y201.746 E9.11714
G1 X229.976 Y201.957 E9.13691
G1 X229.549 Y202.142 E9.15668
G1 X229.112 Y202.299 E9.17645
G1 X228.665 Y202.429 E9.19622
G1 X228.211 Y202.53 E9.21599
G1 X227.752 Y202.603 E9.23576
G1 X227.289 Y202.647 E9.25553
G1 X226.578 Y202.654 E9.28576
G1 X226.449 Y202.24 E9.3042
G1 X225.312 Y199.975 E9.41193
G1 X225.231 Y199.847 E9.41837
G1 X222.262 Y196.004 E9.62484
G1 X222.12 Y195.862 E9.63336
G1 X219.551 Y193.877 E9.77136
G1 X219.654 Y193.418 E9.79138
G1 X219.784 Y192.971 E9.81114
G1 X219.941 Y192.534 E9.83092
G1 X220.126 Y192.107 E9.85068
G1 X220.337 Y191.693 E9.87046
G1 X220.574 Y191.292 E9.89023
G1 X220.835 Y190.908 E9.91
G1 X221.048 Y190.633 E9.92476
G1 X221.403 Y190.908 F18000
G1 F3000
G1 X221.466 Y190.826 E9.92917
G1 X221.755 Y190.499 E9.94774
G1 X222.064 Y190.19 E9.96631
G1 X222.392 Y189.901 E9.98489
G1 X222.737 Y189.633 E10.00346
G1 X223.098 Y189.388 E10.02203
G1 X223.474 Y189.165 E10.0406
G1 X223.863 Y188.967 E10.05918
G1 X224.264 Y188.793 E10.07775
G1 X224.675 Y188.645 E10.09632
G1 X225.095 Y188.524 E10.11489
G1 X225.521 Y188.428 E10.13346
G1 X225.953 Y188.36 E10.15204
G1 X226.387 Y188.319 E10.17061
G1 X226.824 Y188.305 E10.18918
G1 X227.261 Y188.319 E10.20775
G1 X227.696 Y188.36 E10.22632
G1 X228.127 Y188.428 E10.2449
G1 X228.554 Y188.524 E10.26347
G1 X228.973 Y188.645 E10.28204
G1 X229.384 Y188.793 E10.30062
G1 X229.785 Y188.967 E10.31918
G1 X230.174 Y189.165 E10.33776
G1 X230.55 Y189.388 E10.35633
G1 X230.912 Y189.633 E10.3749
G1 X231.257 Y189.901 E10.39348
G1 X231.584 Y190.19 E10.41205
G1 X231.893 Y190.499 E10.43062
G1 X232.182 Y190.826 E10.44919
G1 X232.45 Y191.172 E10.46776
G1 X232.696 Y191.533 E10.48634
G1 X232.918 Y191.909 E10.50491
G1 X233.116 Y192.298 E10.52348
G1 X233.29 Y192.699 E10.54205
G1 X233.438 Y193.11 E10.56063
G1 X233.56 Y193.53 E10.5792
G1 X233.655 Y193.956 E10.59777
G1 X233.723 Y194.387 E10.61634
G1 X233.764 Y194.822 E10.63491
G1 X233.778 Y195.259 E10.65349
G1 X233.764 Y195.696 E10.67206
G1 X233.723 Y196.13 E10.69063
G1 X233.655 Y196.562 E10.7092
G1 X233.56 Y196.988 E10.72778
G1 X233.438 Y197.408 E10.74635
G1 X233.29 Y197.819 E10.76492
G1 X233.116 Y198.22 E10.78349
G1 X232.918 Y198.609 E10.80206
G1 X232.696 Y198.985 E10.82064
G1 X232.45 Y199.346 E10.83921
G1 X232.182 Y199.692 E10.85778
G1 X231.893 Y200.019 E10.87635
G1 X231.584 Y200.328 E10.89492
G1 X231.257 Y200.617 E10.9135
G1 X230.912 Y200.885 E10.93207
G1 X230.55 Y201.13 E10.95064
G1 X230.174 Y201.353 E10.96921
G1 X229.785 Y201.551 E10.98779
G1 X229.384 Y201.724 E11.00636
G1 X228.973 Y201.872 E11.02493
G1 X228.554 Y201.994 E11.0435
G1 X228.127 Y202.09 E11.06207
G1 X227.696 Y202.158 E11.08065
G1 X227.261 Y202.199 E11.09922
G1 X226.918 Y202.21 E11.11382
G1 X226.859 Y202.058 E11.12071
G1 X225.703 Y199.754 E11.23031
G1 X225.599 Y199.59 E11.23858
G1 X222.599 Y195.707 E11.44719
G1 X222.417 Y195.525 E11.45815
G1 X220.051 Y193.697 E11.58525
G1 X220.211 Y193.11 E11.61109
G1 X220.359 Y192.699 E11.62967
G1 X220.532 Y192.298 E11.64824
G1 X220.73 Y191.909 E11.66681
G1 X220.953 Y191.533 E11.68538
G1 X221.198 Y191.172 E11.70396
G1 X221.378 Y190.94 E11.71642
G1 X221.732 Y191.215 F18000
G1 F3000
G1 X221.812 Y191.112 E11.72193
G1 X222.082 Y190.806 E11.7393
G1 X222.371 Y190.517 E11.75667
G1 X222.678 Y190.247 E11.77405
G1 X223 Y189.996 E11.79142
G1 X223.339 Y189.766 E11.8088
G1 X223.69 Y189.558 E11.82617
G1 X224.054 Y189.373 E11.84355
G1 X224.429 Y189.211 E11.86092
G1 X224.814 Y189.072 E11.87829
G1 X225.206 Y188.958 E11.89566
G1 X225.605 Y188.869 E11.91304
G1 X226.009 Y188.805 E11.93041
G1 X226.416 Y188.767 E11.94779
G1 X226.824 Y188.754 E11.96516
G1 X227.233 Y188.767 E11.98254
G1 X227.639 Y188.805 E11.99991
G1 X228.043 Y188.869 E12.01728
G1 X228.442 Y188.958 E12.03466
G1 X228.834 Y189.072 E12.05203
G1 X229.219 Y189.211 E12.06941
G1 X229.594 Y189.373 E12.08678
G1 X229.958 Y189.558 E12.10415
G1 X230.31 Y189.766 E12.12152
G1 X230.648 Y189.996 E12.1389
G1 X230.971 Y190.247 E12.15627
G1 X231.277 Y190.517 E12.17365
G1 X231.566 Y190.806 E12.19102
G1 X231.836 Y191.112 E12.20839
G1 X232.087 Y191.435 E12.22577
G1 X232.317 Y191.773 E12.24314
G1 X232.525 Y192.125 E12.26051
G1 X232.71 Y192.489 E12.27789
G1 X232.872 Y192.864 E12.29526
G1 X233.011 Y193.249 E12.31264
G1 X233.125 Y193.641 E12.33001
G1 X233.214 Y194.04 E12.34738
G1 X233.278 Y194.444 E12.36476
G1 X233.316 Y194.85 E12.38213
G1 X233.329 Y195.259 E12.39951
G1 X233.316 Y195.667 E12.41688
G1 X233.278 Y196.074 E12.43425
G1 X233.214 Y196.478 E12.45163
G1 X233.125 Y196.877 E12.469
G1 X233.011 Y197.269 E12.48637
G1 X232.872 Y197.654 E12.50375
G1 X232.71 Y198.029 E12.52112
G1 X232.525 Y198.393 E12.5385
G1 X232.317 Y198.745 E12.55587
G1 X232.087 Y199.083 E12.57324
G1 X231.836 Y199.406 E12.59062
G1 X231.566 Y199.712 E12.60799
G1 X231.277 Y200.001 E12.62536
G1 X230.971 Y200.271 E12.64274
G1 X230.648 Y200.522 E12.66011
G1 X230.31 Y200.751 E12.67749
G1 X229.958 Y200.959 E12.69486
G1 X229.594 Y201.145 E12.71224
G1 X229.219 Y201.307 E12.72961
G1 X228.834 Y201.446 E12.74698
G1 X228.442 Y201.56 E12.76435
G1 X228.043 Y201.649 E12.78173
G1 X227.639 Y201.713 E12.7991
G1 X227.208 Y201.754 E12.81752
G1 X226.094 Y199.534 E12.9231
G1 X225.968 Y199.333 E12.93321
G1 X222.937 Y195.41 E13.14396
G1 X222.714 Y195.187 E13.15735
G1 X220.558 Y193.522 E13.27317
G1 X220.776 Y192.864 E13.30261
G1 X220.938 Y192.489 E13.31998
G1 X221.124 Y192.125 E13.33736
G1 X221.332 Y191.773 E13.35473
