; HEADER_BLOCK_START
; generated by AnycubicSlicerNext 1.1.1 on 2025-12-16 at 18:59:24
; total layer number: 206
; filament_density: 1.24
; filament_diameter: 1.75
; max_z_height: 41.44
; HEADER_BLOCK_END

; THUMBNAIL_BLOCK_START

;
; THUMBNAIL_BLOCK_END

; external perimeters extrusion width = 0.42mm
; perimeters extrusion width = 0.45mm
; infill extrusion width = 0.45mm
; solid infill extrusion width = 0.42mm
; top infill extrusion width = 0.42mm
; first layer extrusion width = 0.50mm

; EXECUTABLE_BLOCK_START
;TYPE:Custom
G90 ; use absolute coordinates
M83 ; extruder relative mode
M140 S60 ; set bed temp
M190 S60 ; wait for bed temp
M104 S220 ; set extruder temp
M109 S220 ; wait for extruder temp
G28                                        ; move X/Y/Z to min endstops
G1 Z0.28                                   ; lift nozzle a bit 
G92 E0 
G1 Y3 F2400                                    ; zero the extruded length 
G1 X180  E40 F500                       ; Extrude 25mm of filament in a 5cm line. 
G92 E0                                     ; zero the extruded length again 
G1 E-2 F3000                                ; Retract a little 
G1 X181 F4000                              ; Quickly wipe away from the filament line
M117
M900 K0.07
G90
G21
M82 ; use absolute distances for extrusion
G92 E0
; filament start gcode
M106 S0
;LAYER_CHANGE
;Z:0.24
;HEIGHT:0.24
G1 E-1.5 F1800
G92 E0
; layer num/total_layer_count: 1/207
; update layer progress
M991 S0 P0 ;notify layer change
;_SET_FAN_SPEED_CHANGING_LAYER
SET_VELOCITY_LIMIT ACCEL=5000 ACCEL_TO_DECEL=2500
; printing object XY-Chromosome-Clean.stl id:4484374790018250386 copy 0
G1 X218.645 Y221.201 F18000
G1 Z.24
G1 E1.5 F1800
;TYPE:Inner wall
;WIDTH:0.5
G1 F3600
G1 X217.14 Y222.218 E1.57721
G1 X215.507 Y223.038 E1.65491
G1 X213.762 Y223.644 E1.73346
G1 X211.921 Y224.02 E1.81333
G1 X210 Y224.15 E1.89518
G1 X208.079 Y224.02 E1.97703
G1 X206.238 Y223.644 E2.0569
G1 X204.493 Y223.038 E2.13544
G1 X202.86 Y222.218 E2.21314
G1 X201.355 Y221.201 E2.29035
G1 X199.995 Y220.005 E2.36735
G1 X198.799 Y218.645 E2.44434
G1 X197.782 Y217.14 E2.52155
G1 X196.962 Y215.507 E2.59925
G1 X196.356 Y213.762 E2.67779
G1 X195.98 Y211.921 E2.75766
G1 X195.85 Y210 E2.83951
G1 X195.98 Y208.079 E2.92136
G1 X196.356 Y206.238 E3.00123
G1 X196.962 Y204.493 E3.07978
G1 X197.782 Y202.86 E3.15748
G1 X198.799 Y201.355 E3.23469
G1 X199.995 Y199.995 E3.31168
G1 X201.355 Y198.799 E3.38868
G1 X202.86 Y197.782 E3.46589
G1 X204.493 Y196.962 E3.54359
G1 X206.238 Y196.356 E3.62213
G1 X208.078 Y195.98 E3.70196
G1 X210.037 Y195.853 E3.78541
G1 X211.921 Y195.98 E3.86569
G1 X213.762 Y196.356 E3.94556
G1 X215.507 Y196.962 E4.0241
G1 X217.14 Y197.782 E4.1018
G1 X218.645 Y198.799 E4.17901
G1 X220.005 Y199.995 E4.25601
G1 X221.201 Y201.355 E4.333
G1 X222.218 Y202.86 E4.41021
G1 X223.038 Y204.493 E4.48791
G1 X223.644 Y206.238 E4.56646
G1 X224.02 Y208.079 E4.64632
G1 X224.15 Y210 E4.72818
G1 X224.02 Y211.921 E4.81003
G1 X223.644 Y213.762 E4.8899
G1 X223.038 Y215.507 E4.96844
G1 X222.218 Y217.14 E5.04614
G1 X221.201 Y218.645 E5.12335
G1 X220.005 Y220.005 E5.20034
G1 X218.645 Y221.201 E5.27734
G1 X218.92 Y221.557 F18000
;TYPE:Outer wall
G1 F3600
G1 X217.367 Y222.606 E5.357
G1 X215.682 Y223.452 E5.43718
G1 X213.881 Y224.077 E5.51824
G1 X211.981 Y224.466 E5.60066
G1 X210 Y224.599 E5.68508
G1 X208.019 Y224.466 E5.76949
G1 X206.119 Y224.077 E5.85191
G1 X204.318 Y223.452 E5.93297
G1 X202.633 Y222.606 E6.01315
G1 X201.08 Y221.557 E6.09282
G1 X199.678 Y220.322 E6.17224
G1 X198.443 Y218.92 E6.25167
G1 X197.394 Y217.367 E6.33133
G1 X196.548 Y215.682 E6.41151
G1 X195.923 Y213.881 E6.49257
G1 X195.534 Y211.981 E6.57499
G1 X195.401 Y210 E6.65941
G1 X195.534 Y208.019 E6.74382
G1 X195.923 Y206.119 E6.82625
G1 X196.548 Y204.318 E6.9073
G1 X197.394 Y202.633 E6.98748
G1 X198.443 Y201.08 E7.06715
G1 X199.678 Y199.678 E7.14657
G1 X201.08 Y198.443 E7.226
G1 X202.633 Y197.394 E7.30566
G1 X204.318 Y196.548 E7.38584
G1 X206.119 Y195.923 E7.4669
G1 X208.019 Y195.534 E7.54931
G1 X210.037 Y195.403 E7.63532
G1 X211.981 Y195.534 E7.71814
G1 X213.881 Y195.923 E7.80056
G1 X215.682 Y196.548 E7.88162
G1 X217.367 Y197.394 E7.9618
G1 X218.92 Y198.443 E8.04146
G1 X220.322 Y199.678 E8.12089
G1 X221.557 Y201.08 E8.20031
G1 X222.606 Y202.633 E8.27998
G1 X223.452 Y204.318 E8.36016
G1 X224.077 Y206.119 E8.44122
G1 X224.466 Y208.019 E8.52364
G1 X224.599 Y210 E8.60805
G1 X224.466 Y211.981 E8.69247
G1 X224.077 Y213.881 E8.77489
G1 X223.452 Y215.682 E8.85595
G1 X222.606 Y217.367 E8.93613
G1 X221.557 Y218.92 E9.01579
G1 X220.322 Y220.322 E9.09522
G1 X218.92 Y221.557 E9.17465
G1 E8.17465 F1800
;WIPE_START
G1 F3600
G1 X218.091 Y222.116 E7.67465
;WIPE_END
G92 E0
G1 X221.359 Y201.829 F18000
G1 E1.5 F1800
;TYPE:Bottom surface
;WIDTH:0.504283
G1 F3600
G1 X219.746 Y200.216 E1.59794
G1 X218.439 Y199.066 E1.67265
G1 X216.955 Y198.066 E1.74943
G1 X221.934 Y203.045 E2.05162
G1 X222.579 Y204.33 E2.11336
G1 X215.67 Y197.421 E2.53274
G1 X215.375 Y197.273 E2.54688
G1 X214.619 Y197.01 E2.58126
G1 X222.99 Y205.381 E3.08936
G1 X223.325 Y206.356 E3.13361
G1 X213.644 Y196.675 E3.72122
G1 X212.839 Y196.511 E3.75647
G1 X223.489 Y207.161 E4.40292
G1 X223.654 Y207.966 E4.43818
G1 X212.034 Y196.346 E5.14346
G1 X211.876 Y196.314 E5.1504
G1 X211.324 Y196.277 E5.17412
G1 X223.723 Y208.676 E5.92671
G1 X223.77 Y209.362 E5.95624
G1 X210.638 Y196.23 E6.7533
G1 X209.962 Y196.195 E6.78236
G1 X223.81 Y210.043 E7.62288
G1 X223.769 Y210.643 E7.64869
G1 X209.36 Y196.234 E8.52326
G1 X208.759 Y196.273 E8.54912
G1 X223.729 Y211.243 E9.45774
G1 X223.688 Y211.842 E9.48355
G1 X208.158 Y196.312 E10.42622
G1 X207.622 Y196.416 E10.44965
G1 X223.584 Y212.378 E11.41846
G1 X223.475 Y212.91 E11.44175
G1 X207.09 Y196.525 E12.43624
G1 X206.559 Y196.634 E12.45953
G1 X223.366 Y213.441 E13.4797
G1 X223.319 Y213.672 E13.48982
G1 X223.226 Y213.941 E13.50203
G1 X206.059 Y196.774 E14.54399
G1 X205.584 Y196.94 E14.56558
G1 X223.06 Y214.416 E15.62636
G1 X222.895 Y214.891 E15.64796
G1 X205.109 Y197.105 E16.72756
G1 X204.633 Y197.27 E16.74915
G1 X222.73 Y215.367 E17.84758
G1 X222.517 Y215.794 E17.86807
G1 X204.206 Y197.483 E18.9795
G1 X203.78 Y197.697 E18.99997
G1 X222.303 Y216.22 E20.12429
G1 X222.089 Y216.646 E20.14476
G1 X203.354 Y197.911 E21.28197
G1 X202.938 Y198.135 E21.30225
G1 X221.865 Y217.062 E22.45105
G1 X221.606 Y217.444 E22.47084
G1 X202.556 Y198.394 E23.62717
G1 X202.174 Y198.652 E23.64696
G1 X221.348 Y217.826 E24.81082
G1 X221.09 Y218.209 E24.83061
G1 X201.791 Y198.91 E26.00199
G1 X201.561 Y199.066 E26.01392
G1 X201.426 Y199.185 E26.02165
G1 X220.815 Y218.574 E27.19855
G1 X220.516 Y218.915 E27.21803
G1 X201.085 Y199.484 E28.3974
G1 X200.745 Y199.784 E28.41687
G1 X220.216 Y219.255 E29.59872
G1 X219.916 Y219.596 E29.6182
G1 X200.404 Y200.084 E30.80252
G1 X200.234 Y200.234 E30.81226
G1 X200.084 Y200.404 E30.82199
G1 X219.596 Y219.916 E32.00632
G1 X219.255 Y220.216 E32.02579
G1 X199.784 Y200.745 E33.20764
G1 X199.484 Y201.085 E33.22711
G1 X218.915 Y220.516 E34.40649
G1 X218.574 Y220.815 E34.42596
G1 X199.185 Y201.426 E35.60286
G1 X199.066 Y201.561 E35.61059
G1 X198.91 Y201.791 E35.62253
G1 X218.209 Y221.09 E36.7939
G1 X217.826 Y221.348 E36.8137
G1 X198.652 Y202.174 E37.97755
G1 X198.394 Y202.556 E37.99734
G1 X217.444 Y221.606 E39.15367
G1 X217.062 Y221.865 E39.17346
G1 X198.135 Y202.938 E40.32226
G1 X197.911 Y203.354 E40.34254
G1 X216.646 Y222.089 E41.47974
G1 X216.22 Y222.303 E41.50022
G1 X197.697 Y203.78 E42.62453
G1 X197.483 Y204.206 E42.64501
G1 X215.794 Y222.517 E43.75643
G1 X215.366 Y222.73 E43.77692
G1 X197.27 Y204.634 E44.87535
G1 X197.105 Y205.109 E44.89694
G1 X214.891 Y222.895 E45.97654
G1 X214.416 Y223.061 E45.99813
G1 X196.939 Y205.584 E47.05892
G1 X196.774 Y206.059 E47.08051
G1 X213.941 Y223.226 E48.12247
G1 X213.672 Y223.319 E48.13467
G1 X213.441 Y223.366 E48.1448
G1 X196.634 Y206.559 E49.16496
G1 X196.525 Y207.091 E49.18825
G1 X212.909 Y223.475 E50.18273
G1 X212.378 Y223.584 E50.20602
G1 X196.416 Y207.622 E51.17483
G1 X196.312 Y208.158 E51.19825
G1 X211.842 Y223.688 E52.14093
G1 X211.242 Y223.729 E52.16674
G1 X196.271 Y208.758 E53.07545
G1 X196.231 Y209.358 E53.10126
G1 X210.642 Y223.769 E53.97601
G1 X210.043 Y223.81 E54.00182
G1 X196.19 Y209.957 E54.84261
G1 X196.23 Y210.638 E54.87186
G1 X209.362 Y223.77 E55.66892
G1 X208.676 Y223.723 E55.69845
G1 X196.277 Y211.324 E56.45103
G1 X196.314 Y211.876 E56.47475
G1 X196.346 Y212.034 E56.48169
G1 X207.966 Y223.654 E57.18697
G1 X207.161 Y223.489 E57.22222
G1 X196.511 Y212.839 E57.86866
G1 X196.675 Y213.644 E57.90392
G1 X206.356 Y223.325 E58.49151
G1 X205.381 Y222.99 E58.53576
G1 X197.01 Y214.619 E59.04385
G1 X197.273 Y215.375 E59.07822
G1 X197.421 Y215.67 E59.09237
G1 X204.33 Y222.579 E59.51174
G1 X203.044 Y221.934 E59.57348
G1 X198.066 Y216.956 E59.87565
G1 X199.066 Y218.439 E59.95242
G1 X200.216 Y219.746 E60.02718
G1 X201.829 Y221.359 E60.12506
G1 E59.12506 F1800
;WIPE_START
G1 F3600
G1 X201.122 Y220.652 E58.62506
;WIPE_END
G92 E0
G1 X197.98 Y216.738 F18000
G1 E1.5 F1800
;TYPE:Gap infill
;WIDTH:0.259217
G1 F3600
G1 X197.879 Y216.598 E1.50341
;WIDTH:0.215247
G1 X197.777 Y216.457 E1.5061
;WIDTH:0.171278
G1 X197.676 Y216.317 E1.50807
;WIDTH:0.149293
G1 X197.575 Y216.176 E1.50968
G1 E.09635 F1800
;WIPE_START
G1 F3600
G1 X197.676 Y216.317 E.00968
;WIPE_END
G92 E0
G1 X202.286 Y221.53 F18000
G1 E1.5 F1800
;WIDTH:0.122385
G1 F3600
G1 X202.114 Y221.388 E1.5015
;WIDTH:0.139445
G1 X201.942 Y221.246 E1.50335
G1 E.11474 F1800
;WIPE_START
G1 F3600
G1 X202.114 Y221.388 E.00335
;WIPE_END
G92 E0
G1 X221.53 Y202.286 F18000
G1 E1.5 F1800
;WIDTH:0.120407
G1 F3600
G1 X221.421 Y202.154 E1.50112
;WIDTH:0.146795
G1 X221.246 Y201.942 E1.5036
G1 E.14066 F1800
;WIPE_START
G1 F3600
G1 X221.421 Y202.154 E.0036
;WIPE_END
G92 E0
G1 X216.738 Y197.98 F18000
G1 E1.5 F1800
;WIDTH:0.259216
G1 F3600
G1 X216.598 Y197.879 E1.50341
;WIDTH:0.215247
G1 X216.457 Y197.777 E1.5061
;WIDTH:0.171278
G1 X216.316 Y197.676 E1.50807
;WIDTH:0.149293
G1 X216.176 Y197.574 E1.50968
; stop printing object XY-Chromosome-Clean.stl id:4484374790018250386 copy 0
M106 S125
;LAYER_CHANGE
;Z:0.44
;HEIGHT:0.2
G1 E.09635 F1800
;WIPE_START
G1 F3600
G1 X216.316 Y197.676 E.00968
;WIPE_END
G92 E0
; layer num/total_layer_count: 2/207
; update layer progress
M991 S0 P1 ;notify layer change
;_SET_FAN_SPEED_CHANGING_LAYER
SET_VELOCITY_LIMIT ACCEL=6000 ACCEL_TO_DECEL=3000
M104 S200 ; set nozzle temperature
M140 S60 ; set bed temperature
; printing object XY-Chromosome-Clean.stl id:4484374790018250386 copy 0
G1 X218.547 Y221.074 Z.44 F18000
G1 E1.5 F1800
;TYPE:Inner wall
;WIDTH:0.45
G1 F8843.478
G1 X217.059 Y222.079 E1.55774
G1 X215.444 Y222.889 E1.61584
G1 X213.719 Y223.489 E1.67456
G1 X211.899 Y223.861 E1.73428
G1 X210 Y223.989 E1.7955
G1 X208.101 Y223.861 E1.85671
G1 X206.281 Y223.489 E1.91643
G1 X204.556 Y222.889 E1.97516
G1 X202.941 Y222.079 E2.03326
G1 X201.453 Y221.074 E2.091
G1 X200.109 Y219.891 E2.14857
G1 X198.926 Y218.547 E2.20615
G1 X197.921 Y217.059 E2.26389
G1 X197.111 Y215.444 E2.32199
G1 X196.511 Y213.719 E2.38072
G1 X196.139 Y211.899 E2.44044
G1 X196.011 Y210 E2.50165
G1 X196.139 Y208.101 E2.56286
G1 X196.511 Y206.281 E2.62259
G1 X197.111 Y204.556 E2.68131
G1 X197.921 Y202.941 E2.73941
G1 X198.926 Y201.453 E2.79715
G1 X200.109 Y200.109 E2.85473
G1 X201.453 Y198.926 E2.9123
G1 X202.941 Y197.921 E2.97004
G1 X204.556 Y197.111 E3.02814
G1 X206.281 Y196.511 E3.08687
G1 X208.101 Y196.139 E3.14659
G1 X210.068 Y196.016 E3.20997
G1 X211.899 Y196.139 E3.269
G1 X213.719 Y196.511 E3.32872
G1 X215.444 Y197.111 E3.38744
G1 X217.059 Y197.921 E3.44554
G1 X218.547 Y198.926 E3.50328
G1 X219.891 Y200.109 E3.56086
G1 X221.074 Y201.453 E3.61843
G1 X222.079 Y202.941 E3.67617
G1 X222.889 Y204.556 E3.73427
G1 X223.489 Y206.281 E3.793
G1 X223.861 Y208.101 E3.85272
G1 X223.989 Y210 E3.91393
G1 X223.861 Y211.899 E3.97515
G1 X223.489 Y213.719 E4.03487
G1 X222.889 Y215.444 E4.0936
G1 X222.079 Y217.059 E4.15169
G1 X221.074 Y218.547 E4.20943
G1 X219.891 Y219.891 E4.26701
G1 X218.547 Y221.074 E4.32459
G1 X218.796 Y221.396 F18000
G1 F8843.478
G1 X217.265 Y222.431 E4.38401
G1 X215.603 Y223.265 E4.44381
G1 X213.827 Y223.882 E4.50426
G1 X211.954 Y224.265 E4.56573
G1 X210 Y224.397 E4.62871
G1 X208.046 Y224.265 E4.69169
G1 X206.173 Y223.882 E4.75316
G1 X204.397 Y223.265 E4.81361
G1 X202.735 Y222.431 E4.87341
G1 X201.204 Y221.396 E4.93283
G1 X199.821 Y220.179 E4.99208
G1 X198.604 Y218.796 E5.05133
G1 X197.569 Y217.265 E5.11075
G1 X196.735 Y215.603 E5.17055
G1 X196.118 Y213.827 E5.231
G1 X195.735 Y211.954 E5.29248
G1 X195.603 Y210 E5.35545
G1 X195.735 Y208.046 E5.41843
G1 X196.118 Y206.173 E5.4799
G1 X196.735 Y204.397 E5.54036
G1 X197.569 Y202.735 E5.60016
G1 X198.604 Y201.204 E5.65958
G1 X199.821 Y199.821 E5.71882
G1 X201.204 Y198.604 E5.77807
G1 X202.735 Y197.569 E5.83749
G1 X204.397 Y196.735 E5.89729
G1 X206.173 Y196.118 E5.95775
G1 X208.046 Y195.735 E6.01922
G1 X210 Y195.603 E6.0822
G1 X210.095 Y195.61 E6.08526
G1 X211.954 Y195.735 E6.14517
G1 X213.827 Y196.118 E6.20664
G1 X215.603 Y196.735 E6.2671
G1 X217.265 Y197.569 E6.3269
G1 X218.796 Y198.604 E6.38632
G1 X220.179 Y199.821 E6.44557
G1 X221.396 Y201.204 E6.50481
G1 X222.431 Y202.735 E6.56423
G1 X223.265 Y204.397 E6.62403
G1 X223.882 Y206.173 E6.68449
G1 X224.265 Y208.046 E6.74596
G1 X224.397 Y210 E6.80894
G1 X224.265 Y211.954 E6.87191
G1 X223.882 Y213.827 E6.93339
G1 X223.265 Y215.603 E6.99384
G1 X222.431 Y217.265 E7.05364
G1 X221.396 Y218.796 E7.11306
G1 X220.179 Y220.179 E7.17231
G1 X218.796 Y221.396 E7.23156
G1 X219.035 Y221.708 F18000
SET_VELOCITY_LIMIT ACCEL=3000 ACCEL_TO_DECEL=1500
;TYPE:Outer wall
;WIDTH:0.42
G1 F7200
G1 X217.463 Y222.77 E7.28805
G1 X215.756 Y223.627 E7.34496
G1 X213.931 Y224.261 E7.4025
G1 X212.007 Y224.654 E7.461
G1 X210 Y224.79 E7.52091
G1 X207.993 Y224.654 E7.58082
G1 X206.069 Y224.261 E7.63932
G1 X204.244 Y223.627 E7.69686
G1 X202.537 Y222.77 E7.75378
G1 X200.964 Y221.707 E7.81032
G1 X199.543 Y220.457 E7.86669
G1 X198.293 Y219.036 E7.92306
G1 X197.23 Y217.463 E7.9796
G1 X196.373 Y215.756 E8.03652
G1 X195.739 Y213.931 E8.09406
G1 X195.346 Y212.007 E8.15256
G1 X195.21 Y210 E8.21247
G1 X195.346 Y207.993 E8.27238
G1 X195.739 Y206.069 E8.33088
G1 X196.373 Y204.244 E8.38842
G1 X197.23 Y202.537 E8.44533
G1 X198.293 Y200.964 E8.50188
G1 X199.543 Y199.543 E8.55825
G1 X200.964 Y198.293 E8.61462
G1 X202.537 Y197.23 E8.67116
G1 X204.244 Y196.373 E8.72807
G1 X206.069 Y195.739 E8.78561
G1 X207.993 Y195.346 E8.84412
G1 X210 Y195.21 E8.90402
G1 X210.121 Y195.219 E8.90765
G1 X212.007 Y195.346 E8.96393
G1 X213.931 Y195.739 E9.02244
G1 X215.756 Y196.373 E9.07998
G1 X217.463 Y197.23 E9.13689
G1 X219.036 Y198.293 E9.19343
G1 X220.457 Y199.543 E9.2498
G1 X221.707 Y200.964 E9.30617
G1 X222.77 Y202.537 E9.36272
G1 X223.627 Y204.244 E9.41963
G1 X224.261 Y206.069 E9.47717
G1 X224.654 Y207.993 E9.53567
G1 X224.79 Y210 E9.59558
G1 X224.654 Y212.007 E9.65549
G1 X224.261 Y213.931 E9.71399
G1 X223.627 Y215.756 E9.77153
G1 X222.77 Y217.463 E9.82845
G1 X221.707 Y219.036 E9.88499
G1 X220.457 Y220.457 E9.94136
G1 X219.036 Y221.707 E9.99773
G1 X219.035 Y221.708 E9.99778
G1 E8.74778 F1800
;WIPE_START
G1 F7200
G1 X218.206 Y222.268 E8.49778
;WIPE_END
G92 E0
SET_VELOCITY_LIMIT ACCEL=6000 ACCEL_TO_DECEL=3000
G1 X218.192 Y221.116 F18000
G1 E1.5 F1800
;TYPE:Internal solid infill
;WIDTH:0.422167
G1 F7800
G1 X219.662 Y219.646 E1.56228
G1 X220.81 Y218.342 E1.61429
G1 X221.601 Y217.17 E1.65666
G1 X217.17 Y221.601 E1.84438
G1 X216.89 Y221.791 E1.85451
G1 X215.996 Y222.239 E1.88448
G1 X222.239 Y215.996 E2.149
G1 X222.582 Y215.314 E2.17186
G1 X222.686 Y215.013 E2.18142
G1 X215.013 Y222.686 E2.50653
G1 X214.191 Y222.972 E2.5326
G1 X222.972 Y214.191 E2.90464
G1 X223.167 Y213.63 E2.9224
G1 X223.211 Y213.416 E2.92897
G1 X213.416 Y223.211 E3.34394
G1 X212.742 Y223.348 E3.36455
G1 X223.348 Y212.742 E3.81393
G1 X223.486 Y212.068 E3.83454
G1 X212.067 Y223.486 E4.31831
G1 X211.855 Y223.53 E4.32482
G1 X211.461 Y223.556 E4.33664
G1 X223.556 Y211.461 E4.84906
G1 X223.595 Y210.886 E4.86633
