; HEADER_BLOCK_START
; generated by AnycubicSlicerNext 1.1.1 on 2025-12-08 at 12:36:22
; total layer number: 5
; filament_density: 1.24
; filament_diameter: 1.75
; max_z_height: 1.04
; HEADER_BLOCK_END

; THUMBNAIL_BLOCK_START

;
; THUMBNAIL_BLOCK_END

; external perimeters extrusion width = 0.42mm
; perimeters extrusion width = 0.45mm
; infill extrusion width = 0.45mm
; solid infill extrusion width = 0.42mm
; top infill extrusion width = 0.42mm
; first layer extrusion width = 0.50mm

; EXECUTABLE_BLOCK_START
;TYPE:Custom
G90 ; use absolute coordinates
M83 ; extruder relative mode
M140 S60 ; set bed temp
M190 S60 ; wait for bed temp
M104 S220 ; set extruder temp
M109 S220 ; wait for extruder temp
G28                                        ; move X/Y/Z to min endstops
G1 Z0.28                                   ; lift nozzle a bit 
G92 E0 
G1 Y3 F2400                                    ; zero the extruded length 
G1 X180  E40 F500                       ; Extrude 25mm of filament in a 5cm line. 
G92 E0                                     ; zero the extruded length again 
G1 E-2 F3000                                ; Retract a little 
G1 X181 F4000                              ; Quickly wipe away from the filament line
M117
M900 K0.07
G90
G21
M82 ; use absolute distances for extrusion
G92 E0
; filament start gcode
M106 S0
;LAYER_CHANGE
;Z:0.24
;HEIGHT:0.24
G1 E-1.5 F1800
G92 E0
; layer num/total_layer_count: 1/5
; update layer progress
M991 S0 P0 ;notify layer change
;_SET_FAN_SPEED_CHANGING_LAYER
SET_VELOCITY_LIMIT ACCEL=5000 ACCEL_TO_DECEL=2500
; printing object Unterlegscheibe-v2.stl id:2292708642560 copy 0
G1 X193.735 Y228.147 F18000
G1 Z.24
G1 E1.5 F1800
;TYPE:Inner wall
;WIDTH:0.5
G1 F3600
G1 X193.728 Y228.146 E1.50028
G1 X192.259 Y227.771 E1.56475
G1 X190.031 Y227.061 E1.66419
G1 X189.362 Y226.797 E1.69474
G1 X187.979 Y226.193 E1.7589
G1 X186.495 Y225.448 E1.82948
G1 X185.911 Y225.118 E1.85799
G1 X184.117 Y224.026 E1.94729
G1 X183.604 Y223.675 E1.9737
G1 X181.597 Y222.122 E2.08163
G1 X181.032 Y221.662 E2.11259
G1 X180.592 Y221.264 E2.13779
G1 X180.135 Y220.797 E2.16559
G1 X178.865 Y219.572 E2.24058
G1 X176.977 Y217.288 E2.36658
G1 X176.688 Y216.883 E2.38774
G1 X175.51 Y215.109 E2.47827
G1 X174.648 Y213.611 E2.55175
G1 X173.981 Y212.291 E2.61461
G1 X173.346 Y210.848 E2.68163
G1 X172.907 Y209.719 E2.73316
G1 X172.503 Y208.487 E2.78828
G1 X171.966 Y206.484 E2.87641
G1 X171.565 Y204.44 E2.96496
G1 X171.333 Y202.328 E3.05531
G1 X171.238 Y200.498 E3.13323
G1 X171.263 Y198.655 E3.21159
G1 X171.363 Y197.275 E3.27038
G1 X171.502 Y195.964 E3.32644
G1 X171.662 Y195.013 E3.36743
G1 X171.937 Y193.596 E3.4288
G1 X172.415 Y191.745 E3.51006
G1 X172.547 Y191.313 E3.52928
G1 X173.193 Y189.463 E3.61261
G1 X173.412 Y188.909 E3.63792
G1 X174.15 Y187.289 E3.71362
G1 X175.077 Y185.549 E3.79741
G1 X176.004 Y184.067 E3.87175
G1 X177.125 Y182.465 E3.95485
G1 X177.575 Y181.895 E3.98572
G1 X178.153 Y181.235 E4.02303
G1 X178.582 Y180.696 E4.05232
G1 X180.034 Y179.187 E4.14132
G1 X181.185 Y178.155 E4.20706
G1 X182.437 Y177.119 E4.27616
G1 X183.067 Y176.634 E4.30996
G1 X184.49 Y175.672 E4.38297
G1 X185.695 Y174.926 E4.44324
G1 X187.758 Y173.843 E4.54229
G1 X188.135 Y173.669 E4.55994
G1 X190.368 Y172.775 E4.66218
G1 X191.47 Y172.399 E4.71169
G1 X193.28 Y171.897 E4.79155
G1 X194.862 Y171.561 E4.86029
G1 X195.545 Y171.476 E4.88956
G1 X196.898 Y171.26 E4.94782
G1 X199.359 Y171.087 E5.05272
G1 X201.729 Y171.123 E5.15348
G1 X203.701 Y171.297 E5.23762
G1 X205.491 Y171.58 E5.3147
G1 X207.092 Y171.93 E5.38434
G1 X208.445 Y172.309 E5.44408
G1 X209.086 Y172.504 E5.47258
G1 X209.831 Y172.781 E5.50635
G1 X210.52 Y173.01 E5.53722
G1 X211.903 Y173.594 E5.60105
G1 X213.163 Y174.188 E5.66027
G1 X214.597 Y174.97 E5.72974
G1 X216.232 Y175.995 E5.81176
G1 X217.554 Y176.931 E5.88064
G1 X218.825 Y177.95 E5.94986
G1 X219.867 Y178.888 E6.0095
G1 X221.417 Y180.458 E6.10329
G1 X222.431 Y181.625 E6.16899
G1 X223.468 Y182.954 E6.24067
G1 X224.379 Y184.277 E6.30897
G1 X224.693 Y184.779 E6.33412
G1 X225.446 Y186.085 E6.39824
G1 X226.297 Y187.755 E6.4779
G1 X226.919 Y189.165 E6.54344
G1 X227.706 Y191.356 E6.64241
G1 X228.255 Y193.403 E6.73251
G1 X228.357 Y193.87 E6.75283
G1 X228.724 Y195.957 E6.84293
G1 X228.93 Y197.969 E6.92891
G1 X228.976 Y198.721 E6.9609
G1 X228.992 Y200.406 E7.03257
G1 X228.909 Y202.284 E7.11247
G1 X228.87 Y202.746 E7.13219
G1 X228.602 Y204.756 E7.2184
G1 X228.231 Y206.59 E7.29794
G1 X227.877 Y207.965 E7.3583
G1 X227.628 Y208.778 E7.39448
G1 X227.137 Y210.206 E7.45864
G1 X226.25 Y212.285 E7.55476
G1 X225.688 Y213.399 E7.60778
G1 X224.885 Y214.843 E7.67804
G1 X223.86 Y216.425 E7.75819
G1 X222.97 Y217.624 E7.82164
G1 X222.044 Y218.777 E7.88453
G1 X220.416 Y220.519 E7.98591
G1 X218.707 Y222.087 E8.08449
G1 X217.732 Y222.877 E8.13784
G1 X217.21 Y223.27 E8.16563
G1 X216.307 Y223.893 E8.21225
G1 X214.761 Y224.883 E8.2903
G1 X212.438 Y226.111 E8.40204
G1 X211.999 Y226.309 E8.42252
G1 X210.346 Y226.996 E8.49862
G1 X208.933 Y227.477 E8.56205
G1 X207.236 Y227.967 E8.63716
G1 X205.105 Y228.416 E8.72975
G1 X204.704 Y228.481 E8.74699
G1 X202.451 Y228.755 E8.84349
G1 X200.423 Y228.857 E8.92982
G1 X198.739 Y228.816 E9.00143
G1 X198.128 Y228.741 E9.0276
G1 X196.759 Y228.659 E9.08592
G1 X194.834 Y228.368 E9.16869
G1 X194.296 Y228.273 E9.19191
G1 X193.735 Y228.147 E9.21636
G1 X193.833 Y227.71 F18000
;TYPE:Outer wall
G1 F3600
G1 X192.383 Y227.34 E9.27998
G1 X190.181 Y226.638 E9.37821
G1 X189.534 Y226.383 E9.40778
G1 X188.17 Y225.787 E9.47109
G1 X186.706 Y225.052 E9.5407
G1 X186.138 Y224.731 E9.56843
G1 X184.36 Y223.65 E9.65691
G1 X183.869 Y223.313 E9.68225
G1 X181.876 Y221.77 E9.78938
G1 X181.324 Y221.321 E9.81962
G1 X180.903 Y220.941 E9.84375
G1 X180.451 Y220.479 E9.87123
G1 X179.195 Y219.267 E9.94543
G1 X177.333 Y217.014 E10.06969
G1 X177.057 Y216.628 E10.08984
G1 X175.891 Y214.873 E10.17943
G1 X175.043 Y213.398 E10.25179
G1 X174.386 Y212.1 E10.31362
G1 X173.761 Y210.677 E10.37971
G1 X173.329 Y209.567 E10.43032
G1 X172.933 Y208.359 E10.4844
G1 X172.403 Y206.383 E10.57135
G1 X172.009 Y204.373 E10.65844
G1 X171.781 Y202.292 E10.74744
G1 X171.686 Y200.489 E10.8242
G1 X171.711 Y198.674 E10.90136
G1 X171.81 Y197.315 E10.95927
G1 X171.947 Y196.025 E11.01444
G1 X172.103 Y195.093 E11.05462
G1 X172.374 Y193.695 E11.11516
G1 X172.846 Y191.867 E11.19541
G1 X172.973 Y191.453 E11.21385
G1 X173.614 Y189.619 E11.29642
G1 X173.825 Y189.084 E11.32086
G1 X174.553 Y187.486 E11.39551
G1 X175.463 Y185.777 E11.47784
G1 X176.379 Y184.315 E11.55119
G1 X177.485 Y182.733 E11.63324
G1 X177.92 Y182.182 E11.66308
G1 X178.498 Y181.523 E11.70036
G1 X178.92 Y180.992 E11.7292
G1 X180.345 Y179.51 E11.8166
G1 X181.478 Y178.495 E11.88126
G1 X182.717 Y177.469 E11.94965
G1 X183.33 Y176.998 E11.98252
G1 X184.734 Y176.049 E12.05456
G1 X185.918 Y175.316 E12.11377
G1 X187.957 Y174.246 E12.21166
G1 X188.313 Y174.081 E12.22833
G1 X190.524 Y173.195 E12.32959
G1 X191.602 Y172.827 E12.37804
G1 X193.386 Y172.332 E12.45676
G1 X194.936 Y172.003 E12.52411
G1 X195.608 Y171.92 E12.55289
G1 X196.949 Y171.706 E12.61063
G1 X199.375 Y171.535 E12.71404
G1 X201.705 Y171.571 E12.8131
G1 X203.646 Y171.742 E12.89592
G1 X205.408 Y172.021 E12.97179
G1 X206.983 Y172.366 E13.04032
G1 X208.319 Y172.74 E13.0993
G1 X208.943 Y172.929 E13.127
G1 X209.682 Y173.204 E13.16053
G1 X210.362 Y173.43 E13.19099
G1 X211.72 Y174.003 E13.25367
G1 X212.96 Y174.588 E13.31194
G1 X214.371 Y175.357 E13.38027
G1 X215.983 Y176.368 E13.46118
G1 X217.284 Y177.29 E13.52896
G1 X218.534 Y178.291 E13.59706
G1 X219.558 Y179.213 E13.6556
G1 X221.088 Y180.763 E13.74821
G1 X222.085 Y181.91 E13.8128
G1 X223.106 Y183.219 E13.88341
G1 X224.004 Y184.524 E13.95073
G1 X224.309 Y185.01 E13.97512
G1 X225.052 Y186.299 E14.03839
G1 X225.891 Y187.948 E14.11704
G1 X226.503 Y189.332 E14.18137
G1 X227.278 Y191.49 E14.27887
G1 X227.819 Y193.509 E14.36773
G1 X227.917 Y193.957 E14.38721
G1 X228.28 Y196.019 E14.47624
G1 X228.483 Y198.006 E14.56114
G1 X228.528 Y198.736 E14.59225
G1 X228.544 Y200.398 E14.66291
G1 X228.461 Y202.255 E14.74192
G1 X228.424 Y202.698 E14.76081
G1 X228.159 Y204.682 E14.84592
G1 X227.794 Y206.489 E14.92431
G1 X227.445 Y207.843 E14.98374
G1 X227.201 Y208.64 E15.01917
G1 X226.718 Y210.044 E15.08232
G1 X225.843 Y212.096 E15.17714
G1 X225.292 Y213.189 E15.22916
G1 X224.5 Y214.612 E15.29839
G1 X223.491 Y216.17 E15.37729
G1 X222.615 Y217.35 E15.43978
G1 X221.705 Y218.483 E15.50159
G1 X220.1 Y220.2 E15.60151
G1 X218.414 Y221.747 E15.69879
G1 X217.456 Y222.524 E15.75121
G1 X216.948 Y222.907 E15.77825
G1 X216.059 Y223.519 E15.82415
G1 X214.535 Y224.495 E15.90109
G1 X212.241 Y225.708 E16.01143
G1 X211.82 Y225.898 E16.03102
G1 X210.187 Y226.577 E16.10622
G1 X208.799 Y227.049 E16.16857
G1 X207.127 Y227.532 E16.24254
G1 X205.022 Y227.975 E16.33399
G1 X204.641 Y228.037 E16.35041
G1 X202.413 Y228.308 E16.44583
G1 X200.417 Y228.408 E16.53079
G1 X198.772 Y228.368 E16.60076
G1 X198.169 Y228.295 E16.62658
G1 X196.806 Y228.213 E16.68463
G1 X194.906 Y227.925 E16.76631
G1 X194.384 Y227.833 E16.78885
G1 X193.833 Y227.71 E16.81288
G1 E15.81288 F1800
;WIPE_START
G1 F3600
G1 X192.864 Y227.462 E15.31288
;WIPE_END
G92 E0
G1 X234.143 Y205.497 F18000
G1 E1.5 F1800
;TYPE:Inner wall
G1 F3600
G1 X233.037 Y210.076 E1.70027
G1 X232.652 Y211.174 E1.74971
G1 X231.633 Y213.86 E1.87186
G1 X231.267 Y214.651 E1.9089
G1 X229.353 Y218.208 E2.08063
G1 X229.07 Y218.665 E2.10347
G1 X227.002 Y221.463 E2.25138
G1 X226.262 Y222.345 E2.30034
G1 X223.944 Y224.813 E2.4443
G1 X223.385 Y225.359 E2.47752
G1 X222.497 Y226.114 E2.52708
G1 X220.37 Y227.751 E2.64118
G1 X219.244 Y228.547 E2.69978
G1 X217.944 Y229.386 E2.76556
G1 X216.813 Y230.076 E2.82187
G1 X213.986 Y231.47 E2.95588
G1 X212.934 Y231.941 E3.0049
G1 X212.217 Y232.201 E3.03732
G1 X209.053 Y233.182 E3.17814
G1 X207.087 Y233.687 E3.26445
G1 X204.016 Y234.114 E3.39624
G1 X202.019 Y234.351 E3.48177
G1 X200.961 Y234.365 E3.52675
G1 X197.911 Y234.329 E3.65642
G1 X197.004 Y234.253 E3.6951
G1 X194.406 Y233.905 E3.80653
G1 X192.951 Y233.61 E3.86966
G1 X189.657 Y232.792 E4.01394
G1 X189.077 Y232.613 E4.03976
G1 X184.632 Y230.732 E4.24494
G1 X183.513 Y230.099 E4.2996
G1 X180.681 Y228.379 E4.44046
G1 X178.663 Y226.914 E4.54649
G1 X178.186 Y226.521 E4.57276
G1 X177.78 Y226.157 E4.59597
G1 X175.754 Y224.258 E4.714
G1 X175.012 Y223.536 E4.75804
G1 X172.768 Y220.905 E4.90502
G1 X172.417 Y220.471 E4.92875
G1 X170.272 Y217.168 E5.09619
G1 X169.256 Y215.253 E5.18833
G1 X168.748 Y214.237 E5.23666
G1 X167.548 Y211.133 E5.37815
G1 X167.203 Y209.782 E5.43741
G1 X166.455 Y207.255 E5.54945
G1 X165.894 Y203.761 E5.6999
G1 X165.793 Y202.234 E5.76495
G1 X165.717 Y199.238 E5.89239
G1 X165.803 Y197.483 E5.96706
G1 X166.014 Y195.589 E6.04807
G1 X166.244 Y194.104 E6.11198
G1 X166.647 Y191.858 E6.20898
G1 X166.942 Y190.791 E6.25605
G1 X167.853 Y188.007 E6.38059
G1 X168.148 Y187.232 E6.41582
G1 X168.656 Y186.017 E6.47183
G1 X169.959 Y183.304 E6.59979
G1 X170.21 Y182.841 E6.62216
G1 X171.634 Y180.64 E6.73359
G1 X172.677 Y179.189 E6.80959
G1 X173.46 Y178.156 E6.86468
G1 X174.977 Y176.469 E6.96116
G1 X176.031 Y175.351 E7.02648
G1 X178.19 Y173.456 E7.14857
G1 X179.256 Y172.578 E7.20729
G1 X180.349 Y171.787 E7.26466
G1 X183.187 Y169.991 E7.40743
G1 X184.421 Y169.303 E7.46752
G1 X187.681 Y167.87 E7.61889
G1 X188.393 Y167.568 E7.6518
G1 X188.684 Y167.47 E7.66484
G1 X191.909 Y166.532 E7.80761
G1 X193.072 Y166.268 E7.85833
G1 X194.695 Y165.985 E7.92838
G1 X195.76 Y165.823 E7.97416
G1 X197.557 Y165.661 E8.05085
G1 X200.186 Y165.566 E8.16273
G1 X201.18 Y165.547 E8.20498
G1 X202.32 Y165.623 E8.25354
G1 X204.332 Y165.809 E8.33946
G1 X206.223 Y166.124 E8.42097
G1 X207.393 Y166.344 E8.47155
G1 X210.239 Y167.038 E8.5961
G1 X210.818 Y167.242 E8.6222
G1 X213.685 Y168.335 E8.75266
G1 X214.694 Y168.762 E8.79924
G1 X218.772 Y171.021 E8.99744
G1 X219.194 Y171.294 E9.01879
G1 X219.772 Y171.711 E9.0491
G1 X221.616 Y173.083 E9.14679
G1 X223.006 Y174.286 E9.22496
G1 X225.335 Y176.498 E9.36153
G1 X225.546 Y176.729 E9.37481
G1 X227.731 Y179.382 E9.52091
G1 X228.537 Y180.577 E9.58221
G1 X229.647 Y182.353 E9.67122
G1 X230.571 Y183.936 E9.74919
G1 X231.424 Y185.639 E9.83014
G1 X231.757 Y186.36 E9.8639
G1 X232.181 Y187.501 E9.91565
G1 X233.55 Y191.687 E10.1029
G1 X233.823 Y193.06 E10.16241
G1 X234.177 Y195.053 E10.24847
G1 X234.526 Y198.386 E10.39092
G1 X234.423 Y202.262 E10.55577
G1 X234.143 Y205.497 E10.69383
G1 X234.586 Y205.57 F18000
;TYPE:Outer wall
G1 F3600
G1 X233.467 Y210.204 E10.8965
G1 X233.073 Y211.328 E10.94714
G1 X232.047 Y214.034 E11.0702
G1 X231.668 Y214.852 E11.1085
G1 X229.741 Y218.432 E11.28137
G1 X229.442 Y218.917 E11.30557
G1 X227.354 Y221.74 E11.45486
G1 X226.597 Y222.643 E11.50494
G1 X224.264 Y225.127 E11.64985
G1 X223.687 Y225.691 E11.68413
G1 X222.779 Y226.463 E11.73482
G1 X220.636 Y228.112 E11.84977
G1 X219.495 Y228.919 E11.90916
G1 X218.183 Y229.766 E11.97558
G1 X217.03 Y230.469 E12.03299
G1 X214.177 Y231.876 E12.16821
G1 X213.102 Y232.357 E12.21829
G1 X212.36 Y232.626 E12.25185
G1 X209.175 Y233.613 E12.39358
G1 X207.174 Y234.128 E12.48144
G1 X204.074 Y234.559 E12.61451
G1 X202.048 Y234.8 E12.70123
G1 X200.961 Y234.814 E12.74746
G1 X197.889 Y234.777 E12.87804
G1 X196.956 Y234.699 E12.91788
G1 X194.332 Y234.348 E13.03042
G1 X192.852 Y234.048 E13.09461
G1 X189.537 Y233.224 E13.23983
G1 X188.923 Y233.035 E13.26714
G1 X184.434 Y231.135 E13.47439
G1 X183.287 Y230.486 E13.53043
G1 X180.433 Y228.753 E13.67237
G1 X178.389 Y227.269 E13.77976
G1 X177.894 Y226.861 E13.80702
G1 X177.477 Y226.487 E13.83085
G1 X175.445 Y224.582 E13.94926
G1 X174.684 Y223.843 E13.99436
G1 X172.423 Y221.192 E14.14249
G1 X172.054 Y220.735 E14.16746
G1 X169.885 Y217.396 E14.33672
G1 X168.858 Y215.459 E14.42994
G1 X168.337 Y214.419 E14.4794
G1 X167.12 Y211.27 E14.62293
G1 X166.77 Y209.901 E14.68296
G1 X166.017 Y207.355 E14.79587
G1 X165.448 Y203.811 E14.94843
G1 X165.345 Y202.255 E15.01477
G1 X165.268 Y199.232 E15.1433
G1 X165.356 Y197.447 E15.21927
G1 X165.569 Y195.53 E15.30128
G1 X165.801 Y194.03 E15.36582
G1 X166.209 Y191.758 E15.46393
G1 X166.512 Y190.661 E15.51232
G1 X167.43 Y187.857 E15.63777
G1 X167.732 Y187.066 E15.67375
G1 X168.247 Y185.833 E15.73055
G1 X169.559 Y183.099 E15.8595
G1 X169.825 Y182.612 E15.88307
G1 X171.263 Y180.388 E15.99569
G1 X172.316 Y178.922 E16.07241
G1 X173.114 Y177.87 E16.12854
G1 X174.647 Y176.165 E16.22604
G1 X175.72 Y175.028 E16.29249
G1 X177.899 Y173.115 E16.41578
G1 X178.981 Y172.223 E16.47539
G1 X180.097 Y171.415 E16.53395
G1 X182.958 Y169.606 E16.67785
G1 X184.221 Y168.901 E16.73937
G1 X187.503 Y167.458 E16.89176
G1 X188.234 Y167.148 E16.92553
G1 X188.55 Y167.042 E16.9397
G1 X191.796 Y166.098 E17.08342
G1 X192.984 Y165.828 E17.1352
G1 X194.623 Y165.543 E17.20595
G1 X195.706 Y165.378 E17.25251
G1 X197.528 Y165.213 E17.33029
G1 X200.174 Y165.118 E17.44285
G1 X201.191 Y165.098 E17.48607
G1 X202.355 Y165.176 E17.5357
G1 X204.39 Y165.364 E17.62257
G1 X206.302 Y165.683 E17.70497
G1 X207.487 Y165.905 E17.75625
G1 X210.367 Y166.608 E17.88225
G1 X210.972 Y166.821 E17.90955
G1 X213.853 Y167.918 E18.0406
G1 X214.891 Y168.359 E18.08854
G1 X219.003 Y170.636 E18.28837
G1 X219.447 Y170.923 E18.31087
G1 X220.038 Y171.349 E18.34181
G1 X221.897 Y172.733 E18.44034
G1 X223.307 Y173.954 E18.51965
G1 X225.656 Y176.184 E18.65733
G1 X225.885 Y176.435 E18.67177
G1 X228.091 Y179.113 E18.81929
G1 X228.913 Y180.333 E18.88184
G1 X230.031 Y182.121 E18.97146
G1 X230.966 Y183.723 E19.05033
G1 X231.828 Y185.445 E19.1322
G1 X232.171 Y186.187 E19.16699
G1 X232.604 Y187.353 E19.21986
G1 X233.985 Y191.573 E19.40862
G1 X234.264 Y192.977 E19.46947
G1 X234.621 Y194.991 E19.55641
G1 X234.975 Y198.368 E19.70079
G1 X234.871 Y202.287 E19.86747
G1 X234.586 Y205.57 E20.00754
G1 E19.00754 F1800
;WIPE_START
G1 F3600
G1 X234.352 Y206.542 E18.50754
;WIPE_END
G92 E0
G1 X233.578 Y206.465 F18000
G1 E1.5 F1800
;TYPE:Gap infill
;WIDTH:0.190787
G1 F3600
G1 X233.705 Y206.079 E1.50537
G1 X233.727 Y205.893 E1.50784
;WIDTH:0.240946
G1 X233.727 Y205.848 E1.50864
G1 X233.6 Y205.837 E1.51093
G1 X233.751 Y205.686 F18000
