; HEADER_BLOCK_START
; generated by AnycubicSlicerNext 1.1.1 on 2025-12-12 at 04:17:46
; total layer number: 40
; filament_density: 1.24
; filament_diameter: 1.75
; max_z_height: 8.04
; HEADER_BLOCK_END

; THUMBNAIL_BLOCK_START

;
; THUMBNAIL_BLOCK_END

; external perimeters extrusion width = 0.42mm
; perimeters extrusion width = 0.45mm
; infill extrusion width = 0.45mm
; solid infill extrusion width = 0.42mm
; top infill extrusion width = 0.42mm
; first layer extrusion width = 0.50mm

; EXECUTABLE_BLOCK_START
;TYPE:Custom
G90 ; use absolute coordinates
M83 ; extruder relative mode
M140 S60 ; set bed temp
M190 S60 ; wait for bed temp
M104 S220 ; set extruder temp
M109 S220 ; wait for extruder temp
G28                                        ; move X/Y/Z to min endstops
G1 Z0.28                                   ; lift nozzle a bit 
G92 E0 
G1 Y3 F2400                                    ; zero the extruded length 
G1 X180  E40 F500                       ; Extrude 25mm of filament in a 5cm line. 
G92 E0                                     ; zero the extruded length again 
G1 E-2 F3000                                ; Retract a little 
G1 X181 F4000                              ; Quickly wipe away from the filament line
M117
M900 K0.07
G90
G21
M82 ; use absolute distances for extrusion
G92 E0
; filament start gcode
M106 S0
;LAYER_CHANGE
;Z:0.24
;HEIGHT:0.24
G1 E-1.5 F1800
G92 E0
; layer num/total_layer_count: 1/40
; update layer progress
M991 S0 P0 ;notify layer change
;_SET_FAN_SPEED_CHANGING_LAYER
SET_VELOCITY_LIMIT ACCEL=5000 ACCEL_TO_DECEL=2500
; printing object FidgetSwitch-Toggle.stl id:1527467233792 copy 0
G1 X213.515 Y200.659 F18000
G1 Z.24
G1 E1.5 F1800
;TYPE:Inner wall
;WIDTH:0.499999
G1 F2837
G1 X213.486 Y200.772 E1.50496
G1 X213.623 Y201.156 E1.52229
;WIDTH:0.453893
G1 X213.729 Y201.303 E1.52921
;WIDTH:0.456429
G1 X214.018 Y201.736 E1.5492
G1 X214.248 Y202.187 E1.56862
;WIDTH:0.438819
G1 X214.481 Y202.797 E1.59258
;WIDTH:0.454064
G1 X214.614 Y203.322 E1.61326
G1 X214.69 Y204.166 E1.64562
;WIDTH:0.451828
G1 X214.652 Y204.775 E1.66874
;WIDTH:0.453115
G1 X214.526 Y205.391 E1.69269
;WIDTH:0.453314
G1 X214.32 Y205.979 E1.71642
;WIDTH:0.457327
G1 X213.921 Y206.725 E1.74899
G1 X213.434 Y207.338 E1.7791
;WIDTH:0.453834
G1 X212.944 Y207.805 E1.80489
G1 X212.442 Y208.16 E1.82834
;WIDTH:0.45447
G1 X212.005 Y208.404 E1.84747
;WIDTH:0.499999
G1 X211.682 Y208.84 E1.87053
G1 X211.672 Y208.959 E1.87559
G1 X211.672 Y221.997 E2.42991
G1 X211.629 Y222.433 E2.44854
G1 X211.505 Y222.868 E2.46775
G1 X211.27 Y223.23 E2.4861
G1 X210.957 Y223.514 E2.50408
G1 X210.533 Y223.731 E2.52431
G1 X210.149 Y223.806 E2.54097
G1 X209.627 Y223.779 E2.56316
G1 X209.148 Y223.585 E2.58515
G1 X208.792 Y223.3 E2.60452
G1 X208.595 Y223.041 E2.61836
G1 X208.39 Y222.583 E2.63967
G1 X208.328 Y222.105 E2.66017
G1 X208.328 Y208.959 E3.21907
G1 X208.23 Y208.61 E3.23447
;WIDTH:0.498541
G1 X207.974 Y208.388 E3.24883
;WIDTH:0.460703
G1 X207.514 Y208.133 E3.26924
;WIDTH:0.446572
G1 X206.871 Y207.637 E3.29965
;WIDTH:0.455036
G1 X206.427 Y207.191 E3.3237
G1 X206.06 Y206.7 E3.34716
;WIDTH:0.452379
G1 X205.667 Y205.951 E3.37931
;WIDTH:0.452036
G1 X205.466 Y205.364 E3.40288
G1 X205.336 Y204.635 E3.43096
;WIDTH:0.455015
G1 X205.312 Y204.135 E3.45011
G1 X205.391 Y203.287 E3.48271
;WIDTH:0.451219
G1 X205.659 Y202.386 E3.51831
;WIDTH:0.444783
G1 X206.036 Y201.646 E3.54929
;WIDTH:0.456758
G1 X206.378 Y201.157 E3.57222
;WIDTH:0.484731
G1 X206.494 Y200.917 E3.58313
;WIDTH:0.499999
G1 X206.442 Y200.487 E3.60157
G1 X206.156 Y200.152 E3.62028
G1 X210 Y196.309 E3.85139
G1 X213.844 Y200.152 E4.08248
G1 X213.557 Y200.488 E4.10126
G1 X213.515 Y200.659 E4.10873
G1 X213.94 Y200.741 F18000
;TYPE:Outer wall
G1 F2837
G1 X213.974 Y200.916 E4.1163
G1 X214.397 Y201.534 E4.14817
G1 X214.792 Y202.353 E4.18684
G1 X215.018 Y203.174 E4.22302
G1 X215.113 Y204.193 E4.26654
G1 X215.074 Y204.816 E4.29307
G1 X214.942 Y205.488 E4.3222
G1 X214.719 Y206.135 E4.35128
G1 X214.292 Y206.942 E4.39009
G1 X213.884 Y207.486 E4.41898
G1 X213.23 Y208.124 E4.45783
G1 X212.697 Y208.501 E4.48561
G1 X212.235 Y208.763 E4.50817
G1 X212.12 Y208.959 E4.51782
G1 X212.12 Y222.134 E5.07795
G1 X212.048 Y222.691 E5.10181
G1 X211.909 Y223.07 E5.11899
G1 X211.614 Y223.523 E5.14196
G1 X211.214 Y223.886 E5.16493
G1 X210.87 Y224.063 E5.18138
G1 X210.5 Y224.203 E5.19818
G1 X209.93 Y224.269 E5.22261
G1 X209.397 Y224.178 E5.24556
G1 X208.907 Y223.966 E5.26828
G1 X208.479 Y223.623 E5.29161
G1 X208.186 Y223.23 E5.31245
G1 X207.952 Y222.691 E5.33744
G1 X207.88 Y222.134 E5.36131
G1 X207.88 Y209.483 E5.89914
G1 X207.866 Y208.881 E5.92472
G1 X207.783 Y208.774 E5.93049
G1 X207.331 Y208.521 E5.95254
G1 X206.77 Y208.124 E5.98175
G1 X206.116 Y207.486 E6.02059
G1 X205.708 Y206.942 E6.04949
G1 X205.281 Y206.135 E6.0883
G1 X205.058 Y205.488 E6.11741
G1 X204.926 Y204.816 E6.14649
G1 X204.884 Y204.145 E6.17509
G1 X204.967 Y203.228 E6.21425
G1 X205.208 Y202.353 E6.2528
G1 X205.582 Y201.577 E6.28946
G1 X206.061 Y200.832 E6.32709
G1 X206 Y200.63 E6.33606
G1 X205.522 Y200.152 E6.3648
G1 X209.946 Y195.729 E6.63077
G1 X210.114 Y195.789 E6.63838
G1 X214.478 Y200.152 E6.90075
G1 X214 Y200.63 E6.92949
G1 X213.94 Y200.741 E6.93484
G1 E5.93484 F1800
;WIPE_START
G1 F3600
G1 X213.974 Y200.916 E5.84583
G1 X214.397 Y201.534 E5.47097
G1 X214.429 Y201.599 E5.43484
;WIPE_END
G92 E0
G1 X208.285 Y208.085 F18000
G1 E1.5 F1800
;TYPE:Inner wall
G1 F2837
G1 X208.233 Y208.06 E1.50244
;WIDTH:0.465882
G1 X207.769 Y207.83 E1.52278
;WIDTH:0.448642
G1 X207.285 Y207.483 E1.54519
;WIDTH:0.455036
G1 X206.736 Y206.933 E1.57492
G1 X206.407 Y206.5 E1.59572
;WIDTH:0.452379
G1 X206.15 Y206.059 E1.61513
;WIDTH:0.442693
G1 X205.916 Y205.489 E1.63795
;WIDTH:0.451595
G1 X205.743 Y204.698 E1.66869
;WIDTH:0.455015
G1 X205.715 Y204.159 E1.68931
G1 X205.738 Y203.636 E1.70934
;WIDTH:0.444822
G1 X205.958 Y202.694 E1.74542
;WIDTH:0.451553
G1 X206.323 Y201.939 E1.7772
;WIDTH:0.456758
G1 X206.705 Y201.397 E1.80269
;WIDTH:0.484731
G1 X206.896 Y201.152 E1.81543
;WIDTH:0.499999
G1 X207.429 Y200.685 E1.84558
G1 X208.139 Y200.247 E1.88104
G1 X208.828 Y199.989 E1.91232
G1 X209.744 Y199.835 E1.95179
G1 X210.492 Y199.855 E1.98362
G1 X211.397 Y200.059 E2.02306
G1 X212.081 Y200.359 E2.05479
G1 X212.604 Y200.722 E2.08187
G1 X212.94 Y200.98 E2.0999
G1 X213.31 Y201.407 E2.12391
;WIDTH:0.456429
G1 X213.679 Y201.957 E2.14933
G1 X213.893 Y202.34 E2.16618
;WIDTH:0.438819
G1 X214.114 Y202.917 E2.18885
;WIDTH:0.438223
G1 X214.277 Y203.776 E2.2209
;WIDTH:0.442631
G1 X214.277 Y204.567 E2.25022
;WIDTH:0.453115
G1 X214.14 Y205.283 E2.27798
;WIDTH:0.453314
G1 X213.958 Y205.805 E2.29904
G1 X213.736 Y206.27 E2.31866
;WIDTH:0.449159
G1 X213.26 Y206.951 E2.34998
;WIDTH:0.453834
G1 X212.692 Y207.492 E2.37988
G1 X212.232 Y207.817 E2.40138
;WIDTH:0.45447
G1 X211.831 Y208.044 E2.41897
;WIDTH:0.499999
G1 X211.086 Y208.339 E2.45303
G1 X210.347 Y208.464 E2.4849
G1 X209.418 Y208.438 E2.52443
G1 X208.69 Y208.275 E2.55612
G1 X208.285 Y208.085 E2.57517
G1 X208.475 Y207.692 F18000
;TYPE:Outer wall
G1 F2837
G1 X207.989 Y207.469 E2.59789
G1 X207.489 Y207.109 E2.62411
G1 X207.048 Y206.643 E2.65139
G1 X206.767 Y206.274 E2.67108
G1 X206.537 Y205.901 E2.68972
G1 X206.305 Y205.331 E2.71589
G1 X206.16 Y204.615 E2.74693
G1 X206.141 Y204.171 E2.76585
G1 X206.155 Y203.647 E2.78812
G1 X206.366 Y202.798 E2.82532
G1 X206.7 Y202.132 E2.857
G1 X207.183 Y201.487 E2.89124
G1 X207.792 Y200.965 E2.92534
G1 X208.361 Y200.636 E2.95327
G1 X208.979 Y200.411 E2.98126
G1 X209.812 Y200.278 E3.01713
G1 X210.473 Y200.303 E3.04522
G1 X211.292 Y200.495 E3.08101
G1 X211.894 Y200.767 E3.10906
G1 X212.613 Y201.287 E3.14682
G1 X213.035 Y201.736 E3.17302
G1 X213.503 Y202.49 E3.21074
G1 X213.724 Y203.067 E3.23699
G1 X213.867 Y203.849 E3.27077
G1 X213.857 Y204.559 E3.30096
G1 X213.724 Y205.193 E3.32852
G1 X213.568 Y205.636 E3.3485
G1 X213.393 Y206.028 E3.36673
G1 X212.912 Y206.709 E3.40218
G1 X212.406 Y207.178 E3.43153
G1 X212.015 Y207.452 E3.45184
G1 X211.685 Y207.644 E3.46803
G1 X210.933 Y207.918 E3.50208
G1 X210.28 Y208.021 E3.53016
G1 X209.436 Y207.99 E3.56607
G1 X208.795 Y207.84 E3.59405
G1 X208.475 Y207.692 E3.60904
G1 E2.60904 F1800
;WIPE_START
G1 F3600
G1 X207.989 Y207.469 E2.34178
G1 X207.611 Y207.197 E2.10904
;WIPE_END
G92 E0
G1 X208.867 Y208.664 F18000
G1 E1.5 F1800
;TYPE:Bottom surface
;WIDTH:0.5
G1 F2837
G1 X208.652 Y208.879 E1.51289
G1 X208.662 Y208.933 F18000
G1 F2837
G1 X208.947 Y209.218 E1.53005
G1 X209.264 Y208.901 E1.54911
G1 X209.582 Y209.218 E1.56818
G1 X208.947 Y209.852 E1.60632
G1 X208.665 Y209.57 E1.6233
G1 X208.729 Y209.951 F18000
;TYPE:Gap infill
;WIDTH:0.23262
G1 F2837
G1 X208.638 Y210.394 E1.63105
G1 X208.653 Y210.65 E1.63546
;WIDTH:0.251061
G1 X208.711 Y210.792 E1.63836
G1 X208.665 Y210.838 F18000
;TYPE:Bottom surface
;WIDTH:0.5
G1 F2837
G1 X208.947 Y211.121 E1.65535
G1 X208.665 Y211.403 E1.67233
G1 X208.665 Y211.472 F18000
G1 F2837
G1 X208.947 Y211.755 E1.68931
G1 X209.264 Y211.438 E1.70838
G1 X209.582 Y211.755 E1.72745
G1 X208.947 Y212.389 E1.76558
G1 X208.665 Y212.107 E1.78256
G1 X208.665 Y212.741 F18000
G1 F2837
G1 X209.264 Y213.341 E1.81862
G1 X209.582 Y213.024 E1.83768
G1 X209.264 Y212.706 E1.85675
G1 X209.899 Y212.072 E1.89488
G1 X210.216 Y212.389 E1.91395
G1 X209.899 Y212.706 E1.93302
G1 X210.216 Y213.024 E1.95208
G1 X210.533 Y212.706 E1.97115
G1 X210.85 Y213.024 E1.99022
G1 X210.216 Y213.658 E2.02835
G1 X209.899 Y213.341 E2.04742
G1 X209.582 Y213.658 E2.06649
G1 X209.899 Y213.975 E2.08555
G1 X209.264 Y214.609 E2.12369
G1 X208.947 Y214.292 E2.14276
G1 X209.264 Y213.975 E2.16182
G1 X208.665 Y213.375 E2.19787
G1 X208.729 Y213.757 F18000
;TYPE:Gap infill
;WIDTH:0.232622
G1 F2837
G1 X208.638 Y214.199 E2.20562
G1 X208.653 Y214.455 E2.21003
;WIDTH:0.25106
G1 X208.711 Y214.597 E2.21294
G1 X208.665 Y214.644 F18000
;TYPE:Bottom surface
;WIDTH:0.5
G1 F2837
G1 X208.947 Y214.926 E2.22992
G1 X208.665 Y215.209 E2.2469
G1 X208.711 Y215.255 F18000
;TYPE:Gap infill
;WIDTH:0.2634
G1 F2837
G1 X208.653 Y215.397 E2.24999
;WIDTH:0.22822
G1 X208.638 Y215.468 E2.2512
G1 X208.653 Y215.724 E2.2555
;WIDTH:0.251064
G1 X208.711 Y215.866 E2.2584
G1 X208.665 Y215.912 F18000
;TYPE:Bottom surface
;WIDTH:0.5
G1 F2837
G1 X208.947 Y216.195 E2.27539
G1 X208.665 Y216.477 E2.29237
G1 X208.665 Y216.547 F18000
G1 F2837
G1 X208.947 Y216.829 E2.30935
G1 X209.264 Y216.512 E2.32842
G1 X209.582 Y216.829 E2.34749
G1 X208.947 Y217.463 E2.38562
G1 X208.665 Y217.181 E2.40261
G1 X208.665 Y217.815 F18000
G1 F2837
G1 X209.264 Y218.415 E2.43866
G1 X209.582 Y218.098 E2.45772
G1 X209.264 Y217.781 E2.47679
G1 X209.899 Y217.146 E2.51492
G1 X210.216 Y217.463 E2.53399
G1 X209.899 Y217.781 E2.55306
G1 X210.216 Y218.098 E2.57213
G1 X210.533 Y217.781 E2.59119
G1 X210.85 Y218.098 E2.61026
G1 X210.216 Y218.732 E2.64839
G1 X209.899 Y218.415 E2.66746
G1 X209.582 Y218.732 E2.68653
G1 X209.899 Y219.049 E2.7056
G1 X209.264 Y219.683 E2.74373
G1 X208.947 Y219.366 E2.7628
G1 X209.264 Y219.049 E2.78186
G1 X208.665 Y218.449 E2.81791
G1 X208.691 Y218.793 F18000
;TYPE:Gap infill
;WIDTH:0.328016
G1 F2837
G1 X208.691 Y219.692 E2.84148
G1 X208.711 Y219.672 F18000
;WIDTH:0.251061
G1 F2837
G1 X208.653 Y219.53 E2.84439
;WIDTH:0.232622
G1 X208.638 Y219.273 E2.84879
G1 X208.729 Y218.831 E2.85655
G1 X208.665 Y219.718 F18000
;TYPE:Bottom surface
;WIDTH:0.5
G1 F2837
G1 X208.947 Y220 E2.87353
G1 X208.665 Y220.283 E2.89051
G1 X208.665 Y220.352 F18000
G1 F2837
G1 X208.947 Y220.635 E2.9075
G1 X209.264 Y220.318 E2.92656
G1 X209.582 Y220.635 E2.94563
G1 X209.264 Y220.952 E2.9647
G1 X209.899 Y221.586 E3.00283
G1 X210.216 Y221.269 E3.0219
G1 X209.899 Y220.952 E3.04097
G1 X210.216 Y220.635 E3.06003
G1 X210.533 Y220.952 E3.0791
G1 X210.85 Y220.635 E3.09817
G1 X210.216 Y220 E3.1363
G1 X209.899 Y220.318 E3.15537
G1 X209.582 Y220 E3.17444
G1 X210.216 Y219.366 E3.21257
G1 X210.533 Y219.683 E3.23164
G1 X210.85 Y219.366 E3.2507
G1 X210.533 Y219.049 E3.26977
G1 X211.167 Y218.415 E3.30791
G1 X211.335 Y218.583 E3.318
G1 X211.447 Y218.354 F18000
;TYPE:Gap infill
;WIDTH:0.277705
G1 F2837
G1 X211.331 Y218.098 E3.32403
G1 X211.447 Y217.842 E3.33007
G1 E2.11147 F1800
;WIPE_START
G1 F3600
G1 X211.331 Y218.098 E1.97077
G1 X211.447 Y218.354 E1.83007
;WIPE_END
G92 E0
G1 X211.335 Y218.881 F18000
G1 E1.5 F1800
;TYPE:Bottom surface
;WIDTH:0.5
G1 F2837
G1 X211.167 Y219.049 E1.51009
G1 X211.335 Y219.217 E1.52019
G1 X211.074 Y219.382 F18000
;TYPE:Gap infill
;WIDTH:0.160416
G1 F2837
G1 X211.142 Y219.41 E1.52094
G1 X211.26 Y219.39 E1.52218
;WIDTH:0.211444
G1 X211.298 Y219.383 E1.52276
;WIDTH:0.25437
G1 X211.335 Y219.376 E1.52349
;WIDTH:0.273268
G1 X211.447 Y219.636 E1.52946
G1 X211.335 Y219.851 F18000
;TYPE:Bottom surface
;WIDTH:0.5
G1 F2837
G1 X211.167 Y219.683 E1.53955
G1 X210.85 Y220 E1.55862
G1 X211.335 Y220.485 E1.58778
G1 X211.074 Y220.651 F18000
;TYPE:Gap infill
;WIDTH:0.160416
G1 F2837
G1 X211.142 Y220.679 E1.58853
G1 X211.26 Y220.658 E1.58977
;WIDTH:0.211444
G1 X211.298 Y220.651 E1.59035
;WIDTH:0.25437
G1 X211.335 Y220.644 E1.59108
;WIDTH:0.273268
G1 X211.447 Y220.905 E1.59705
G1 E.23897 F1800
;WIPE_START
G1 F3600
G1 X211.335 Y220.644 E.09705
;WIPE_END
G92 E0
G1 X211.122 Y221.949 F18000
G1 E1.5 F1800
;WIDTH:0.244704
G1 F2837
G1 X211.226 Y221.926 E1.50196
;WIDTH:0.264361
G1 X211.331 Y221.904 E1.50412
;WIDTH:0.27736
G1 X211.44 Y222.145 E1.50979
G1 X211.338 Y222.074 F18000
;WIDTH:0.111182
G1 F2837
G1 X211.419 Y221.679 E1.51207
G1 X211.419 Y221.493 E1.51312
G1 X211.341 Y221.114 E1.51531
G1 X211.335 Y221.12 F18000
;TYPE:Bottom surface
;WIDTH:0.5
G1 F2837
G1 X211.167 Y220.952 E1.5254
G1 X210.85 Y221.269 E1.54447
G1 X211.167 Y221.586 E1.56354
G1 X210.85 Y221.903 E1.5826
G1 X210.533 Y221.586 E1.60167
G1 X210.216 Y221.903 E1.62074
G1 X210.85 Y222.538 E1.65887
G1 X211.167 Y222.22 E1.67794
G1 X211.3 Y222.353 E1.68593
G1 X211.402 Y222.438 F18000
;TYPE:Gap infill
;WIDTH:0.335724
G1 F2837
G1 X211.065 Y222.855 E1.70036
G1 X211.036 Y222.855 E1.70115
;WIDTH:0.296063
G1 X210.961 Y222.842 E1.70291
;WIDTH:0.259793
G1 X210.886 Y222.829 E1.70441
;WIDTH:0.241657
G1 X210.812 Y222.816 E1.70577
G1 X210.842 Y223.164 F18000
;TYPE:Bottom surface
;WIDTH:0.5
G1 F2837
G1 X210.533 Y222.855 E1.72436
G1 X210.216 Y223.172 E1.74343
G1 X210.444 Y223.399 E1.75711
G1 X210.349 Y223.539 F18000
;TYPE:Gap infill
;WIDTH:0.209904
G1 F2837
G1 X210.602 Y223.354 E1.76182
G1 X210.624 Y223.357 E1.76215
;WIDTH:0.173062
G1 X210.645 Y223.361 E1.7624
;WIDTH:0.14153
G1 X210.709 Y223.348 E1.76296
G1 X210.797 Y223.284 E1.76389
;WIDTH:0.166318
G1 X211.044 Y223.049 E1.7676
;WIDTH:0.195271
G1 X211.102 Y222.797 E1.77112
;WIDTH:0.236547
G1 X211.153 Y222.551 E1.77552
G1 E.40103 F1800
;WIPE_START
G1 F3600
G1 X211.102 Y222.797 E.27552
;WIPE_END
G92 E0
G1 X209.882 Y223.472 F18000
G1 E1.5 F1800
;TYPE:Bottom surface
;WIDTH:0.5
G1 F2837
G1 X209.582 Y223.172 E1.51804
G1 X209.414 Y223.34 E1.52813
G1 X209.545 Y223.499 F18000
;TYPE:Gap infill
;WIDTH:0.106854
G1 F2837
G1 X209.516 Y223.482 E1.5283
;WIDTH:0.129756
G1 X209.411 Y223.408 E1.52926
;WIDTH:0.172496
G1 X209.307 Y223.333 E1.53073
;WIDTH:0.198439
G1 X209.255 Y223.287 E1.5317
G1 X209.257 Y223.183 E1.53315
G1 X209.255 Y223.287 F18000
;WIDTH:0.185933
G1 F2837
G1 X209.215 Y223.275 E1.53369
;WIDTH:0.155202
G1 X209.174 Y223.262 E1.53411
G1 X208.99 Y223.097 E1.53654
G1 X208.855 Y222.947 E1.53852
;WIDTH:0.15922
G1 X208.845 Y222.904 E1.53897
;WIDTH:0.186697
G1 X208.837 Y222.854 E1.53963
G1 X208.647 Y222.597 E1.54371
G1 X208.79 Y222.695 F18000
;TYPE:Bottom surface
;WIDTH:0.5
G1 F2837
G1 X208.947 Y222.538 E1.55319
G1 X208.69 Y222.281 E1.56864
G1 X208.735 Y222.236 F18000
;TYPE:Gap infill
;WIDTH:0.265185
G1 F2837
G1 X208.66 Y222.084 E1.57209
;WIDTH:0.233271
G1 X208.638 Y221.996 E1.57364
G1 X208.638 Y221.81 E1.57684
G1 X208.729 Y221.368 E1.58462
G1 X208.665 Y220.987 F18000
;TYPE:Bottom surface
;WIDTH:0.5
G1 F2837
G1 X209.264 Y221.586 E1.62067
G1 X208.947 Y221.903 E1.63974
G1 X209.264 Y222.22 E1.65881
G1 X209.582 Y221.903 E1.67787
G1 X210.216 Y222.538 E1.71601
G1 X209.899 Y222.855 E1.73507
G1 X209.582 Y222.538 E1.75414
G1 X209.047 Y223.072 E1.7863
