; HEADER_BLOCK_START
; generated by AnycubicSlicerNext 1.1.1 on 2025-12-15 at 02:37:34
; total layer number: 80
; filament_density: 1.24
; filament_diameter: 1.75
; max_z_height: 16.04
; HEADER_BLOCK_END

; THUMBNAIL_BLOCK_START

;
; THUMBNAIL_BLOCK_END

; external perimeters extrusion width = 0.42mm
; perimeters extrusion width = 0.45mm
; infill extrusion width = 0.45mm
; solid infill extrusion width = 0.42mm
; top infill extrusion width = 0.42mm
; first layer extrusion width = 0.50mm

; EXECUTABLE_BLOCK_START
;TYPE:Custom
G90 ; use absolute coordinates
M83 ; extruder relative mode
M140 S60 ; set bed temp
M190 S60 ; wait for bed temp
M104 S220 ; set extruder temp
M109 S220 ; wait for extruder temp
G28                                        ; move X/Y/Z to min endstops
G1 Z0.28                                   ; lift nozzle a bit 
G92 E0 
G1 Y3 F2400                                    ; zero the extruded length 
G1 X180  E40 F500                       ; Extrude 25mm of filament in a 5cm line. 
G92 E0                                     ; zero the extruded length again 
G1 E-2 F3000                                ; Retract a little 
G1 X181 F4000                              ; Quickly wipe away from the filament line
M117
M900 K0.07
G90
G21
M82 ; use absolute distances for extrusion
G92 E0
; filament start gcode
M106 S0
;LAYER_CHANGE
;Z:0.24
;HEIGHT:0.24
G1 E-1.5 F1800
G92 E0
; layer num/total_layer_count: 1/80
; update layer progress
M991 S0 P0 ;notify layer change
;_SET_FAN_SPEED_CHANGING_LAYER
SET_VELOCITY_LIMIT ACCEL=5000 ACCEL_TO_DECEL=2500
; printing object FidgetSwitch-Toggle.stl id:140704563698816 copy 0
G1 X202.235 Y196.713 F18000
G1 Z.24
G1 E1.5 F1800
;TYPE:Inner wall
;WIDTH:0.5
G1 F3600
G1 X202.362 Y196.19 E1.52289
G1 X202.613 Y195.425 E1.55713
G1 X202.945 Y194.684 E1.59165
G1 X203.353 Y193.982 E1.62617
G1 X203.712 Y193.478 E1.65246
G1 X204.233 Y192.863 E1.68672
G1 X204.823 Y192.299 E1.72143
G1 X205.46 Y191.805 E1.75569
G1 X205.982 Y191.47 E1.78204
G1 X206.696 Y191.096 E1.81632
G1 X207.451 Y190.797 E1.85084
G1 X208.044 Y190.623 E1.87713
G1 X208.834 Y190.462 E1.91139
G1 X209.646 Y190.383 E1.9461
G1 X210.452 Y190.39 E1.98036
G1 X211.069 Y190.449 E2.00671
G1 X211.864 Y190.597 E2.04108
G1 X212.638 Y190.828 E2.0754
G1 X213.214 Y191.058 E2.10179
G1 X213.934 Y191.42 E2.13606
G1 X214.621 Y191.861 E2.17077
G1 X215.25 Y192.365 E2.20502
G1 X215.699 Y192.792 E2.23137
G1 X216.231 Y193.401 E2.26575
G1 X216.7 Y194.064 E2.30027
G1 X217.094 Y194.769 E2.3346
G1 X217.35 Y195.331 E2.36088
G1 X217.616 Y196.099 E2.39544
G1 X217.8 Y196.887 E2.42983
G1 X217.9 Y197.638 E2.46202
G1 X217.929 Y198.308 E2.49054
G1 X217.887 Y199.119 E2.52507
G1 X217.76 Y199.918 E2.55944
G1 X217.573 Y200.651 E2.59163
G1 X217.348 Y201.284 E2.62018
G1 X217.004 Y202.018 E2.65462
G1 X216.589 Y202.706 E2.68882
G1 X216.231 Y203.209 E2.71502
G1 X215.827 Y203.675 E2.74126
G1 X215.255 Y204.241 E2.77547
G1 X214.621 Y204.748 E2.80999
G1 X213.937 Y205.187 E2.84455
G1 X213.388 Y205.471 E2.87083
G1 X212.642 Y205.781 E2.90516
G1 X211.864 Y206.012 E2.93968
G1 X211.069 Y206.161 E2.97405
G1 X210.452 Y206.22 E3.0004
G1 X209.646 Y206.226 E3.03466
G1 X208.834 Y206.148 E3.06937
G1 X208.044 Y205.987 E3.10363
G1 X207.451 Y205.812 E3.12992
G1 X206.696 Y205.513 E3.16444
G1 X205.982 Y205.139 E3.19872
G1 X205.46 Y204.804 E3.22507
G1 X204.823 Y204.311 E3.25933
G1 X204.233 Y203.746 E3.29404
G1 X203.712 Y203.131 E3.3283
G1 X203.353 Y202.628 E3.35459
G1 X202.945 Y201.926 E3.38911
G1 X202.616 Y201.19 E3.42338
G1 X202.413 Y200.604 E3.44973
G1 X202.217 Y199.822 E3.484
G1 X202.103 Y199.014 E3.51871
G1 X202.074 Y198.203 E3.55321
G1 X202.126 Y197.394 E3.5877
G1 X202.218 Y196.786 E3.6138
G1 X202.235 Y196.713 E3.617
G1 X202.671 Y196.819 F18000
;TYPE:Outer wall
G1 F3600
G1 X202.794 Y196.313 E3.63914
G1 X203.032 Y195.587 E3.67163
G1 X203.345 Y194.889 E3.70415
G1 X203.731 Y194.225 E3.73679
G1 X204.066 Y193.754 E3.76139
G1 X204.56 Y193.171 E3.79385
G1 X205.116 Y192.639 E3.82656
G1 X205.719 Y192.172 E3.85899
G1 X206.207 Y191.858 E3.88366
G1 X206.883 Y191.505 E3.91609
G1 X207.597 Y191.222 E3.94873
G1 X208.152 Y191.059 E3.97334
G1 X208.9 Y190.906 E4.0058
G1 X209.666 Y190.832 E4.03851
G1 X210.429 Y190.838 E4.07094
G1 X211.006 Y190.893 E4.0956
G1 X211.758 Y191.034 E4.12813
G1 X212.49 Y191.252 E4.16058
G1 X213.029 Y191.468 E4.18528
G1 X213.712 Y191.81 E4.21774
G1 X214.359 Y192.226 E4.25045
G1 X214.955 Y192.703 E4.28288
G1 X215.375 Y193.103 E4.30755
G1 X215.879 Y193.679 E4.34007
G1 X216.32 Y194.304 E4.37259
G1 X216.693 Y194.972 E4.40514
G1 X216.934 Y195.498 E4.42974
G1 X217.185 Y196.224 E4.46239
G1 X217.358 Y196.968 E4.49487
G1 X217.453 Y197.677 E4.5253
G1 X217.48 Y198.306 E4.55204
G1 X217.44 Y199.072 E4.58466
G1 X217.321 Y199.827 E4.61715
G1 X217.143 Y200.52 E4.64758
G1 X216.933 Y201.113 E4.67433
G1 X216.608 Y201.806 E4.70686
G1 X216.214 Y202.46 E4.73933
G1 X215.878 Y202.931 E4.7639
G1 X215.5 Y203.368 E4.78849
G1 X214.956 Y203.905 E4.82097
G1 X214.359 Y204.384 E4.8535
G1 X213.713 Y204.798 E4.88615
G1 X213.199 Y205.063 E4.91075
G1 X212.492 Y205.357 E4.9433
G1 X211.758 Y205.576 E4.97582
G1 X211.006 Y205.716 E5.00834
G1 X210.429 Y205.771 E5.03301
G1 X209.666 Y205.778 E5.06544
G1 X208.9 Y205.704 E5.09815
G1 X208.152 Y205.551 E5.13061
G1 X207.597 Y205.388 E5.15522
G1 X206.883 Y205.105 E5.18786
G1 X206.207 Y204.751 E5.22029
G1 X205.719 Y204.437 E5.24495
G1 X205.116 Y203.97 E5.27738
G1 X204.56 Y203.439 E5.31009
G1 X204.066 Y202.856 E5.34255
G1 X203.731 Y202.385 E5.36716
G1 X203.345 Y201.721 E5.3998
G1 X203.033 Y201.025 E5.43223
G1 X202.843 Y200.476 E5.4569
G1 X202.658 Y199.736 E5.48933
G1 X202.55 Y198.975 E5.52204
G1 X202.523 Y198.209 E5.55458
G1 X202.572 Y197.442 E5.5873
G1 X202.658 Y196.873 E5.61174
G1 X202.671 Y196.819 E5.6141
G1 E4.6141 F1800
;WIPE_START
G1 F3600
G1 X202.794 Y196.313 E4.35375
G1 X202.943 Y195.858 E4.1141
;WIPE_END
G92 E0
G1 X217.527 Y191.496 F18000
G1 E1.5 F1800
;TYPE:Inner wall
G1 F3600
G1 X217.505 Y191.518 E1.5013
G1 X218.311 Y192.619 E1.55933
G1 X218.706 Y193.247 E1.59085
G1 X219.098 Y193.987 E1.62646
G1 X219.425 Y194.757 E1.66204
G1 X219.686 Y195.551 E1.69755
G1 X219.88 Y196.369 E1.73331
G1 X219.982 Y196.973 E1.75936
G1 X220.059 Y197.81 E1.79507
G1 X220.066 Y198.436 E1.82169
G1 X219.998 Y199.482 E1.86627
G1 X219.911 Y200.09 E1.89235
G1 X219.729 Y200.905 E1.92788
G1 X219.477 Y201.708 E1.96365
G1 X219.253 Y202.277 E1.98964
G1 X218.891 Y203.034 E2.02533
G1 X218.467 Y203.756 E2.06091
G1 X217.983 Y204.442 E2.09662
G1 X217.596 Y204.916 E2.12261
G1 X217.02 Y205.526 E2.1583
G1 X216.396 Y206.083 E2.19388
G1 X215.724 Y206.588 E2.22959
G1 X215.21 Y206.923 E2.25566
G1 X214.072 Y207.551 E2.31095
G1 X214.072 Y234.28 E3.44726
G1 X214.04 Y234.798 E3.46934
G1 X213.948 Y235.292 E3.49073
G1 X213.844 Y235.639 E3.50613
G1 X213.652 Y236.099 E3.52731
G1 X213.345 Y236.621 E3.55307
G1 X213.111 Y236.93 E3.56953
G1 X212.862 Y237.193 E3.58492
G1 X212.377 Y237.606 E3.61201
G1 X211.956 Y237.871 E3.63315
G1 X211.627 Y238.035 E3.64876
G1 X211.264 Y238.172 E3.66526
G1 X210.676 Y238.318 E3.69101
G1 X210.181 Y238.37 E3.71218
G1 X209.825 Y238.37 E3.72733
G1 X209.198 Y238.293 E3.75419
G1 X208.74 Y238.173 E3.7743
G1 X208.375 Y238.036 E3.79086
G1 X207.926 Y237.806 E3.81234
G1 X207.623 Y237.607 E3.82775
G1 X207.239 Y237.293 E3.84883
G1 X206.814 Y236.834 E3.87542
G1 X206.541 Y236.447 E3.89556
G1 X206.351 Y236.106 E3.91214
G1 X206.156 Y235.639 E3.93364
G1 X206.052 Y235.292 E3.94904
G1 X205.96 Y234.798 E3.97043
G1 X205.928 Y234.28 E3.99251
G1 X205.928 Y207.551 E5.12882
G1 X204.79 Y206.923 E5.18411
G1 X204.276 Y206.588 E5.21018
G1 X203.604 Y206.083 E5.2459
G1 X202.98 Y205.526 E5.28147
G1 X202.404 Y204.916 E5.31716
G1 X202.017 Y204.442 E5.34315
G1 X201.533 Y203.756 E5.37886
G1 X201.109 Y203.034 E5.41444
G1 X200.747 Y202.277 E5.45013
G1 X200.523 Y201.708 E5.47613
G1 X200.271 Y200.905 E5.51191
G1 X200.089 Y200.089 E5.54745
G1 X200.002 Y199.482 E5.5735
G1 X199.934 Y198.436 E5.61808
G1 X199.941 Y197.81 E5.64471
G1 X200.018 Y196.973 E5.68041
G1 X200.12 Y196.369 E5.70646
G1 X200.314 Y195.551 E5.74222
G1 X200.575 Y194.757 E5.77773
G1 X200.902 Y193.987 E5.81331
G1 X201.294 Y193.247 E5.84892
G1 X201.689 Y192.619 E5.88045
G1 X202.495 Y191.518 E5.93847
G1 X201.282 Y190.305 E6.0114
G1 X209.985 Y181.602 E6.53464
G1 X210.095 Y181.681 E6.54039
G1 X218.718 Y190.305 E7.05887
G1 X217.527 Y191.496 E7.13049
G1 X218.094 Y191.563 F18000
;TYPE:Outer wall
G1 F3600
G1 X218.683 Y192.367 E7.17285
G1 X219.095 Y193.022 E7.20576
G1 X219.503 Y193.794 E7.24289
G1 X219.845 Y194.599 E7.28008
G1 X220.118 Y195.429 E7.3172
G1 X220.32 Y196.28 E7.3544
G1 X220.427 Y196.915 E7.38176
G1 X220.448 Y197.137 E7.39125
G1 X220.507 Y197.787 E7.41899
G1 X220.515 Y198.436 E7.44657
G1 X220.444 Y199.532 E7.49327
G1 X220.353 Y200.17 E7.5207
G1 X220.163 Y201.022 E7.55778
G1 X219.9 Y201.857 E7.59502
G1 X219.665 Y202.456 E7.62237
G1 X219.287 Y203.245 E7.65955
G1 X218.845 Y204 E7.69674
G1 X218.34 Y204.714 E7.73392
G1 X217.933 Y205.212 E7.76126
G1 X217.333 Y205.848 E7.79845
G1 X216.68 Y206.431 E7.83564
G1 X215.981 Y206.956 E7.87281
G1 X215.441 Y207.307 E7.90021
G1 X214.52 Y207.816 E7.94494
G1 X214.52 Y234.293 E9.07059
G1 X214.486 Y234.853 E9.09442
G1 X214.384 Y235.398 E9.118
G1 X214.267 Y235.79 E9.13541
G1 X214.054 Y236.3 E9.1589
G1 X213.718 Y236.872 E9.18708
G1 X213.453 Y237.22 E9.20568
G1 X213.171 Y237.519 E9.22315
G1 X212.643 Y237.969 E9.25266
G1 X212.176 Y238.262 E9.27608
G1 X211.807 Y238.447 E9.29362
G1 X211.397 Y238.601 E9.31224
G1 X210.754 Y238.76 E9.34042
G1 X210.205 Y238.818 E9.3639
G1 X209.797 Y238.818 E9.38122
G1 X209.113 Y238.734 E9.41052
G1 X208.604 Y238.601 E9.43289
G1 X208.194 Y238.447 E9.45154
G1 X207.7 Y238.194 E9.47514
G1 X207.357 Y237.969 E9.49255
G1 X206.931 Y237.621 E9.51596
G1 X206.465 Y237.117 E9.54515
G1 X206.161 Y236.686 E9.56753
G1 X205.947 Y236.303 E9.58621
G1 X205.733 Y235.79 E9.60981
G1 X205.616 Y235.398 E9.62722
G1 X205.514 Y234.853 E9.6508
G1 X205.48 Y234.293 E9.67463
G1 X205.48 Y207.816 E10.80028
G1 X204.559 Y207.307 E10.84501
G1 X204.019 Y206.956 E10.87241
G1 X203.32 Y206.431 E10.90958
G1 X202.667 Y205.848 E10.94677
G1 X202.067 Y205.212 E10.98396
G1 X201.66 Y204.714 E11.0113
G1 X201.155 Y204 E11.04847
G1 X200.713 Y203.245 E11.08567
G1 X200.335 Y202.456 E11.12285
G1 X200.1 Y201.857 E11.15019
G1 X199.837 Y201.021 E11.18746
G1 X199.647 Y200.17 E11.22454
G1 X199.556 Y199.532 E11.25195
G1 X199.485 Y198.436 E11.29864
G1 X199.493 Y197.787 E11.32623
G1 X199.552 Y197.137 E11.35397
G1 X199.573 Y196.915 E11.36345
G1 X199.68 Y196.28 E11.39082
G1 X199.882 Y195.429 E11.42802
G1 X200.155 Y194.599 E11.46514
G1 X200.497 Y193.794 E11.50233
G1 X200.905 Y193.022 E11.53946
G1 X201.317 Y192.367 E11.57237
G1 X201.906 Y191.563 E11.61472
G1 X200.648 Y190.305 E11.69038
G1 X209.623 Y181.33 E12.23001
G1 X209.775 Y181.222 E12.2379
G1 X209.879 Y181.185 E12.2426
G1 X209.994 Y181.17 E12.24753
G1 X210.107 Y181.182 E12.25239
G1 X210.226 Y181.223 E12.25771
G1 X210.386 Y181.338 E12.2661
G1 X219.353 Y190.305 E12.8052
G1 X218.094 Y191.563 E12.88085
G1 E11.88085 F1800
;WIPE_START
G1 F3600
G1 X218.683 Y192.367 E11.38273
G1 X218.685 Y192.37 E11.38085
;WIPE_END
G92 E0
G1 X218.077 Y192.779 F18000
G1 E1.5 F1800
;TYPE:Gap infill
;WIDTH:0.180663
G1 F3600
G1 X217.991 Y192.676 E1.50163
;WIDTH:0.172373
G1 X217.981 Y192.638 E1.50208
;WIDTH:0.142641
G1 X217.971 Y192.6 E1.50242
G1 X217.723 Y192.311 E1.50572
G1 X217.629 Y192.313 E1.50653
G1 X217.552 Y192.151 F18000
;TYPE:Bottom surface
;WIDTH:0.5
G1 F3600
G1 X217.511 Y192.11 E1.50903
G1 X216.876 Y192.744 E1.54716
G1 X217.193 Y193.061 E1.56623
G1 X216.876 Y193.378 E1.5853
G1 X216.559 Y193.061 E1.60436
G1 X216.464 Y193.156 E1.61007
G1 X216.425 Y193.196 F18000
;TYPE:Gap infill
;WIDTH:0.14514
G1 F3600
G1 X216.26 Y193.018 E1.61222
G1 X216.286 Y192.993 E1.61254
;WIDTH:0.102078
G1 X216.311 Y192.968 E1.61271
G1 E.13045 F1800
;WIPE_START
G1 F3600
G1 X216.286 Y192.993 E.11271
;WIPE_END
G92 E0
G1 X217.103 Y193.922 F18000
G1 E1.5 F1800
;WIDTH:0.177165
G1 F3600
G1 X216.744 Y193.642 E1.50543
;WIDTH:0.148388
G1 X216.627 Y193.503 E1.50709
;WIDTH:0.134033
G1 X216.51 Y193.364 E1.50852
G1 X216.781 Y193.601 F18000
;WIDTH:0.210338
G1 F3600
G1 X216.964 Y193.903 E1.51383
;WIDTH:0.245914
G1 X217.071 Y194.045 E1.51712
;WIDTH:0.294898
G1 X217.179 Y194.187 E1.52123
;WIDTH:0.343882
G1 X217.287 Y194.33 E1.52618
;WIDTH:0.354831
G1 X217.306 Y194.33 E1.52673
;WIDTH:0.327744
G1 X217.325 Y194.33 E1.52723
;WIDTH:0.296065
G1 X217.4 Y194.343 E1.52899
;WIDTH:0.259795
G1 X217.474 Y194.355 E1.53048
;WIDTH:0.223524
G1 X217.549 Y194.368 E1.53172
G1 X217.274 Y194.584 F18000
;WIDTH:0.138036
G1 F3600
G1 X217.399 Y194.758 E1.53348
G1 X217.44 Y194.717 F18000
;TYPE:Bottom surface
;WIDTH:0.5
G1 F3600
G1 X217.511 Y194.647 E1.53773
G1 X218.145 Y195.281 E1.57586
G1 X217.828 Y195.598 E1.59493
G1 X218.145 Y195.915 E1.61399
G1 X218.462 Y195.598 E1.63306
G1 X218.779 Y195.915 E1.65213
G1 X218.462 Y196.232 E1.6712
G1 X218.779 Y196.55 E1.69026
G1 X219.096 Y196.232 E1.70933
G1 X219.601 Y196.737 E1.73969
G1 X219.639 Y196.959 F18000
G1 F3600
G1 X219.413 Y197.184 E1.75323
G1 X219.096 Y196.867 E1.7723
G1 X218.779 Y197.184 E1.79137
G1 X219.096 Y197.501 E1.81043
G1 X218.779 Y197.818 E1.8295
G1 X218.184 Y197.223 E1.86527
G1 X218.175 Y197.154 F18000
G1 F3600
G1 X218.462 Y196.867 E1.88252
G1 X218.145 Y196.55 E1.90159
G1 X218.081 Y196.613 E1.9054
G1 X218.052 Y196.325 F18000
;TYPE:Gap infill
;WIDTH:0.141181
G1 F3600
G1 X217.822 Y195.935 E1.90925
G1 X217.81 Y195.943 F18000
;WIDTH:0.258134
G1 F3600
G1 X217.991 Y196.232 E1.91595
G1 X218.238 Y196.232 E1.92077
G1 X217.74 Y195.369 F18000
;WIDTH:0.223509
G1 F3600
G1 X217.614 Y195.178 E1.9245
;WIDTH:0.191544
G1 X217.553 Y195.091 E1.92591
;WIDTH:0.157056
G1 X217.493 Y195.004 E1.92697
;WIDTH:0.139812
G1 X217.432 Y194.917 E1.92786
G1 E.48091 F1800
;WIPE_START
G1 F3600
G1 X217.493 Y195.004 E.42786
;WIPE_END
G92 E0
G1 X218.296 Y193.227 F18000
G1 E1.5 F1800
;TYPE:Bottom surface
;WIDTH:0.5
G1 F3600
G1 X217.828 Y193.695 E1.52817
G1 X217.511 Y193.378 E1.54724
G1 X217.193 Y193.695 E1.5663
G1 X217.828 Y194.33 E1.60444
G1 X218.145 Y194.013 E1.62351
G1 X218.462 Y194.33 E1.64257
G1 X218.145 Y194.647 E1.66164
G1 X218.779 Y195.281 E1.69977
G1 X219.096 Y194.964 E1.71884
G1 X218.779 Y194.647 E1.73791
G1 X218.943 Y194.483 E1.74776
G1 X219.091 Y194.6 F18000
;TYPE:Gap infill
;WIDTH:0.130251
G1 F3600
G1 X219.013 Y194.484 E1.74881
;WIDTH:0.180106
G1 X218.935 Y194.368 E1.75051
;WIDTH:0.22996
G1 X218.856 Y194.252 E1.75288
;WIDTH:0.279624
G1 X218.807 Y194.2 E1.75443
;WIDTH:0.312759
G1 X218.636 Y193.95 E1.76194
G1 X218.676 Y193.91 F18000
;TYPE:Bottom surface
;WIDTH:0.5
G1 F3600
G1 X218.462 Y193.695 E1.77482
G1 X218.528 Y193.629 E1.77878
G1 X218.569 Y193.589 F18000
;TYPE:Gap infill
;WIDTH:0.198165
G1 F3600
G1 X218.481 Y193.471 E1.78082
;WIDTH:0.194473
G1 X218.485 Y193.445 E1.78117
;WIDTH:0.163732
G1 X218.489 Y193.42 E1.78145
;WIDTH:0.127485
G1 X218.477 Y193.363 E1.78187
;WIDTH:0.135655
G1 X218.36 Y193.216 E1.78337
;WIDTH:0.17757
G1 X218.242 Y193.068 E1.78562
G1 X218.246 Y193.032 E1.78606
;WIDTH:0.140843
G1 X218.232 Y192.974 E1.78657
G1 X218.077 Y192.779 E1.78868
G1 X218.051 Y192.837 F18000
;TYPE:Bottom surface
;WIDTH:0.5
G1 F3600
G1 X217.828 Y193.061 E1.80213
G1 X217.511 Y192.744 E1.8212
G1 X217.785 Y192.469 E1.83771
G1 X217.45 Y191.885 F18000
;TYPE:Gap infill
;WIDTH:0.134683
G1 F3600
G1 X217.289 Y191.697 E1.83966
G1 X217.249 Y191.737 F18000
;TYPE:Bottom surface
;WIDTH:0.5
G1 F3600
G1 X217.193 Y191.793 E1.843
G1 X216.876 Y191.475 E1.86206
G1 X216.559 Y191.793 E1.88113
G1 X216.876 Y192.11 E1.9002
G1 X216.242 Y192.744 E1.93833
G1 X215.925 Y192.427 E1.9574
G1 X216.242 Y192.11 E1.97647
G1 X215.925 Y191.793 E1.99553
G1 X215.608 Y192.11 E2.0146
G1 X215.291 Y191.793 E2.03367
G1 X215.925 Y191.158 E2.0718
G1 X216.242 Y191.475 E2.09087
G1 X216.559 Y191.158 E2.10994
G1 X216.242 Y190.841 E2.129
G1 X215.608 Y190.207 E2.16714
G1 X215.291 Y190.524 E2.1862
G1 X215.608 Y190.841 E2.20527
G1 X214.974 Y191.475 E2.24341
G1 X214.656 Y191.158 E2.26247
G1 X214.974 Y190.841 E2.28154
